; generated by Slic3r 1.2.9 on 2021-05-10 at 22:31:32

; external perimeters extrusion width = 0.40mm
; perimeters extrusion width = 0.67mm
; infill extrusion width = 0.67mm
; solid infill extrusion width = 0.67mm
; top infill extrusion width = 0.67mm

M190 S60 ; set bed temperature
M104 S205 ; set temperature
G28 ; home all axes
G1 Z5 F5000 ; lift nozzle

M109 S205 ; wait for temperature to be reached
G21 ; set units to millimeters
G90 ; use absolute coordinates
M82 ; use absolute distances for extrusion
G92 E0
G1 Z0.200 F1800.000
G1 E-3.00000 F2400.00000
G92 E0
G1 X70.189 Y70.183 F1800.000
G1 E3.00000 F2400.00000
G1 X73.362 Y67.009 E3.08967 F1800.000
G1 X102.936 Y66.999 E3.68048
G1 X103.597 Y67.034 E3.69370
G1 X104.487 Y67.174 E3.71170 F1800.000
G1 X104.956 Y67.285 E3.72134
G1 X105.418 Y67.425 E3.73098
G1 X105.871 Y67.592 E3.74062
G1 X106.313 Y67.786 E3.75026
G1 X106.742 Y68.006 E3.75991
G1 X107.157 Y68.252 E3.76955
G1 X107.854 Y68.749 E3.78664
G1 X108.223 Y69.061 E3.79628
G1 X108.572 Y69.394 E3.80593
G1 X108.900 Y69.748 E3.81557
G1 X109.206 Y70.121 E3.82522
G1 X109.489 Y70.513 E3.83486
G1 X109.748 Y70.919 E3.84449
G1 X109.982 Y71.342 E3.85413
G1 X110.190 Y71.777 E3.86378
G1 X110.488 Y72.565 E3.88061
G1 X110.621 Y73.028 E3.89023
G1 X110.726 Y73.499 E3.89988
G1 X110.802 Y73.976 E3.90952
G1 X110.850 Y74.456 E3.91916
G1 X110.868 Y74.938 E3.92880
G1 X110.857 Y75.421 E3.93844
G1 X110.817 Y75.902 E3.94809
G1 X110.749 Y76.379 E3.95772
G1 X110.651 Y76.852 E3.96737
G1 X110.525 Y77.318 E3.97701
G1 X110.371 Y77.775 E3.98664
G1 X110.190 Y78.223 E3.99630
G1 X109.872 Y78.863 E4.01058
G1 X109.489 Y79.487 E4.02521
G1 X109.019 Y80.125 E4.04104
G1 X108.576 Y80.617 E4.05426
G1 X89.364 Y99.818 E4.59690
G1 X89.323 Y100.272 E4.60599
G1 X89.684 Y100.814 E4.61901
G1 X89.982 Y101.342 E4.63112
G1 X90.233 Y101.877 E4.64293
G1 X90.454 Y102.460 E4.65540
G1 X90.675 Y103.254 E4.67186
G1 X90.766 Y103.728 E4.68150
G1 X90.829 Y104.207 E4.69114
G1 X90.862 Y104.688 E4.70078
G1 X90.867 Y105.171 E4.71043
G1 X90.829 Y105.793 E4.72288
G1 X90.766 Y106.272 E4.73253
G1 X90.651 Y106.852 E4.74434
G1 X90.525 Y107.318 E4.75398
G1 X90.371 Y107.775 E4.76362
G1 X90.189 Y108.223 E4.77328
G1 X89.925 Y108.767 E4.78537
G1 X89.684 Y109.186 E4.79502
G1 X89.419 Y109.589 E4.80466
G1 X89.061 Y110.061 E4.81648
G1 X88.648 Y110.528 E4.82894
G1 X88.304 Y110.866 E4.83857
G1 X87.939 Y111.183 E4.84823
G1 X87.557 Y111.477 E4.85786
G1 X87.065 Y111.805 E4.86968
G1 X86.646 Y112.046 E4.87933
G1 X86.214 Y112.260 E4.88897
G1 X85.655 Y112.492 E4.90106
G1 X85.197 Y112.646 E4.91071
G1 X84.624 Y112.797 E4.92254
G1 X84.150 Y112.888 E4.93218
G1 X83.597 Y112.966 E4.94334
G1 X82.936 Y113.001 E4.95657
G1 X73.361 Y112.990 E5.14786
G1 X69.130 Y108.758 E5.26741
G1 X69.130 Y71.242 E6.01691
G1 X70.146 Y70.225 E6.04562
G1 X70.591 Y70.669 F1800.000
G1 X73.623 Y67.637 E6.13129 F1800.000
G1 X102.932 Y67.628 E6.71681
G1 X103.535 Y67.660 E6.72888 F1800.000
G1 X103.921 Y67.713 E6.73667
G1 X104.359 Y67.789 E6.74556
G1 X104.792 Y67.892 E6.75444
G1 X105.218 Y68.020 E6.76332
G1 X105.635 Y68.174 E6.77221
G1 X106.042 Y68.353 E6.78109
G1 X106.438 Y68.556 E6.78998
G1 X106.820 Y68.783 E6.79886
G1 X107.189 Y69.032 E6.80775
G1 X107.541 Y69.303 E6.81662
G1 X107.876 Y69.595 E6.82551
G1 X108.284 Y70.002 E6.83702
G1 X108.576 Y70.338 E6.84590
G1 X108.847 Y70.690 E6.85479
G1 X109.096 Y71.058 E6.86367
G1 X109.370 Y71.529 E6.87454
G1 X109.568 Y71.927 E6.88342
G1 X109.741 Y72.337 E6.89232
G1 X109.890 Y72.756 E6.90121
G1 X110.012 Y73.183 E6.91007
G1 X110.109 Y73.617 E6.91897
G1 X110.179 Y74.056 E6.92784
G1 X110.223 Y74.499 E6.93673
G1 X110.240 Y74.943 E6.94561
G1 X110.230 Y75.387 E6.95449
G1 X110.193 Y75.831 E6.96338
G1 X110.130 Y76.270 E6.97225
G1 X110.040 Y76.707 E6.98115
G1 X109.924 Y77.136 E6.99003
G1 X109.782 Y77.557 E6.99891
G1 X109.615 Y77.969 E7.00780
G1 X109.323 Y78.559 E7.02094
G1 X108.969 Y79.134 E7.03444
G1 X108.533 Y79.726 E7.04913
G1 X108.128 Y80.175 E7.06120
G1 X88.530 Y99.764 E7.61478
G1 X88.501 Y100.240 E7.62431
G1 X88.847 Y100.690 E7.63565
G1 X89.149 Y101.143 E7.64652
G1 X89.370 Y101.529 E7.65541
G1 X89.615 Y102.030 E7.66655
G1 X89.782 Y102.443 E7.67545
G1 X89.952 Y102.960 E7.68632
G1 X90.062 Y103.391 E7.69520
G1 X90.166 Y103.958 E7.70672
G1 X90.223 Y104.499 E7.71759
G1 X90.240 Y104.943 E7.72647
G1 X90.223 Y105.501 E7.73762
G1 X90.179 Y105.943 E7.74650
G1 X90.109 Y106.383 E7.75540
G1 X90.012 Y106.817 E7.76428
G1 X89.890 Y107.244 E7.77316
G1 X89.705 Y107.756 E7.78404
G1 X89.526 Y108.163 E7.79292
G1 X89.258 Y108.673 E7.80442
G1 X88.969 Y109.135 E7.81530
G1 X88.708 Y109.495 E7.82418
G1 X88.426 Y109.839 E7.83307
G1 X88.043 Y110.246 E7.84423
G1 X87.718 Y110.547 E7.85310
G1 X87.294 Y110.890 E7.86398
G1 X86.931 Y111.146 E7.87287
G1 X86.437 Y111.444 E7.88438
G1 X85.952 Y111.689 E7.89525
G1 X85.543 Y111.862 E7.90412
G1 X85.123 Y112.011 E7.91302
G1 X84.585 Y112.161 E7.92418
G1 X84.149 Y112.251 E7.93307
G1 X83.535 Y112.340 E7.94546
G1 X82.932 Y112.372 E7.95753
G1 X73.621 Y112.362 E8.14353
G1 X69.758 Y108.498 E8.25269
G1 X69.758 Y71.502 E8.99179
G1 X70.548 Y70.712 E9.01410
G1 X70.992 Y71.156 F1800.000
G1 X73.883 Y68.266 E9.09577 F1800.000
G1 X102.927 Y68.257 E9.67601
G1 X103.473 Y68.286 E9.68693
G1 X104.232 Y68.404 E9.70228 F1800.000
G1 X105.017 Y68.616 E9.71852
G1 X105.771 Y68.920 E9.73476
G1 X106.483 Y69.313 E9.75101
G1 X107.142 Y69.789 E9.76725
G1 X107.739 Y70.341 E9.78349
G1 X108.265 Y70.961 E9.79974
G1 X108.713 Y71.639 E9.81598
G1 X109.040 Y72.284 E9.83042
G1 X109.322 Y73.047 E9.84668
G1 X109.511 Y73.838 E9.86291
G1 X109.602 Y74.646 E9.87916
G1 X109.596 Y75.458 E9.89539
G1 X109.492 Y76.264 E9.91163
G1 X109.291 Y77.053 E9.92788
G1 X108.997 Y77.811 E9.94413
G1 X108.713 Y78.361 E9.95649
G1 X108.450 Y78.781 E9.96641
G1 X108.046 Y79.327 E9.97997
G1 X107.681 Y79.734 E9.99089
G1 X87.668 Y99.737 E10.55616
G1 X87.655 Y100.238 E10.56618
G1 X88.046 Y100.673 E10.57786
G1 X88.338 Y101.059 E10.58752
G1 X88.614 Y101.472 E10.59745
G1 X88.816 Y101.825 E10.60558
G1 X89.040 Y102.284 E10.61578
G1 X89.223 Y102.746 E10.62571
G1 X89.381 Y103.251 E10.63627
G1 X89.474 Y103.647 E10.64440
G1 X89.556 Y104.137 E10.65433
G1 X89.596 Y104.542 E10.66246
G1 X89.612 Y104.948 E10.67057
G1 X89.596 Y105.458 E10.68078
G1 X89.556 Y105.863 E10.68890
G1 X89.474 Y106.353 E10.69884
G1 X89.381 Y106.749 E10.70696
G1 X89.223 Y107.254 E10.71752
G1 X89.040 Y107.716 E10.72746
G1 X88.816 Y108.175 E10.73765
G1 X88.614 Y108.528 E10.74578
G1 X88.338 Y108.941 E10.75571
G1 X88.090 Y109.263 E10.76383
G1 X87.739 Y109.659 E10.77440
G1 X87.383 Y110.005 E10.78432
G1 X86.989 Y110.333 E10.79454
G1 X86.660 Y110.571 E10.80266
G1 X86.239 Y110.834 E10.81258
G1 X85.771 Y111.080 E10.82315
G1 X85.315 Y111.277 E10.83306
G1 X84.932 Y111.412 E10.84119
G1 X84.439 Y111.550 E10.85141
G1 X84.041 Y111.632 E10.85954
G1 X83.473 Y111.714 E10.87099
G1 X82.927 Y111.743 E10.88191
G1 X73.882 Y111.734 E11.06262
G1 X70.387 Y108.238 E11.16139
G1 X70.387 Y71.762 E11.89008
G1 X70.950 Y71.199 E11.90600
G1 X71.394 Y71.643 F1800.000
G1 X74.143 Y68.894 E11.98367 F1800.000
G1 X102.923 Y68.886 E12.55862
G1 X103.411 Y68.912 E12.56839 F1800.000
G1 X103.741 Y68.957 E12.57505
G1 X104.464 Y69.105 E12.58978
G1 X105.163 Y69.339 E12.60451
G1 X105.828 Y69.655 E12.61923
G1 X106.451 Y70.050 E12.63397
G1 X107.022 Y70.517 E12.64869
G1 X107.362 Y70.857 E12.65830
G1 X107.604 Y71.135 E12.66567
G1 X108.035 Y71.733 E12.68039
G1 X108.262 Y72.121 E12.68937
G1 X108.426 Y72.451 E12.69674
G1 X108.693 Y73.139 E12.71148
G1 X108.875 Y73.853 E12.72620
G1 X108.969 Y74.584 E12.74092
G1 X108.983 Y74.953 E12.74829
G1 X108.969 Y75.416 E12.75755
G1 X108.875 Y76.147 E12.77227
G1 X108.693 Y76.861 E12.78700
G1 X108.426 Y77.549 E12.80174
G1 X108.168 Y78.048 E12.81296
G1 X107.930 Y78.428 E12.82193
G1 X107.560 Y78.929 E12.83436
G1 X107.233 Y79.292 E12.84413
G1 X86.777 Y99.740 E13.42195
G1 X86.777 Y100.260 E13.43234
G1 X87.233 Y100.708 E13.44511
G1 X87.560 Y101.072 E13.45488
G1 X88.035 Y101.733 E13.47115
G1 X88.262 Y102.121 E13.48013
G1 X88.465 Y102.538 E13.48938
G1 X88.631 Y102.955 E13.49837
G1 X88.774 Y103.415 E13.50798
G1 X88.875 Y103.853 E13.51696
G1 X88.933 Y104.218 E13.52434
G1 X88.975 Y104.679 E13.53359
G1 X88.982 Y105.128 E13.54257
G1 X88.953 Y105.608 E13.55218
G1 X88.905 Y105.974 E13.55955
G1 X88.817 Y106.415 E13.56852
G1 X88.721 Y106.771 E13.57589
G1 X88.570 Y107.209 E13.58515
G1 X88.392 Y107.622 E13.59414
G1 X88.168 Y108.048 E13.60374
G1 X87.929 Y108.429 E13.61273
G1 X87.655 Y108.802 E13.62199
G1 X87.362 Y109.143 E13.63096
G1 X87.022 Y109.483 E13.64058
G1 X86.743 Y109.726 E13.64795
G1 X86.386 Y109.997 E13.65692
G1 X85.996 Y110.249 E13.66618
G1 X85.602 Y110.464 E13.67517
G1 X85.163 Y110.661 E13.68478
G1 X84.740 Y110.814 E13.69376
G1 X84.293 Y110.939 E13.70302
G1 X83.932 Y111.013 E13.71039
G1 X83.411 Y111.088 E13.72090
G1 X82.923 Y111.114 E13.73068
G1 X74.142 Y111.106 E13.90609
G1 X71.015 Y107.977 E13.99446
G1 X71.015 Y72.022 E14.71276
G1 X71.352 Y71.685 E14.72228
G1 X71.796 Y72.130 F1800.000
G1 X74.403 Y69.522 E14.79595 F1800.000
G1 X102.918 Y69.515 E15.36561
G1 X103.349 Y69.538 E15.37423
G1 X104.079 Y69.657 E15.38899 F1800.000
G1 X104.714 Y69.840 E15.40220
G1 X105.322 Y70.099 E15.41541
G1 X105.895 Y70.429 E15.42862
G1 X106.424 Y70.826 E15.44184
G1 X106.901 Y71.284 E15.45505
G1 X107.320 Y71.796 E15.46826
G1 X107.674 Y72.355 E15.48147
G1 X107.958 Y72.952 E15.49469
G1 X108.167 Y73.579 E15.50789
G1 X108.300 Y74.227 E15.52110
G1 X108.354 Y74.886 E15.53432
G1 X108.328 Y75.547 E15.54753
G1 X108.222 Y76.200 E15.56074
G1 X108.038 Y76.835 E15.57395
G1 X107.780 Y77.444 E15.58717
G1 X107.587 Y77.797 E15.59520
G1 X107.361 Y78.146 E15.60350
G1 X107.074 Y78.530 E15.61309
G1 X106.785 Y78.850 E15.62171
G1 X85.888 Y99.740 E16.21199
G1 X85.888 Y100.260 E16.22239
G1 X86.785 Y101.150 E16.24762
G1 X87.074 Y101.470 E16.25624
G1 X87.259 Y101.713 E16.26234
G1 X87.505 Y102.070 E16.27100
G1 X87.708 Y102.417 E16.27904
G1 X87.890 Y102.791 E16.28734
G1 X88.038 Y103.165 E16.29538
G1 X88.167 Y103.579 E16.30404
G1 X88.244 Y103.901 E16.31065
G1 X88.310 Y104.298 E16.31869
G1 X88.348 Y104.712 E16.32700
G1 X88.337 Y105.444 E16.34163
G1 X88.285 Y105.875 E16.35030
G1 X88.206 Y106.269 E16.35832
G1 X88.094 Y106.670 E16.36664
G1 X87.958 Y107.048 E16.37467
G1 X87.780 Y107.444 E16.38334
G1 X87.587 Y107.796 E16.39137
G1 X87.361 Y108.146 E16.39968
G1 X87.118 Y108.466 E16.40771
G1 X86.831 Y108.791 E16.41638
G1 X86.478 Y109.127 E16.42611
G1 X86.166 Y109.380 E16.43414
G1 X85.809 Y109.627 E16.44281
G1 X85.386 Y109.869 E16.45254
G1 X85.022 Y110.040 E16.46058
G1 X84.616 Y110.193 E16.46924
G1 X84.231 Y110.307 E16.47727
G1 X83.823 Y110.394 E16.48559
G1 X83.350 Y110.462 E16.49516
G1 X82.918 Y110.485 E16.50378
G1 X74.403 Y110.477 E16.67391
G1 X71.643 Y107.717 E16.75188
G1 X71.643 Y72.283 E17.45978
G1 X71.754 Y72.172 E17.46291
G1 X72.272 Y72.543 F1800.000
G1 X74.664 Y70.150 E17.53049 F1800.000
G1 X102.914 Y70.144 E18.09487
G1 X103.287 Y70.164 E18.10234 F1800.000
G1 X103.562 Y70.200 E18.10787
G1 X104.135 Y70.318 E18.11957
G1 X104.777 Y70.539 E18.13313
G1 X105.301 Y70.801 E18.14483
G1 X105.839 Y71.160 E18.15775
G1 X106.280 Y71.545 E18.16945
G1 X106.672 Y71.980 E18.18114
G1 X107.008 Y72.459 E18.19283
G1 X107.315 Y73.045 E18.20605
G1 X107.518 Y73.594 E18.21775
G1 X107.654 Y74.164 E18.22944
G1 X107.723 Y74.807 E18.24237
G1 X107.711 Y75.392 E18.25406
G1 X107.628 Y75.972 E18.26575
G1 X107.446 Y76.626 E18.27932
G1 X107.217 Y77.164 E18.29102
G1 X107.047 Y77.476 E18.29810
G1 X106.847 Y77.785 E18.30546
G1 X106.587 Y78.131 E18.31410
G1 X106.337 Y78.409 E18.32157
G1 X85.586 Y99.154 E18.90777
G1 X85.428 Y99.336 E18.91258
G1 X85.288 Y99.601 E18.91857
G1 X85.220 Y99.907 E18.92482
G1 X85.235 Y100.206 E18.93081
G1 X85.343 Y100.524 E18.93751
G1 X85.513 Y100.770 E18.94349
G1 X86.337 Y101.591 E18.96673
G1 X86.587 Y101.869 E18.97420
G1 X86.811 Y102.165 E18.98160
G1 X87.008 Y102.459 E18.98869
G1 X87.189 Y102.781 E18.99606
G1 X87.339 Y103.101 E19.00313
G1 X87.477 Y103.463 E19.01085
G1 X87.640 Y104.089 E19.02378
G1 X87.715 Y104.670 E19.03548
G1 X87.715 Y105.330 E19.04868
G1 X87.628 Y105.972 E19.06161
G1 X87.536 Y106.347 E19.06933
G1 X87.398 Y106.754 E19.07792
G1 X87.258 Y107.080 E19.08501
G1 X87.078 Y107.422 E19.09273
G1 X86.890 Y107.723 E19.09981
G1 X86.633 Y108.068 E19.10841
G1 X86.376 Y108.357 E19.11613
G1 X86.122 Y108.603 E19.12321
G1 X85.838 Y108.840 E19.13059
G1 X85.550 Y109.046 E19.13766
G1 X85.219 Y109.246 E19.14538
G1 X84.834 Y109.436 E19.15398
G1 X84.416 Y109.598 E19.16292
G1 X84.076 Y109.698 E19.17001
G1 X83.715 Y109.775 E19.17738
G1 X83.288 Y109.836 E19.18600
G1 X82.914 Y109.856 E19.19348
G1 X74.663 Y109.849 E19.35831
G1 X72.272 Y107.457 E19.42589
G1 X72.272 Y72.603 E20.12220
G1 X72.900 Y72.803 F1800.000
G1 X74.924 Y70.779 E20.17939 F1800.000
G1 X102.909 Y70.773 E20.73847
G1 X103.225 Y70.790 E20.74480
G1 X103.805 Y70.883 E20.75653 F1800.000
G1 X104.295 Y71.025 E20.76671
G1 X104.764 Y71.225 E20.77689
G1 X105.205 Y71.479 E20.78707
G1 X105.612 Y71.785 E20.79725
G1 X105.980 Y72.138 E20.80743
G1 X106.302 Y72.533 E20.81761
G1 X106.575 Y72.964 E20.82779
G1 X106.812 Y73.473 E20.83901
G1 X106.968 Y73.958 E20.84919
G1 X107.063 Y74.458 E20.85937
G1 X107.098 Y74.967 E20.86955
G1 X107.072 Y75.476 E20.87973
G1 X106.984 Y75.978 E20.88991
G1 X106.836 Y76.465 E20.90009
G1 X106.630 Y76.932 E20.91027
G1 X106.302 Y77.467 E20.92281
G1 X106.101 Y77.732 E20.92947
G1 X105.889 Y77.967 E20.93579
G1 X85.137 Y98.714 E21.52203
G1 X84.913 Y98.976 E21.52890
G1 X84.721 Y99.327 E21.53690
G1 X84.614 Y99.698 E21.54462
G1 X84.590 Y99.916 E21.54899
G1 X84.594 Y100.148 E21.55363
G1 X84.672 Y100.541 E21.56163
G1 X84.786 Y100.814 E21.56754
G1 X84.951 Y101.076 E21.57372
G1 X86.101 Y102.268 E21.60682
G1 X86.445 Y102.744 E21.61856
G1 X86.713 Y103.238 E21.62977
G1 X86.932 Y103.826 E21.64232
G1 X87.064 Y104.459 E21.65522
G1 X87.097 Y105.086 E21.66777
G1 X87.044 Y105.677 E21.67962
G1 X86.968 Y106.042 E21.68708
G1 X86.881 Y106.337 E21.69321
G1 X86.761 Y106.654 E21.69999
G1 X86.600 Y106.990 E21.70744
G1 X86.445 Y107.256 E21.71358
G1 X86.221 Y107.576 E21.72139
G1 X85.980 Y107.861 E21.72885
G1 X85.740 Y108.101 E21.73562
G1 X85.507 Y108.301 E21.74177
G1 X85.205 Y108.521 E21.74922
G1 X84.915 Y108.696 E21.75599
G1 X84.580 Y108.862 E21.76346
G1 X84.215 Y109.002 E21.77126
G1 X83.921 Y109.089 E21.77740
G1 X83.226 Y109.210 E21.79150
G1 X82.909 Y109.227 E21.79782
G1 X74.923 Y109.221 E21.95737
G1 X72.900 Y107.197 E22.01454
G1 X72.900 Y72.863 E22.70046
G1 X73.528 Y73.063 F1800.000
G1 X75.184 Y71.407 E22.74725 F1800.000
G1 X102.905 Y71.402 E23.30105
G1 X103.382 Y71.444 E23.31061 F1800.000
G1 X103.807 Y71.531 E23.31928
G1 X104.287 Y71.696 E23.32943
G1 X104.675 Y71.890 E23.33810
G1 X105.071 Y72.155 E23.34761
G1 X105.398 Y72.440 E23.35627
G1 X105.688 Y72.763 E23.36494
G1 X105.967 Y73.166 E23.37473
G1 X106.165 Y73.552 E23.38340
G1 X106.328 Y74.000 E23.39292
G1 X106.435 Y74.497 E23.40307
G1 X106.469 Y74.929 E23.41173
G1 X106.447 Y75.405 E23.42125
G1 X106.372 Y75.832 E23.42991
G1 X106.227 Y76.300 E23.43971
G1 X106.045 Y76.694 E23.44837
G1 X105.793 Y77.098 E23.45789
G1 X105.441 Y77.526 E23.46895
G1 X84.687 Y98.275 E24.05524
G1 X84.398 Y98.615 E24.06416
G1 X84.234 Y98.884 E24.07045
G1 X84.140 Y99.086 E24.07491
G1 X84.043 Y99.371 E24.08092
G1 X83.995 Y99.589 E24.08538
G1 X83.962 Y99.888 E24.09139
G1 X83.962 Y100.112 E24.09586
G1 X83.995 Y100.411 E24.10187
G1 X84.069 Y100.716 E24.10815
G1 X84.228 Y101.104 E24.11652
G1 X84.452 Y101.458 E24.12490
G1 X84.683 Y101.720 E24.13186
G1 X85.615 Y102.667 E24.15841
G1 X85.874 Y103.019 E24.16714
G1 X86.091 Y103.394 E24.17581
G1 X86.286 Y103.864 E24.18596
G1 X86.416 Y104.381 E24.19660
G1 X86.469 Y104.929 E24.20761
G1 X86.440 Y105.461 E24.21825
G1 X86.316 Y106.041 E24.23011
G1 X86.211 Y106.340 E24.23644
G1 X86.091 Y106.606 E24.24226
G1 X85.793 Y107.098 E24.25376
G1 X85.586 Y107.360 E24.26044
G1 X85.367 Y107.589 E24.26676
G1 X85.149 Y107.783 E24.27259
G1 X84.895 Y107.972 E24.27891
G1 X84.378 Y108.263 E24.29076
G1 X84.086 Y108.382 E24.29708
G1 X83.807 Y108.469 E24.30291
G1 X83.498 Y108.538 E24.30923
