; generated by Slic3r 1.2.9 on 2021-05-11 at 22:32:56

; external perimeters extrusion width = 0.40mm
; perimeters extrusion width = 0.67mm
; infill extrusion width = 0.67mm
; solid infill extrusion width = 0.67mm
; top infill extrusion width = 0.67mm

M190 S60 ; set bed temperature
M104 S220 ; set temperature
G28 ; home all axes
G1 Z5 F5000 ; lift nozzle

M109 S220 ; wait for temperature to be reached
G21 ; set units to millimeters
G90 ; use absolute coordinates
M82 ; use absolute distances for extrusion
G92 E0
G1 Z0.200 F1800.000
G1 E-3.00000 F2400.00000
G92 E0
G1 X70.189 Y70.183 F1800.000
G1 E3.00000 F2400.00000
G1 X73.362 Y67.009 E3.09226 F1800.000
G1 X102.936 Y66.999 E3.70014
G1 X103.597 Y67.034 E3.71373
G1 X104.487 Y67.174 E3.73225 F1800.000
G1 X104.956 Y67.285 E3.74217
G1 X105.418 Y67.425 E3.75209
G1 X105.871 Y67.592 E3.76201
G1 X106.313 Y67.786 E3.77193
G1 X106.742 Y68.006 E3.78185
G1 X107.157 Y68.252 E3.79177
G1 X107.854 Y68.749 E3.80936
G1 X108.223 Y69.061 E3.81928
G1 X108.572 Y69.394 E3.82920
G1 X108.900 Y69.748 E3.83913
G1 X109.206 Y70.121 E3.84905
G1 X109.489 Y70.513 E3.85897
G1 X109.748 Y70.919 E3.86888
G1 X109.982 Y71.342 E3.87880
G1 X110.190 Y71.777 E3.88872
G1 X110.488 Y72.565 E3.90604
G1 X110.621 Y73.028 E3.91594
G1 X110.726 Y73.499 E3.92587
G1 X110.802 Y73.976 E3.93578
G1 X110.850 Y74.456 E3.94571
G1 X110.868 Y74.938 E3.95563
G1 X110.857 Y75.421 E3.96554
G1 X110.817 Y75.902 E3.97547
G1 X110.749 Y76.379 E3.98537
G1 X110.651 Y76.852 E3.99531
G1 X110.525 Y77.318 E4.00523
G1 X110.371 Y77.775 E4.01514
G1 X110.190 Y78.223 E4.02507
G1 X109.872 Y78.863 E4.03976
G1 X109.489 Y79.487 E4.05482
G1 X109.019 Y80.125 E4.07110
G1 X108.576 Y80.617 E4.08470
G1 X89.364 Y99.818 E4.64302
G1 X89.323 Y100.272 E4.65238
G1 X89.684 Y100.814 E4.66577
G1 X89.982 Y101.342 E4.67823
G1 X90.233 Y101.877 E4.69038
G1 X90.454 Y102.460 E4.70320
G1 X90.675 Y103.254 E4.72014
G1 X90.766 Y103.728 E4.73006
G1 X90.829 Y104.207 E4.73998
G1 X90.862 Y104.688 E4.74989
G1 X90.867 Y105.171 E4.75983
G1 X90.829 Y105.793 E4.77264
G1 X90.766 Y106.272 E4.78256
G1 X90.651 Y106.852 E4.79472
G1 X90.525 Y107.318 E4.80463
G1 X90.371 Y107.775 E4.81455
G1 X90.189 Y108.223 E4.82449
G1 X89.925 Y108.767 E4.83693
G1 X89.684 Y109.186 E4.84686
G1 X89.419 Y109.589 E4.85678
G1 X89.061 Y110.061 E4.86894
G1 X88.648 Y110.528 E4.88176
G1 X88.304 Y110.866 E4.89167
G1 X87.939 Y111.183 E4.90160
G1 X87.557 Y111.477 E4.91151
G1 X87.065 Y111.805 E4.92367
G1 X86.646 Y112.046 E4.93360
G1 X86.214 Y112.260 E4.94352
G1 X85.655 Y112.492 E4.95596
G1 X85.197 Y112.646 E4.96589
G1 X84.624 Y112.797 E4.97806
G1 X84.150 Y112.888 E4.98798
G1 X83.597 Y112.966 E4.99946
G1 X82.936 Y113.001 E5.01307
G1 X73.361 Y112.990 E5.20989
G1 X69.130 Y108.758 E5.33290
G1 X69.130 Y71.242 E6.10403
G1 X70.146 Y70.225 E6.13358
G1 X70.591 Y70.669 F1800.000
G1 X73.623 Y67.637 E6.22172 F1800.000
G1 X102.932 Y67.628 E6.82415
G1 X103.535 Y67.660 E6.83657 F1800.000
G1 X103.921 Y67.713 E6.84459
G1 X104.359 Y67.789 E6.85373
G1 X104.792 Y67.892 E6.86287
G1 X105.218 Y68.020 E6.87200
G1 X105.635 Y68.174 E6.88115
G1 X106.042 Y68.353 E6.89029
G1 X106.438 Y68.556 E6.89943
G1 X106.820 Y68.783 E6.90857
G1 X107.189 Y69.032 E6.91771
G1 X107.541 Y69.303 E6.92684
G1 X107.876 Y69.595 E6.93599
G1 X108.284 Y70.002 E6.94783
G1 X108.576 Y70.338 E6.95697
G1 X108.847 Y70.690 E6.96611
G1 X109.096 Y71.058 E6.97525
G1 X109.370 Y71.529 E6.98644
G1 X109.568 Y71.927 E6.99557
G1 X109.741 Y72.337 E7.00472
G1 X109.890 Y72.756 E7.01387
G1 X110.012 Y73.183 E7.02300
G1 X110.109 Y73.617 E7.03214
G1 X110.179 Y74.056 E7.04128
G1 X110.223 Y74.499 E7.05042
G1 X110.240 Y74.943 E7.05956
G1 X110.230 Y75.387 E7.06869
G1 X110.193 Y75.831 E7.07784
G1 X110.130 Y76.270 E7.08697
G1 X110.040 Y76.707 E7.09612
G1 X109.924 Y77.136 E7.10526
G1 X109.782 Y77.557 E7.11439
G1 X109.615 Y77.969 E7.12354
G1 X109.323 Y78.559 E7.13706
G1 X108.969 Y79.134 E7.15095
G1 X108.533 Y79.726 E7.16607
G1 X108.128 Y80.175 E7.17848
G1 X88.530 Y99.764 E7.74806
G1 X88.501 Y100.240 E7.75785
G1 X88.847 Y100.690 E7.76952
G1 X89.149 Y101.143 E7.78071
G1 X89.370 Y101.529 E7.78986
G1 X89.615 Y102.030 E7.80132
G1 X89.782 Y102.443 E7.81048
G1 X89.952 Y102.960 E7.82166
G1 X90.062 Y103.391 E7.83080
G1 X90.166 Y103.958 E7.84264
G1 X90.223 Y104.499 E7.85383
G1 X90.240 Y104.943 E7.86296
G1 X90.223 Y105.501 E7.87444
G1 X90.179 Y105.943 E7.88358
G1 X90.109 Y106.383 E7.89273
G1 X90.012 Y106.817 E7.90186
G1 X89.890 Y107.244 E7.91100
G1 X89.705 Y107.756 E7.92220
G1 X89.526 Y108.163 E7.93134
G1 X89.258 Y108.673 E7.94317
G1 X88.969 Y109.135 E7.95437
G1 X88.708 Y109.495 E7.96350
G1 X88.426 Y109.839 E7.97265
G1 X88.043 Y110.246 E7.98413
G1 X87.718 Y110.547 E7.99326
G1 X87.294 Y110.890 E8.00445
G1 X86.931 Y111.146 E8.01359
G1 X86.437 Y111.444 E8.02544
G1 X85.952 Y111.689 E8.03663
G1 X85.543 Y111.862 E8.04575
G1 X85.123 Y112.011 E8.05490
G1 X84.585 Y112.161 E8.06639
G1 X84.149 Y112.251 E8.07553
G1 X83.535 Y112.340 E8.08828
G1 X82.932 Y112.372 E8.10070
G1 X73.621 Y112.362 E8.29207
G1 X69.758 Y108.498 E8.40439
G1 X69.758 Y71.502 E9.16483
G1 X70.548 Y70.712 E9.18779
G1 X70.992 Y71.156 F1800.000
G1 X73.883 Y68.266 E9.27181 F1800.000
G1 X102.927 Y68.257 E9.86881
G1 X103.473 Y68.286 E9.88004
G1 X104.232 Y68.404 E9.89584 F1800.000
G1 X105.017 Y68.616 E9.91255
G1 X105.771 Y68.920 E9.92926
G1 X106.483 Y69.313 E9.94597
G1 X107.142 Y69.789 E9.96268
G1 X107.739 Y70.341 E9.97939
G1 X108.265 Y70.961 E9.99611
G1 X108.713 Y71.639 E10.01282
G1 X109.040 Y72.284 E10.02768
G1 X109.322 Y73.047 E10.04441
G1 X109.511 Y73.838 E10.06111
G1 X109.602 Y74.646 E10.07782
G1 X109.596 Y75.458 E10.09453
G1 X109.492 Y76.264 E10.11123
G1 X109.291 Y77.053 E10.12796
G1 X108.997 Y77.811 E10.14467
G1 X108.713 Y78.361 E10.15739
G1 X108.450 Y78.781 E10.16759
G1 X108.046 Y79.327 E10.18155
G1 X107.681 Y79.734 E10.19278
G1 X87.668 Y99.737 E10.77438
G1 X87.655 Y100.238 E10.78468
G1 X88.046 Y100.673 E10.79670
G1 X88.338 Y101.059 E10.80665
G1 X88.614 Y101.472 E10.81686
G1 X88.816 Y101.825 E10.82523
G1 X89.040 Y102.284 E10.83572
G1 X89.223 Y102.746 E10.84594
G1 X89.381 Y103.251 E10.85680
G1 X89.474 Y103.647 E10.86516
G1 X89.556 Y104.137 E10.87539
G1 X89.596 Y104.542 E10.88374
G1 X89.612 Y104.948 E10.89209
G1 X89.596 Y105.458 E10.90259
G1 X89.556 Y105.863 E10.91095
G1 X89.474 Y106.353 E10.92117
G1 X89.381 Y106.749 E10.92953
G1 X89.223 Y107.254 E10.94040
G1 X89.040 Y107.716 E10.95062
G1 X88.816 Y108.175 E10.96111
G1 X88.614 Y108.528 E10.96948
G1 X88.338 Y108.941 E10.97969
G1 X88.090 Y109.263 E10.98805
G1 X87.739 Y109.659 E10.99892
G1 X87.383 Y110.005 E11.00912
G1 X86.989 Y110.333 E11.01964
G1 X86.660 Y110.571 E11.02799
G1 X86.239 Y110.834 E11.03821
G1 X85.771 Y111.080 E11.04908
G1 X85.315 Y111.277 E11.05927
G1 X84.932 Y111.412 E11.06764
G1 X84.439 Y111.550 E11.07815
G1 X84.041 Y111.632 E11.08652
G1 X83.473 Y111.714 E11.09830
G1 X82.927 Y111.743 E11.10954
G1 X73.882 Y111.734 E11.29546
G1 X70.387 Y108.238 E11.39708
G1 X70.387 Y71.762 E12.14682
G1 X70.950 Y71.199 E12.16320
G1 X71.394 Y71.643 F1800.000
G1 X74.143 Y68.894 E12.24311 F1800.000
G1 X102.923 Y68.886 E12.83467
G1 X103.411 Y68.912 E12.84472 F1800.000
G1 X103.741 Y68.957 E12.85157
G1 X104.464 Y69.105 E12.86672
G1 X105.163 Y69.339 E12.88188
G1 X105.828 Y69.655 E12.89703
G1 X106.451 Y70.050 E12.91219
G1 X107.022 Y70.517 E12.92734
G1 X107.362 Y70.857 E12.93723
G1 X107.604 Y71.135 E12.94481
G1 X108.035 Y71.733 E12.95996
G1 X108.262 Y72.121 E12.96920
G1 X108.426 Y72.451 E12.97677
G1 X108.693 Y73.139 E12.99194
G1 X108.875 Y73.853 E13.00709
G1 X108.969 Y74.584 E13.02223
G1 X108.983 Y74.953 E13.02982
G1 X108.969 Y75.416 E13.03934
G1 X108.875 Y76.147 E13.05449
G1 X108.693 Y76.861 E13.06965
G1 X108.426 Y77.549 E13.08481
G1 X108.168 Y78.048 E13.09635
G1 X107.930 Y78.428 E13.10558
G1 X107.560 Y78.929 E13.11837
G1 X107.233 Y79.292 E13.12842
G1 X86.777 Y99.740 E13.72292
G1 X86.777 Y100.260 E13.73362
G1 X87.233 Y100.708 E13.74676
G1 X87.560 Y101.072 E13.75681
G1 X88.035 Y101.733 E13.77355
G1 X88.262 Y102.121 E13.78279
G1 X88.465 Y102.538 E13.79231
G1 X88.631 Y102.955 E13.80155
G1 X88.774 Y103.415 E13.81145
G1 X88.875 Y103.853 E13.82068
G1 X88.933 Y104.218 E13.82827
G1 X88.975 Y104.679 E13.83780
G1 X88.982 Y105.128 E13.84704
G1 X88.953 Y105.608 E13.85692
G1 X88.905 Y105.974 E13.86451
G1 X88.817 Y106.415 E13.87374
G1 X88.721 Y106.771 E13.88131
G1 X88.570 Y107.209 E13.89084
G1 X88.392 Y107.622 E13.90009
G1 X88.168 Y108.048 E13.90997
G1 X87.929 Y108.429 E13.91922
G1 X87.655 Y108.802 E13.92874
G1 X87.362 Y109.143 E13.93798
G1 X87.022 Y109.483 E13.94787
G1 X86.743 Y109.726 E13.95546
G1 X86.386 Y109.997 E13.96469
G1 X85.996 Y110.249 E13.97421
G1 X85.602 Y110.464 E13.98346
G1 X85.163 Y110.661 E13.99335
G1 X84.740 Y110.814 E14.00259
G1 X84.293 Y110.939 E14.01212
G1 X83.932 Y111.013 E14.01970
G1 X83.411 Y111.088 E14.03051
G1 X82.923 Y111.114 E14.04057
G1 X74.142 Y111.106 E14.22105
G1 X71.015 Y107.977 E14.31197
G1 X71.015 Y72.022 E15.05102
G1 X71.352 Y71.685 E15.06081
G1 X71.796 Y72.130 F1800.000
G1 X74.403 Y69.522 E15.13661 F1800.000
G1 X102.918 Y69.515 E15.72272
G1 X103.349 Y69.538 E15.73159
G1 X104.079 Y69.657 E15.74678 F1800.000
G1 X104.714 Y69.840 E15.76037
G1 X105.322 Y70.099 E15.77396
G1 X105.895 Y70.429 E15.78756
G1 X106.424 Y70.826 E15.80115
G1 X106.901 Y71.284 E15.81474
G1 X107.320 Y71.796 E15.82834
G1 X107.674 Y72.355 E15.84193
G1 X107.958 Y72.952 E15.85553
G1 X108.167 Y73.579 E15.86911
G1 X108.300 Y74.227 E15.88271
G1 X108.354 Y74.886 E15.89630
G1 X108.328 Y75.547 E15.90990
G1 X108.222 Y76.200 E15.92349
G1 X108.038 Y76.835 E15.93708
G1 X107.780 Y77.444 E15.95068
G1 X107.587 Y77.797 E15.95894
G1 X107.361 Y78.146 E15.96748
G1 X107.074 Y78.530 E15.97735
G1 X106.785 Y78.850 E15.98622
G1 X85.888 Y99.740 E16.59355
G1 X85.888 Y100.260 E16.60424
G1 X86.785 Y101.150 E16.63020
G1 X87.074 Y101.470 E16.63907
G1 X87.259 Y101.713 E16.64534
G1 X87.505 Y102.070 E16.65426
G1 X87.708 Y102.417 E16.66253
G1 X87.890 Y102.791 E16.67107
G1 X88.038 Y103.165 E16.67934
G1 X88.167 Y103.579 E16.68826
G1 X88.244 Y103.901 E16.69506
G1 X88.310 Y104.298 E16.70333
G1 X88.348 Y104.712 E16.71188
G1 X88.337 Y105.444 E16.72693
G1 X88.285 Y105.875 E16.73585
G1 X88.206 Y106.269 E16.74410
G1 X88.094 Y106.670 E16.75266
G1 X87.958 Y107.048 E16.76092
G1 X87.780 Y107.444 E16.76984
G1 X87.587 Y107.796 E16.77810
G1 X87.361 Y108.146 E16.78666
G1 X87.118 Y108.466 E16.79492
G1 X86.831 Y108.791 E16.80384
G1 X86.478 Y109.127 E16.81384
G1 X86.166 Y109.380 E16.82211
G1 X85.809 Y109.627 E16.83103
G1 X85.386 Y109.869 E16.84104
G1 X85.022 Y110.040 E16.84931
G1 X84.616 Y110.193 E16.85822
G1 X84.231 Y110.307 E16.86649
G1 X83.823 Y110.394 E16.87505
G1 X83.350 Y110.462 E16.88489
G1 X82.918 Y110.485 E16.89376
G1 X74.403 Y110.477 E17.06880
G1 X71.643 Y107.717 E17.14903
G1 X71.643 Y72.283 E17.87737
G1 X71.754 Y72.172 E17.88059
G1 X72.272 Y72.543 F1800.000
G1 X74.664 Y70.150 E17.95013 F1800.000
G1 X102.914 Y70.144 E18.53080
G1 X103.287 Y70.164 E18.53848 F1800.000
G1 X103.562 Y70.200 E18.54418
G1 X104.135 Y70.318 E18.55621
G1 X104.777 Y70.539 E18.57016
G1 X105.301 Y70.801 E18.58220
G1 X105.839 Y71.160 E18.59550
G1 X106.280 Y71.545 E18.60753
G1 X106.672 Y71.980 E18.61957
G1 X107.008 Y72.459 E18.63159
G1 X107.315 Y73.045 E18.64519
G1 X107.518 Y73.594 E18.65723
G1 X107.654 Y74.164 E18.66926
G1 X107.723 Y74.807 E18.68256
G1 X107.711 Y75.392 E18.69459
G1 X107.628 Y75.972 E18.70662
G1 X107.446 Y76.626 E18.72057
G1 X107.217 Y77.164 E18.73261
G1 X107.047 Y77.476 E18.73990
G1 X106.847 Y77.785 E18.74747
G1 X106.587 Y78.131 E18.75636
G1 X106.337 Y78.409 E18.76405
G1 X85.586 Y99.154 E19.36717
G1 X85.428 Y99.336 E19.37213
G1 X85.288 Y99.601 E19.37829
G1 X85.220 Y99.907 E19.38472
G1 X85.235 Y100.206 E19.39088
G1 X85.343 Y100.524 E19.39778
G1 X85.513 Y100.770 E19.40393
G1 X86.337 Y101.591 E19.42784
G1 X86.587 Y101.869 E19.43553
G1 X86.811 Y102.165 E19.44314
G1 X87.008 Y102.459 E19.45043
G1 X87.189 Y102.781 E19.45801
G1 X87.339 Y103.101 E19.46529
G1 X87.477 Y103.463 E19.47324
G1 X87.640 Y104.089 E19.48654
G1 X87.715 Y104.670 E19.49858
G1 X87.715 Y105.330 E19.51216
G1 X87.628 Y105.972 E19.52546
G1 X87.536 Y106.347 E19.53340
G1 X87.398 Y106.754 E19.54224
G1 X87.258 Y107.080 E19.54954
G1 X87.078 Y107.422 E19.55747
G1 X86.890 Y107.723 E19.56477
G1 X86.633 Y108.068 E19.57361
G1 X86.376 Y108.357 E19.58155
G1 X86.122 Y108.603 E19.58883
G1 X85.838 Y108.840 E19.59643
G1 X85.550 Y109.046 E19.60371
G1 X85.219 Y109.246 E19.61165
G1 X84.834 Y109.436 E19.62050
G1 X84.416 Y109.598 E19.62970
G1 X84.076 Y109.698 E19.63699
G1 X83.715 Y109.775 E19.64457
G1 X83.288 Y109.836 E19.65345
G1 X82.914 Y109.856 E19.66114
G1 X74.663 Y109.849 E19.83073
G1 X72.272 Y107.457 E19.90026
G1 X72.272 Y72.603 E20.61668
G1 X72.900 Y72.803 F1800.000
G1 X74.924 Y70.779 E20.67552 F1800.000
G1 X102.909 Y70.773 E21.25075
G1 X103.225 Y70.790 E21.25725
G1 X103.805 Y70.883 E21.26933 F1800.000
G1 X104.295 Y71.025 E21.27980
G1 X104.764 Y71.225 E21.29028
G1 X105.205 Y71.479 E21.30075
G1 X105.612 Y71.785 E21.31122
G1 X105.980 Y72.138 E21.32170
G1 X106.302 Y72.533 E21.33217
G1 X106.575 Y72.964 E21.34265
G1 X106.812 Y73.473 E21.35419
G1 X106.968 Y73.958 E21.36466
G1 X107.063 Y74.458 E21.37514
G1 X107.098 Y74.967 E21.38561
G1 X107.072 Y75.476 E21.39609
G1 X106.984 Y75.978 E21.40656
G1 X106.836 Y76.465 E21.41703
G1 X106.630 Y76.932 E21.42751
G1 X106.302 Y77.467 E21.44041
G1 X106.101 Y77.732 E21.44726
G1 X105.889 Y77.967 E21.45376
G1 X85.137 Y98.714 E22.05694
G1 X84.913 Y98.976 E22.06400
G1 X84.721 Y99.327 E22.07223
G1 X84.614 Y99.698 E22.08018
G1 X84.590 Y99.916 E22.08467
G1 X84.594 Y100.148 E22.08945
G1 X84.672 Y100.541 E22.09768
G1 X84.786 Y100.814 E22.10376
G1 X84.951 Y101.076 E22.11012
G1 X86.101 Y102.268 E22.14417
G1 X86.445 Y102.744 E22.15625
G1 X86.713 Y103.238 E22.16779
G1 X86.932 Y103.826 E22.18070
G1 X87.064 Y104.459 E22.19398
G1 X87.097 Y105.086 E22.20688
G1 X87.044 Y105.677 E22.21908
G1 X86.968 Y106.042 E22.22675
G1 X86.881 Y106.337 E22.23306
G1 X86.761 Y106.654 E22.24003
G1 X86.600 Y106.990 E22.24770
G1 X86.445 Y107.256 E22.25402
G1 X86.221 Y107.576 E22.26205
G1 X85.980 Y107.861 E22.26973
G1 X85.740 Y108.101 E22.27670
G1 X85.507 Y108.301 E22.28302
G1 X85.205 Y108.521 E22.29069
G1 X84.915 Y108.696 E22.29766
G1 X84.580 Y108.862 E22.30533
G1 X84.215 Y109.002 E22.31337
G1 X83.921 Y109.089 E22.31968
G1 X83.226 Y109.210 E22.33418
G1 X82.909 Y109.227 E22.34069
G1 X74.923 Y109.221 E22.50484
G1 X72.900 Y107.197 E22.56367
G1 X72.900 Y72.863 E23.26939
G1 X73.528 Y73.063 F1800.000
G1 X75.184 Y71.407 E23.31754 F1800.000
G1 X102.905 Y71.402 E23.88733
G1 X103.382 Y71.444 E23.89717 F1800.000
G1 X103.807 Y71.531 E23.90609
G1 X104.287 Y71.696 E23.91653
G1 X104.675 Y71.890 E23.92545
G1 X105.071 Y72.155 E23.93523
G1 X105.398 Y72.440 E23.94415
G1 X105.688 Y72.763 E23.95307
G1 X105.967 Y73.166 E23.96314
G1 X106.165 Y73.552 E23.97206
G1 X106.328 Y74.000 E23.98185
G1 X106.435 Y74.497 E23.99229
G1 X106.469 Y74.929 E24.00121
G1 X106.447 Y75.405 E24.01100
G1 X106.372 Y75.832 E24.01992
G1 X106.227 Y76.300 E24.02999
G1 X106.045 Y76.694 E24.03891
G1 X105.793 Y77.098 E24.04870
G1 X105.441 Y77.526 E24.06008
G1 X84.687 Y98.275 E24.66331
G1 X84.398 Y98.615 E24.67248
G1 X84.234 Y98.884 E24.67895
G1 X84.140 Y99.086 E24.68354
G1 X84.043 Y99.371 E24.68972
G1 X83.995 Y99.589 E24.69432
G1 X83.962 Y99.888 E24.70050
G1 X83.962 Y100.112 E24.70509
G1 X83.995 Y100.411 E24.71128
G1 X84.069 Y100.716 E24.71774
G1 X84.228 Y101.104 E24.72636
G1 X84.452 Y101.458 E24.73497
G1 X84.683 Y101.720 E24.74214
G1 X85.615 Y102.667 E24.76945
G1 X85.874 Y103.019 E24.77843
G1 X86.091 Y103.394 E24.78735
G1 X86.286 Y103.864 E24.79779
G1 X86.416 Y104.381 E24.80875
G1 X86.469 Y104.929 E24.82007
G1 X86.440 Y105.461 E24.83103
G1 X86.316 Y106.041 E24.84322
G1 X86.211 Y106.340 E24.84973
G1 X86.091 Y106.606 E24.85572
G1 X85.793 Y107.098 E24.86756
G1 X85.586 Y107.360 E24.87443
G1 X85.367 Y107.589 E24.88093
G1 X85.149 Y107.783 E24.88692
G1 X84.895 Y107.972 E24.89343
G1 X84.378 Y108.263 E24.90563
G1 X84.086 Y108.382 E24.91213
G1 X83.807 Y108.469 E24.91812
G1 X83.498 Y108.538 E24.92463
