; generated by Slic3r 1.2.9 on 2021-05-11 at 17:35:16

; external perimeters extrusion width = 0.40mm
; perimeters extrusion width = 0.67mm
; infill extrusion width = 0.67mm
; solid infill extrusion width = 0.67mm
; top infill extrusion width = 0.67mm

M190 S60 ; set bed temperature
M104 S200 ; set temperature
G28 ; home all axes
G1 Z5 F5000 ; lift nozzle

M109 S200 ; wait for temperature to be reached
G21 ; set units to millimeters
G90 ; use absolute coordinates
M82 ; use absolute distances for extrusion
G92 E0
G1 Z0.200 F1800.000
G1 E-3.00000 F2400.00000
G92 E0
G1 X70.189 Y70.183 F1800.000
G1 E3.00000 F2400.00000
G1 X73.362 Y67.009 E3.09095 F1800.000
G1 X102.936 Y66.999 E3.69020
G1 X103.597 Y67.034 E3.70361
G1 X104.487 Y67.174 E3.72186 F1800.000
G1 X104.956 Y67.285 E3.73164
G1 X105.418 Y67.425 E3.74142
G1 X105.871 Y67.592 E3.75120
G1 X106.313 Y67.786 E3.76098
G1 X106.742 Y68.006 E3.77076
G1 X107.157 Y68.252 E3.78054
G1 X107.854 Y68.749 E3.79788
G1 X108.223 Y69.061 E3.80766
G1 X108.572 Y69.394 E3.81744
G1 X108.900 Y69.748 E3.82723
G1 X109.206 Y70.121 E3.83700
G1 X109.489 Y70.513 E3.84679
G1 X109.748 Y70.919 E3.85655
G1 X109.982 Y71.342 E3.86634
G1 X110.190 Y71.777 E3.87612
G1 X110.488 Y72.565 E3.89319
G1 X110.621 Y73.028 E3.90295
G1 X110.726 Y73.499 E3.91274
G1 X110.802 Y73.976 E3.92251
G1 X110.850 Y74.456 E3.93229
G1 X110.868 Y74.938 E3.94207
G1 X110.857 Y75.421 E3.95185
G1 X110.817 Y75.902 E3.96163
G1 X110.749 Y76.379 E3.97140
G1 X110.651 Y76.852 E3.98119
G1 X110.525 Y77.318 E3.99097
G1 X110.371 Y77.775 E4.00074
G1 X110.190 Y78.223 E4.01053
G1 X109.872 Y78.863 E4.02501
G1 X109.489 Y79.487 E4.03985
G1 X109.019 Y80.125 E4.05591
G1 X108.576 Y80.617 E4.06932
G1 X89.364 Y99.818 E4.61972
G1 X89.323 Y100.272 E4.62894
G1 X89.684 Y100.814 E4.64214
G1 X89.982 Y101.342 E4.65442
G1 X90.233 Y101.877 E4.66640
G1 X90.454 Y102.460 E4.67904
G1 X90.675 Y103.254 E4.69574
G1 X90.766 Y103.728 E4.70552
G1 X90.829 Y104.207 E4.71530
G1 X90.862 Y104.688 E4.72507
G1 X90.867 Y105.171 E4.73487
G1 X90.829 Y105.793 E4.74749
G1 X90.766 Y106.272 E4.75728
G1 X90.651 Y106.852 E4.76926
G1 X90.525 Y107.318 E4.77904
G1 X90.371 Y107.775 E4.78881
G1 X90.189 Y108.223 E4.79861
G1 X89.925 Y108.767 E4.81087
G1 X89.684 Y109.186 E4.82066
G1 X89.419 Y109.589 E4.83044
G1 X89.061 Y110.061 E4.84243
G1 X88.648 Y110.528 E4.85507
G1 X88.304 Y110.866 E4.86484
G1 X87.939 Y111.183 E4.87463
G1 X87.557 Y111.477 E4.88440
G1 X87.065 Y111.805 E4.89639
G1 X86.646 Y112.046 E4.90617
G1 X86.214 Y112.260 E4.91596
G1 X85.655 Y112.492 E4.92822
G1 X85.197 Y112.646 E4.93801
G1 X84.624 Y112.797 E4.95000
G1 X84.150 Y112.888 E4.95979
G1 X83.597 Y112.966 E4.97110
G1 X82.936 Y113.001 E4.98452
G1 X73.361 Y112.990 E5.17854
G1 X69.130 Y108.758 E5.29980
G1 X69.130 Y71.242 E6.06001
G1 X70.146 Y70.225 E6.08913
G1 X70.591 Y70.669 F1800.000
G1 X73.623 Y67.637 E6.17602 F1800.000
G1 X102.932 Y67.628 E6.76991
G1 X103.535 Y67.660 E6.78215 F1800.000
G1 X103.921 Y67.713 E6.79005
G1 X104.359 Y67.789 E6.79907
G1 X104.792 Y67.892 E6.80807
G1 X105.218 Y68.020 E6.81708
G1 X105.635 Y68.174 E6.82610
G1 X106.042 Y68.353 E6.83511
G1 X106.438 Y68.556 E6.84412
G1 X106.820 Y68.783 E6.85313
G1 X107.189 Y69.032 E6.86215
G1 X107.541 Y69.303 E6.87114
G1 X107.876 Y69.595 E6.88016
G1 X108.284 Y70.002 E6.89183
G1 X108.576 Y70.338 E6.90084
G1 X108.847 Y70.690 E6.90986
G1 X109.096 Y71.058 E6.91886
G1 X109.370 Y71.529 E6.92989
G1 X109.568 Y71.927 E6.93890
G1 X109.741 Y72.337 E6.94792
G1 X109.890 Y72.756 E6.95694
G1 X110.012 Y73.183 E6.96593
G1 X110.109 Y73.617 E6.97495
G1 X110.179 Y74.056 E6.98395
G1 X110.223 Y74.499 E6.99297
G1 X110.240 Y74.943 E7.00198
G1 X110.230 Y75.387 E7.01098
G1 X110.193 Y75.831 E7.02000
G1 X110.130 Y76.270 E7.02900
G1 X110.040 Y76.707 E7.03802
G1 X109.924 Y77.136 E7.04703
G1 X109.782 Y77.557 E7.05603
G1 X109.615 Y77.969 E7.06505
G1 X109.323 Y78.559 E7.07838
G1 X108.969 Y79.134 E7.09207
G1 X108.533 Y79.726 E7.10698
G1 X108.128 Y80.175 E7.11922
G1 X88.530 Y99.764 E7.68071
G1 X88.501 Y100.240 E7.69037
G1 X88.847 Y100.690 E7.70187
G1 X89.149 Y101.143 E7.71290
G1 X89.370 Y101.529 E7.72192
G1 X89.615 Y102.030 E7.73322
G1 X89.782 Y102.443 E7.74224
G1 X89.952 Y102.960 E7.75327
G1 X90.062 Y103.391 E7.76228
G1 X90.166 Y103.958 E7.77395
G1 X90.223 Y104.499 E7.78499
G1 X90.240 Y104.943 E7.79399
G1 X90.223 Y105.501 E7.80530
G1 X90.179 Y105.943 E7.81431
G1 X90.109 Y106.383 E7.82333
G1 X90.012 Y106.817 E7.83234
G1 X89.890 Y107.244 E7.84134
G1 X89.705 Y107.756 E7.85238
G1 X89.526 Y108.163 E7.86139
G1 X89.258 Y108.673 E7.87306
G1 X88.969 Y109.135 E7.88409
G1 X88.708 Y109.495 E7.89310
G1 X88.426 Y109.839 E7.90211
G1 X88.043 Y110.246 E7.91344
G1 X87.718 Y110.547 E7.92243
G1 X87.294 Y110.890 E7.93346
G1 X86.931 Y111.146 E7.94248
G1 X86.437 Y111.444 E7.95416
G1 X85.952 Y111.689 E7.96518
G1 X85.543 Y111.862 E7.97418
G1 X85.123 Y112.011 E7.98320
G1 X84.585 Y112.161 E7.99452
G1 X84.149 Y112.251 E8.00354
G1 X83.535 Y112.340 E8.01611
G1 X82.932 Y112.372 E8.02835
G1 X73.621 Y112.362 E8.21701
G1 X69.758 Y108.498 E8.32773
G1 X69.758 Y71.502 E9.07739
G1 X70.548 Y70.712 E9.10002
G1 X70.992 Y71.156 F1800.000
G1 X73.883 Y68.266 E9.18285 F1800.000
G1 X102.927 Y68.257 E9.77138
G1 X103.473 Y68.286 E9.78245
G1 X104.232 Y68.404 E9.79802 F1800.000
G1 X105.017 Y68.616 E9.81450
G1 X105.771 Y68.920 E9.83097
G1 X106.483 Y69.313 E9.84745
G1 X107.142 Y69.789 E9.86392
G1 X107.739 Y70.341 E9.88040
G1 X108.265 Y70.961 E9.89687
G1 X108.713 Y71.639 E9.91335
G1 X109.040 Y72.284 E9.92800
G1 X109.322 Y73.047 E9.94449
G1 X109.511 Y73.838 E9.96096
G1 X109.602 Y74.646 E9.97743
G1 X109.596 Y75.458 E9.99390
G1 X109.492 Y76.264 E10.01037
G1 X109.291 Y77.053 E10.02685
G1 X108.997 Y77.811 E10.04333
G1 X108.713 Y78.361 E10.05587
G1 X108.450 Y78.781 E10.06593
G1 X108.046 Y79.327 E10.07968
G1 X107.681 Y79.734 E10.09076
G1 X87.668 Y99.737 E10.66411
G1 X87.655 Y100.238 E10.67426
G1 X88.046 Y100.673 E10.68611
G1 X88.338 Y101.059 E10.69591
G1 X88.614 Y101.472 E10.70598
G1 X88.816 Y101.825 E10.71423
G1 X89.040 Y102.284 E10.72457
G1 X89.223 Y102.746 E10.73465
G1 X89.381 Y103.251 E10.74536
G1 X89.474 Y103.647 E10.75360
G1 X89.556 Y104.137 E10.76368
G1 X89.596 Y104.542 E10.77192
G1 X89.612 Y104.948 E10.78015
G1 X89.596 Y105.458 E10.79050
G1 X89.556 Y105.863 E10.79874
G1 X89.474 Y106.353 E10.80882
G1 X89.381 Y106.749 E10.81706
G1 X89.223 Y107.254 E10.82777
G1 X89.040 Y107.716 E10.83785
G1 X88.816 Y108.175 E10.84819
G1 X88.614 Y108.528 E10.85644
G1 X88.338 Y108.941 E10.86651
G1 X88.090 Y109.263 E10.87474
G1 X87.739 Y109.659 E10.88546
G1 X87.383 Y110.005 E10.89552
G1 X86.989 Y110.333 E10.90589
G1 X86.660 Y110.571 E10.91412
G1 X86.239 Y110.834 E10.92419
G1 X85.771 Y111.080 E10.93491
G1 X85.315 Y111.277 E10.94496
G1 X84.932 Y111.412 E10.95321
G1 X84.439 Y111.550 E10.96357
G1 X84.041 Y111.632 E10.97182
G1 X83.473 Y111.714 E10.98343
G1 X82.927 Y111.743 E10.99451
G1 X73.882 Y111.734 E11.17780
G1 X70.387 Y108.238 E11.27798
G1 X70.387 Y71.762 E12.01708
G1 X70.950 Y71.199 E12.03323
G1 X71.394 Y71.643 F1800.000
G1 X74.143 Y68.894 E12.11200 F1800.000
G1 X102.923 Y68.886 E12.69517
G1 X103.411 Y68.912 E12.70508 F1800.000
G1 X103.741 Y68.957 E12.71183
G1 X104.464 Y69.105 E12.72677
G1 X105.163 Y69.339 E12.74171
G1 X105.828 Y69.655 E12.75665
G1 X106.451 Y70.050 E12.77159
G1 X107.022 Y70.517 E12.78652
G1 X107.362 Y70.857 E12.79628
G1 X107.604 Y71.135 E12.80375
G1 X108.035 Y71.733 E12.81868
G1 X108.262 Y72.121 E12.82779
G1 X108.426 Y72.451 E12.83526
G1 X108.693 Y73.139 E12.85021
G1 X108.875 Y73.853 E12.86514
G1 X108.969 Y74.584 E12.88008
G1 X108.983 Y74.953 E12.88755
G1 X108.969 Y75.416 E12.89694
G1 X108.875 Y76.147 E12.91187
G1 X108.693 Y76.861 E12.92682
G1 X108.426 Y77.549 E12.94176
G1 X108.168 Y78.048 E12.95314
G1 X107.930 Y78.428 E12.96224
G1 X107.560 Y78.929 E12.97485
G1 X107.233 Y79.292 E12.98476
G1 X86.777 Y99.740 E13.57083
G1 X86.777 Y100.260 E13.58138
G1 X87.233 Y100.708 E13.59432
G1 X87.560 Y101.072 E13.60423
G1 X88.035 Y101.733 E13.62074
G1 X88.262 Y102.121 E13.62985
G1 X88.465 Y102.538 E13.63923
G1 X88.631 Y102.955 E13.64834
G1 X88.774 Y103.415 E13.65810
G1 X88.875 Y103.853 E13.66720
G1 X88.933 Y104.218 E13.67468
G1 X88.975 Y104.679 E13.68407
G1 X88.982 Y105.128 E13.69318
G1 X88.953 Y105.608 E13.70292
G1 X88.905 Y105.974 E13.71040
G1 X88.817 Y106.415 E13.71950
G1 X88.721 Y106.771 E13.72697
G1 X88.570 Y107.209 E13.73636
G1 X88.392 Y107.622 E13.74548
G1 X88.168 Y108.048 E13.75522
G1 X87.929 Y108.429 E13.76434
G1 X87.655 Y108.802 E13.77373
G1 X87.362 Y109.143 E13.78283
G1 X87.022 Y109.483 E13.79258
G1 X86.743 Y109.726 E13.80006
G1 X86.386 Y109.997 E13.80916
G1 X85.996 Y110.249 E13.81855
G1 X85.602 Y110.464 E13.82767
G1 X85.163 Y110.661 E13.83742
G1 X84.740 Y110.814 E13.84652
G1 X84.293 Y110.939 E13.85592
G1 X83.932 Y111.013 E13.86340
G1 X83.411 Y111.088 E13.87405
G1 X82.923 Y111.114 E13.88397
G1 X74.142 Y111.106 E14.06189
G1 X71.015 Y107.977 E14.15152
G1 X71.015 Y72.022 E14.88009
G1 X71.352 Y71.685 E14.88974
G1 X71.796 Y72.130 F1800.000
G1 X74.403 Y69.522 E14.96446 F1800.000
G1 X102.918 Y69.515 E15.54226
G1 X103.349 Y69.538 E15.55100
G1 X104.079 Y69.657 E15.56598 F1800.000
G1 X104.714 Y69.840 E15.57938
G1 X105.322 Y70.099 E15.59277
G1 X105.895 Y70.429 E15.60617
G1 X106.424 Y70.826 E15.61957
G1 X106.901 Y71.284 E15.63298
G1 X107.320 Y71.796 E15.64638
G1 X107.674 Y72.355 E15.65978
G1 X107.958 Y72.952 E15.67318
G1 X108.167 Y73.579 E15.68657
G1 X108.300 Y74.227 E15.69998
G1 X108.354 Y74.886 E15.71338
G1 X108.328 Y75.547 E15.72678
G1 X108.222 Y76.200 E15.74018
G1 X108.038 Y76.835 E15.75358
G1 X107.780 Y77.444 E15.76698
G1 X107.587 Y77.797 E15.77513
G1 X107.361 Y78.146 E15.78355
G1 X107.074 Y78.530 E15.79327
G1 X106.785 Y78.850 E15.80202
G1 X85.888 Y99.740 E16.40073
G1 X85.888 Y100.260 E16.41128
G1 X86.785 Y101.150 E16.43687
G1 X87.074 Y101.470 E16.44561
G1 X87.259 Y101.713 E16.45180
G1 X87.505 Y102.070 E16.46059
G1 X87.708 Y102.417 E16.46874
G1 X87.890 Y102.791 E16.47716
G1 X88.038 Y103.165 E16.48531
G1 X88.167 Y103.579 E16.49410
G1 X88.244 Y103.901 E16.50080
G1 X88.310 Y104.298 E16.50896
G1 X88.348 Y104.712 E16.51738
G1 X88.337 Y105.444 E16.53222
G1 X88.285 Y105.875 E16.54101
G1 X88.206 Y106.269 E16.54915
G1 X88.094 Y106.670 E16.55758
G1 X87.958 Y107.048 E16.56573
G1 X87.780 Y107.444 E16.57453
G1 X87.587 Y107.796 E16.58267
G1 X87.361 Y108.146 E16.59110
G1 X87.118 Y108.466 E16.59925
G1 X86.831 Y108.791 E16.60804
G1 X86.478 Y109.127 E16.61791
G1 X86.166 Y109.380 E16.62605
G1 X85.809 Y109.627 E16.63485
G1 X85.386 Y109.869 E16.64472
G1 X85.022 Y110.040 E16.65287
G1 X84.616 Y110.193 E16.66165
G1 X84.231 Y110.307 E16.66980
G1 X83.823 Y110.394 E16.67824
G1 X83.350 Y110.462 E16.68794
G1 X82.918 Y110.485 E16.69669
G1 X74.403 Y110.477 E16.86925
G1 X71.643 Y107.717 E16.94833
G1 X71.643 Y72.283 E17.66635
G1 X71.754 Y72.172 E17.66952
G1 X72.272 Y72.543 F1800.000
G1 X74.664 Y70.150 E17.73807 F1800.000
G1 X102.914 Y70.144 E18.31051
G1 X103.287 Y70.164 E18.31808 F1800.000
G1 X103.562 Y70.200 E18.32370
G1 X104.135 Y70.318 E18.33556
G1 X104.777 Y70.539 E18.34931
G1 X105.301 Y70.801 E18.36118
G1 X105.839 Y71.160 E18.37429
G1 X106.280 Y71.545 E18.38615
G1 X106.672 Y71.980 E18.39802
G1 X107.008 Y72.459 E18.40987
G1 X107.315 Y73.045 E18.42327
G1 X107.518 Y73.594 E18.43514
G1 X107.654 Y74.164 E18.44700
G1 X107.723 Y74.807 E18.46011
G1 X107.711 Y75.392 E18.47197
G1 X107.628 Y75.972 E18.48383
G1 X107.446 Y76.626 E18.49759
G1 X107.217 Y77.164 E18.50946
G1 X107.047 Y77.476 E18.51664
G1 X106.847 Y77.785 E18.52410
G1 X106.587 Y78.131 E18.53287
G1 X106.337 Y78.409 E18.54045
G1 X85.586 Y99.154 E19.13502
G1 X85.428 Y99.336 E19.13990
G1 X85.288 Y99.601 E19.14597
G1 X85.220 Y99.907 E19.15232
G1 X85.235 Y100.206 E19.15839
G1 X85.343 Y100.524 E19.16519
G1 X85.513 Y100.770 E19.17126
G1 X86.337 Y101.591 E19.19482
G1 X86.587 Y101.869 E19.20240
G1 X86.811 Y102.165 E19.20991
G1 X87.008 Y102.459 E19.21709
G1 X87.189 Y102.781 E19.22457
G1 X87.339 Y103.101 E19.23175
G1 X87.477 Y103.463 E19.23958
G1 X87.640 Y104.089 E19.25269
G1 X87.715 Y104.670 E19.26456
G1 X87.715 Y105.330 E19.27795
G1 X87.628 Y105.972 E19.29106
G1 X87.536 Y106.347 E19.29889
G1 X87.398 Y106.754 E19.30760
G1 X87.258 Y107.080 E19.31480
G1 X87.078 Y107.422 E19.32262
G1 X86.890 Y107.723 E19.32981
G1 X86.633 Y108.068 E19.33853
G1 X86.376 Y108.357 E19.34636
G1 X86.122 Y108.603 E19.35354
G1 X85.838 Y108.840 E19.36102
G1 X85.550 Y109.046 E19.36819
G1 X85.219 Y109.246 E19.37603
G1 X84.834 Y109.436 E19.38475
G1 X84.416 Y109.598 E19.39382
G1 X84.076 Y109.698 E19.40101
G1 X83.715 Y109.775 E19.40848
G1 X83.288 Y109.836 E19.41723
G1 X82.914 Y109.856 E19.42481
G1 X74.663 Y109.849 E19.59200
G1 X72.272 Y107.457 E19.66054
G1 X72.272 Y72.603 E20.36680
G1 X72.900 Y72.803 F1800.000
G1 X74.924 Y70.779 E20.42481 F1800.000
G1 X102.909 Y70.773 E20.99188
G1 X103.225 Y70.790 E20.99829
G1 X103.805 Y70.883 E21.01020 F1800.000
G1 X104.295 Y71.025 E21.02052
G1 X104.764 Y71.225 E21.03084
G1 X105.205 Y71.479 E21.04117
G1 X105.612 Y71.785 E21.05149
G1 X105.980 Y72.138 E21.06182
G1 X106.302 Y72.533 E21.07215
G1 X106.575 Y72.964 E21.08247
G1 X106.812 Y73.473 E21.09385
G1 X106.968 Y73.958 E21.10417
G1 X107.063 Y74.458 E21.11450
G1 X107.098 Y74.967 E21.12483
G1 X107.072 Y75.476 E21.13515
G1 X106.984 Y75.978 E21.14548
G1 X106.836 Y76.465 E21.15580
G1 X106.630 Y76.932 E21.16613
G1 X106.302 Y77.467 E21.17885
G1 X106.101 Y77.732 E21.18560
G1 X105.889 Y77.967 E21.19201
G1 X85.137 Y98.714 E21.78663
G1 X84.913 Y98.976 E21.79360
G1 X84.721 Y99.327 E21.80171
G1 X84.614 Y99.698 E21.80954
G1 X84.590 Y99.916 E21.81397
G1 X84.594 Y100.148 E21.81868
G1 X84.672 Y100.541 E21.82679
G1 X84.786 Y100.814 E21.83279
G1 X84.951 Y101.076 E21.83906
G1 X86.101 Y102.268 E21.87263
G1 X86.445 Y102.744 E21.88453
G1 X86.713 Y103.238 E21.89591
G1 X86.932 Y103.826 E21.90864
G1 X87.064 Y104.459 E21.92172
G1 X87.097 Y105.086 E21.93445
G1 X87.044 Y105.677 E21.94647
G1 X86.968 Y106.042 E21.95403
G1 X86.881 Y106.337 E21.96026
G1 X86.761 Y106.654 E21.96713
G1 X86.600 Y106.990 E21.97469
G1 X86.445 Y107.256 E21.98091
G1 X86.221 Y107.576 E21.98884
G1 X85.980 Y107.861 E21.99640
G1 X85.740 Y108.101 E22.00327
G1 X85.507 Y108.301 E22.00950
G1 X85.205 Y108.521 E22.01706
G1 X84.915 Y108.696 E22.02393
G1 X84.580 Y108.862 E22.03150
G1 X84.215 Y109.002 E22.03942
G1 X83.921 Y109.089 E22.04565
G1 X83.226 Y109.210 E22.05994
G1 X82.909 Y109.227 E22.06636
G1 X74.923 Y109.221 E22.22818
G1 X72.900 Y107.197 E22.28618
G1 X72.900 Y72.863 E22.98189
G1 X73.528 Y73.063 F1800.000
G1 X75.184 Y71.407 E23.02935 F1800.000
G1 X102.905 Y71.402 E23.59106
G1 X103.382 Y71.444 E23.60076 F1800.000
G1 X103.807 Y71.531 E23.60955
G1 X104.287 Y71.696 E23.61985
G1 X104.675 Y71.890 E23.62864
G1 X105.071 Y72.155 E23.63828
G1 X105.398 Y72.440 E23.64707
G1 X105.688 Y72.763 E23.65586
G1 X105.967 Y73.166 E23.66580
G1 X106.165 Y73.552 E23.67459
G1 X106.328 Y74.000 E23.68424
G1 X106.435 Y74.497 E23.69454
G1 X106.469 Y74.929 E23.70333
G1 X106.447 Y75.405 E23.71298
G1 X106.372 Y75.832 E23.72177
G1 X106.227 Y76.300 E23.73170
G1 X106.045 Y76.694 E23.74049
G1 X105.793 Y77.098 E23.75014
G1 X105.441 Y77.526 E23.76136
G1 X84.687 Y98.275 E24.35603
G1 X84.398 Y98.615 E24.36508
G1 X84.234 Y98.884 E24.37145
G1 X84.140 Y99.086 E24.37598
G1 X84.043 Y99.371 E24.38207
G1 X83.995 Y99.589 E24.38660
G1 X83.962 Y99.888 E24.39270
G1 X83.962 Y100.112 E24.39722
G1 X83.995 Y100.411 E24.40332
G1 X84.069 Y100.716 E24.40969
G1 X84.228 Y101.104 E24.41818
G1 X84.452 Y101.458 E24.42668
G1 X84.683 Y101.720 E24.43374
G1 X85.615 Y102.667 E24.46067
G1 X85.874 Y103.019 E24.46952
G1 X86.091 Y103.394 E24.47831
G1 X86.286 Y103.864 E24.48861
G1 X86.416 Y104.381 E24.49941
G1 X86.469 Y104.929 E24.51057
G1 X86.440 Y105.461 E24.52137
G1 X86.316 Y106.041 E24.53339
G1 X86.211 Y106.340 E24.53981
G1 X86.091 Y106.606 E24.54572
G1 X85.793 Y107.098 E24.55738
G1 X85.586 Y107.360 E24.56415
G1 X85.367 Y107.589 E24.57057
G1 X85.149 Y107.783 E24.57648
G1 X84.895 Y107.972 E24.58289
G1 X84.378 Y108.263 E24.59491
G1 X84.086 Y108.382 E24.60132
G1 X83.807 Y108.469 E24.60723
G1 X83.498 Y108.538 E24.61365
