; generated by Slic3r 1.2.9 on 2021-05-01 at 22:13:47

; external perimeters extrusion width = 0.40mm
; perimeters extrusion width = 0.67mm
; infill extrusion width = 0.67mm
; solid infill extrusion width = 0.67mm
; top infill extrusion width = 0.67mm
; support material extrusion width = 0.40mm

M190 S60 ; set bed temperature
M104 S200 ; set temperature
G28 ; home all axes
G1 Z5 F5000 ; lift nozzle

M109 S200 ; wait for temperature to be reached
G21 ; set units to millimeters
G90 ; use absolute coordinates
M82 ; use absolute distances for extrusion
G92 E0
G1 Z0.200 F1800.000
G1 E-3.00000 F2400.00000
G92 E0
G1 X69.050 Y62.028 F1800.000
G1 E3.00000 F2400.00000
G1 X108.325 Y18.307 E4.19089 F1800.000
G1 X109.732 Y16.860 E4.23178
G1 X110.616 Y16.025 E4.25643
G1 X111.851 Y14.944 E4.28967
G1 X113.131 Y13.918 E4.32292
G1 X114.454 Y12.949 E4.35616
G1 X115.819 Y12.038 E4.38941
G1 X117.222 Y11.187 E4.42266
G1 X118.660 Y10.397 E4.45590
G1 X120.131 Y9.671 E4.48914
G1 X121.633 Y9.010 E4.52239
G1 X123.162 Y8.414 E4.55563
G1 X124.715 Y7.886 E4.58888
G1 X126.290 Y7.425 E4.62213
G1 X127.883 Y7.033 E4.65537
G1 X129.491 Y6.711 E4.68861
G1 X131.113 Y6.459 E4.72186
G1 X132.743 Y6.277 E4.75511
G1 X134.380 Y6.167 E4.78836
G1 X136.445 Y6.129 E4.83019
G1 X137.661 Y6.160 E4.85484 F1800.000
G1 X139.298 Y6.263 E4.88809
G1 X141.350 Y6.494 E4.92993
G1 X142.970 Y6.757 E4.96317
G1 X144.162 Y6.997 E4.98783
G1 X146.167 Y7.493 E5.02966
G1 X147.334 Y7.836 E5.05432
G1 X148.889 Y8.357 E5.08756
G1 X150.812 Y9.109 E5.12940
G1 X151.925 Y9.601 E5.15405
G1 X153.400 Y10.321 E5.18730
G1 X155.209 Y11.316 E5.22913
G1 X156.606 Y12.176 E5.26238
G1 X157.617 Y12.853 E5.28703
G1 X158.944 Y13.817 E5.32027
G1 X160.554 Y15.110 E5.36212
G1 X161.469 Y15.912 E5.38677
G1 X162.660 Y17.040 E5.42001
G1 X164.088 Y18.531 E5.46185
G1 X164.890 Y19.446 E5.48649
G1 X165.925 Y20.719 E5.51975
G1 X167.147 Y22.383 E5.56158
G1 X167.824 Y23.395 E5.58625
G1 X168.684 Y24.791 E5.61948
G1 X169.679 Y26.600 E5.66132
G1 X170.399 Y28.075 E5.69457
G1 X170.891 Y29.189 E5.71924
G1 X171.643 Y31.111 E5.76106
G1 X172.036 Y32.262 E5.78570
G1 X172.507 Y33.833 E5.81895
G1 X173.003 Y35.838 E5.86079
G1 X173.318 Y37.448 E5.89404
G1 X173.506 Y38.651 E5.91871
G1 X173.737 Y40.702 E5.96053
G1 X173.820 Y41.916 E5.98520
G1 X173.871 Y43.555 E6.01842
G1 X173.833 Y45.620 E6.06026
G1 X173.758 Y46.835 E6.08493
G1 X173.595 Y48.466 E6.11815
G1 X173.289 Y50.509 E6.16000
G1 X173.057 Y51.703 E6.18465
G1 X172.683 Y53.300 E6.21789
G1 X172.114 Y55.285 E6.25973
G1 X171.728 Y56.440 E6.28441
G1 X171.150 Y57.974 E6.31763
G1 X170.329 Y59.869 E6.35947
G1 X169.796 Y60.963 E6.38413
G1 X169.023 Y62.410 E6.41736
G1 X168.188 Y63.822 E6.45061
G1 X167.326 Y65.146 E6.48262
G1 X166.082 Y66.869 E6.52570
G1 X165.056 Y68.149 E6.55894
G1 X163.975 Y69.384 E6.59218
G1 X162.842 Y70.570 E6.62543
G1 X161.693 Y71.675 E6.65772
G1 X50.709 Y171.372 E9.68074
G1 X48.390 Y172.920 E9.73724
G1 X45.728 Y173.751 E9.79375
G1 X42.940 Y173.795 E9.85025
G1 X40.253 Y173.050 E9.90676
G1 X37.950 Y171.629 E9.96158
G1 X24.621 Y160.595 E10.31220
G1 X23.944 Y159.978 E10.33078
G1 X20.219 Y156.253 E10.43752
G1 X19.611 Y155.586 E10.45580
G1 X8.380 Y142.061 E10.81202
G1 X6.923 Y139.684 E10.86853
G1 X6.197 Y136.991 E10.92503
G1 X6.261 Y134.204 E10.98154
G1 X7.110 Y131.548 E11.03804
G1 X8.628 Y129.291 E11.09316
G1 X69.010 Y62.072 E12.92407
G1 X69.478 Y62.492 F1800.000
G1 X108.793 Y18.726 E14.11618 F1800.000
G1 X110.163 Y17.317 E14.15602
G1 X111.048 Y16.481 E14.18067
G1 X112.262 Y15.419 E14.21336
G1 X113.521 Y14.411 E14.24605
G1 X114.823 Y13.458 E14.27874
G1 X116.165 Y12.562 E14.31143
G1 X117.545 Y11.726 E14.34413
G1 X118.959 Y10.950 E14.37682
G1 X120.406 Y10.236 E14.40951
G1 X121.883 Y9.586 E14.44220
G1 X123.386 Y9.001 E14.47490
G1 X124.914 Y8.482 E14.50759
G1 X126.463 Y8.029 E14.54028
G1 X128.029 Y7.644 E14.57297
G1 X129.611 Y7.328 E14.60567
G1 X131.206 Y7.080 E14.63836
G1 X132.809 Y6.902 E14.67105
G1 X134.419 Y6.794 E14.70375
G1 X136.429 Y6.757 E14.74447
G1 X137.645 Y6.788 E14.76913 F1800.000
G1 X139.255 Y6.890 E14.80182
G1 X141.253 Y7.115 E14.84256
G1 X142.845 Y7.373 E14.87525
G1 X144.038 Y7.613 E14.89990
G1 X145.990 Y8.096 E14.94063
G1 X147.157 Y8.439 E14.96528
G1 X148.686 Y8.952 E14.99798
G1 X150.559 Y9.684 E15.03871
G1 X151.671 Y10.176 E15.06336
G1 X153.121 Y10.884 E15.09605
G1 X154.882 Y11.853 E15.13678
G1 X156.256 Y12.699 E15.16948
G1 X157.267 Y13.375 E15.19413
G1 X158.887 Y14.565 E15.23486
G1 X160.140 Y15.582 E15.26755
G1 X161.054 Y16.384 E15.29221
G1 X162.225 Y17.494 E15.32489
G1 X163.615 Y18.946 E15.36563
G1 X164.418 Y19.860 E15.39027
G1 X165.435 Y21.113 E15.42297
G1 X166.625 Y22.733 E15.46370
G1 X167.302 Y23.745 E15.48837
G1 X168.147 Y25.118 E15.52105
G1 X169.116 Y26.879 E15.56178
G1 X169.824 Y28.329 E15.59447
G1 X170.316 Y29.442 E15.61914
G1 X171.048 Y31.314 E15.65986
G1 X171.441 Y32.465 E15.68451
G1 X171.904 Y34.010 E15.71720
G1 X172.387 Y35.962 E15.75794
G1 X172.697 Y37.545 E15.79063
G1 X172.886 Y38.748 E15.81530
G1 X173.110 Y40.745 E15.85601
G1 X173.194 Y41.959 E15.88068
G1 X173.243 Y43.571 E15.91335
G1 X173.206 Y45.581 E15.95409
G1 X173.131 Y46.796 E15.97875
G1 X172.970 Y48.400 E16.01143
G1 X172.672 Y50.389 E16.05217
G1 X172.440 Y51.583 E16.07681
G1 X172.072 Y53.154 E16.10951
G1 X171.518 Y55.086 E16.15024
G1 X171.132 Y56.241 E16.17491
G1 X170.564 Y57.750 E16.20758
G1 X169.764 Y59.594 E16.24832
G1 X169.231 Y60.688 E16.27298
G1 X168.471 Y62.110 E16.30566
G1 X167.649 Y63.499 E16.33835
G1 X166.802 Y64.800 E16.36981
G1 X165.589 Y66.479 E16.41178
G1 X164.581 Y67.738 E16.44447
G1 X163.518 Y68.952 E16.47716
G1 X162.404 Y70.119 E16.50985
G1 X161.274 Y71.207 E16.54165
G1 X50.289 Y170.905 E19.56467
G1 X48.039 Y172.391 E19.61932
G1 X45.453 Y173.157 E19.67397
G1 X42.756 Y173.134 E19.72862
G1 X40.183 Y172.326 E19.78326
G1 X38.350 Y171.145 E19.82744
G1 X25.022 Y160.111 E20.17806
G1 X24.388 Y159.533 E20.19544
G1 X20.663 Y155.808 E20.30218
G1 X20.094 Y155.184 E20.31929
G1 X8.863 Y141.660 E20.67551
G1 X7.465 Y139.354 E20.73016
G1 X6.801 Y136.740 E20.78481
G1 X6.928 Y134.046 E20.83945
G1 X7.836 Y131.506 E20.89410
G1 X9.095 Y129.711 E20.93855
G1 X69.437 Y62.537 E22.76824
G1 X69.905 Y62.957 F1800.000
G1 X109.260 Y19.146 E23.96157 F1800.000
G1 X110.595 Y17.774 E24.00036
G1 X111.479 Y16.938 E24.02502
G1 X112.673 Y15.894 E24.05715
G1 X113.911 Y14.903 E24.08929
G1 X115.191 Y13.967 E24.12143
G1 X116.511 Y13.087 E24.15357
G1 X117.868 Y12.265 E24.18571
G1 X119.258 Y11.503 E24.21785
G1 X120.681 Y10.801 E24.24999
G1 X122.133 Y10.163 E24.28213
G1 X123.611 Y9.588 E24.31427
G1 X125.113 Y9.078 E24.34640
G1 X126.636 Y8.633 E24.37855
G1 X128.176 Y8.255 E24.41068
G1 X129.731 Y7.945 E24.44282
G1 X131.299 Y7.702 E24.47496
G1 X132.875 Y7.527 E24.50710
G1 X134.458 Y7.421 E24.53924
G1 X136.413 Y7.385 E24.57887
G1 X137.629 Y7.416 E24.60352 F1800.000
G1 X139.212 Y7.517 E24.63566
G1 X141.156 Y7.735 E24.67529
G1 X142.721 Y7.989 E24.70743
G1 X143.914 Y8.229 E24.73208
G1 X145.812 Y8.698 E24.77171
G1 X146.980 Y9.041 E24.79636
G1 X148.483 Y9.547 E24.82850
G1 X150.305 Y10.259 E24.86813
G1 X151.417 Y10.750 E24.89278
G1 X152.842 Y11.447 E24.92492
G1 X154.556 Y12.389 E24.96454
G1 X155.595 Y13.022 E24.98919
G1 X156.917 Y13.897 E25.02133
G1 X158.494 Y15.055 E25.06096
G1 X159.725 Y16.054 E25.09310
G1 X160.640 Y16.857 E25.11775
G1 X161.791 Y17.948 E25.14989
G1 X163.143 Y19.360 E25.18951
G1 X163.945 Y20.274 E25.21416
G1 X164.945 Y21.506 E25.24630
G1 X166.103 Y23.082 E25.28593
G1 X166.780 Y24.094 E25.31060
G1 X167.611 Y25.444 E25.34272
G1 X168.553 Y27.158 E25.38235
G1 X169.250 Y28.583 E25.41449
G1 X169.742 Y29.696 E25.43916
G1 X170.453 Y31.517 E25.47877
G1 X170.847 Y32.668 E25.50342
G1 X171.302 Y34.188 E25.53555
G1 X171.771 Y36.086 E25.57519
G1 X172.076 Y37.643 E25.60733
G1 X172.265 Y38.845 E25.63200
G1 X172.483 Y40.788 E25.67160
G1 X172.567 Y42.002 E25.69627
G1 X172.615 Y43.587 E25.72839
G1 X172.579 Y45.542 E25.76802
G1 X172.504 Y46.757 E25.79268
G1 X172.345 Y48.334 E25.82481
G1 X172.055 Y50.269 E25.86444
G1 X171.823 Y51.463 E25.88909
G1 X171.461 Y53.007 E25.92123
G1 X170.922 Y54.887 E25.96086
G1 X170.536 Y56.042 E25.98553
G1 X169.977 Y57.525 E26.01765
G1 X169.198 Y59.319 E26.05728
G1 X168.666 Y60.413 E26.08193
G1 X167.918 Y61.811 E26.11406
G1 X167.110 Y63.176 E26.14620
G1 X166.277 Y64.454 E26.17711
G1 X165.097 Y66.089 E26.21797
G1 X164.106 Y67.327 E26.25011
G1 X163.062 Y68.521 E26.28225
G1 X161.967 Y69.669 E26.31439
G1 X160.854 Y70.740 E26.34569
G1 X49.869 Y170.437 E29.36871
G1 X47.691 Y171.860 E29.42144
G1 X45.184 Y172.558 E29.47416
G1 X42.584 Y172.466 E29.52689
G1 X40.132 Y171.593 E29.57961
G1 X38.751 Y170.661 E29.61338
G1 X25.423 Y159.627 E29.96400
G1 X24.832 Y159.089 E29.98018
G1 X21.107 Y155.364 E30.08693
G1 X20.578 Y154.783 E30.10286
G1 X9.347 Y141.259 E30.45908
G1 X8.010 Y139.026 E30.51181
G1 X7.409 Y136.494 E30.56453
G1 X7.602 Y133.899 E30.61726
G1 X8.570 Y131.484 E30.66998
G1 X9.563 Y130.131 E30.70400
G1 X69.865 Y63.002 E32.53248
G1 X70.332 Y63.421 F1800.000
G1 X109.727 Y19.566 E33.72702 F1800.000
G1 X111.026 Y18.230 E33.76477
G1 X111.911 Y17.395 E33.78942
G1 X113.084 Y16.369 E33.82100
G1 X114.301 Y15.396 E33.85259
G1 X115.560 Y14.476 E33.88418
G1 X116.857 Y13.611 E33.91576
G1 X118.190 Y12.804 E33.94735
G1 X119.558 Y12.055 E33.97894
G1 X120.956 Y11.366 E34.01052
G1 X122.383 Y10.739 E34.04211
G1 X123.836 Y10.175 E34.07370
G1 X125.312 Y9.674 E34.10528
G1 X126.809 Y9.237 E34.13687
G1 X128.323 Y8.866 E34.16845
G1 X129.851 Y8.561 E34.20004
G1 X131.392 Y8.323 E34.23163
G1 X132.941 Y8.152 E34.26321
G1 X134.497 Y8.048 E34.29480
G1 X136.397 Y8.014 E34.33332
G1 X137.613 Y8.044 E34.35797 F1800.000
G1 X139.169 Y8.143 E34.38956
G1 X141.058 Y8.356 E34.42808
G1 X142.597 Y8.605 E34.45967
G1 X143.790 Y8.845 E34.48432
G1 X145.635 Y9.301 E34.52284
G1 X146.802 Y9.644 E34.54749
G1 X148.280 Y10.141 E34.57908
G1 X150.051 Y10.833 E34.61760
G1 X151.163 Y11.325 E34.64225
G1 X152.564 Y12.010 E34.67384
G1 X154.229 Y12.926 E34.71236
G1 X155.268 Y13.558 E34.73700
G1 X156.568 Y14.419 E34.76860
G1 X158.100 Y15.545 E34.80712
G1 X159.049 Y16.307 E34.83177
G1 X160.225 Y17.329 E34.86336
G1 X161.598 Y18.644 E34.90188
G1 X162.440 Y19.522 E34.92653
G1 X163.473 Y20.689 E34.95811
G1 X164.664 Y22.171 E34.99664
G1 X165.581 Y23.432 E35.02822
G1 X166.258 Y24.444 E35.05288
G1 X167.245 Y26.067 E35.09140
G1 X167.832 Y27.134 E35.11605
G1 X168.530 Y28.527 E35.14763
G1 X169.298 Y30.266 E35.18615
G1 X169.741 Y31.399 E35.21080
G1 X170.252 Y32.871 E35.24239
G1 X170.788 Y34.695 E35.28091
G1 X171.080 Y35.876 E35.30556
G1 X171.395 Y37.403 E35.33715
G1 X171.690 Y39.281 E35.37567
G1 X171.857 Y40.831 E35.40726
G1 X171.940 Y42.045 E35.43192
G1 X171.988 Y43.945 E35.47043
G1 X171.965 Y45.162 E35.49509
G1 X171.877 Y46.718 E35.52668
G1 X171.677 Y48.608 E35.56519
G1 X171.497 Y49.811 E35.58983
G1 X171.206 Y51.343 E35.62142
G1 X170.763 Y53.191 E35.65994
G1 X170.428 Y54.361 E35.68460
G1 X169.941 Y55.843 E35.71620
G1 X169.261 Y57.617 E35.75470
G1 X168.776 Y58.733 E35.77936
G1 X168.101 Y60.138 E35.81095
G1 X167.196 Y61.809 E35.84946
G1 X166.571 Y62.853 E35.87411
G1 X165.719 Y64.159 E35.90570
G1 X164.811 Y65.426 E35.93728
G1 X163.849 Y66.652 E35.96887
G1 X162.605 Y68.090 E36.00739
G1 X161.529 Y69.218 E36.03898
G1 X160.434 Y70.273 E36.06979
G1 X49.450 Y169.970 E39.09281
G1 X47.345 Y171.326 E39.14355
G1 X44.922 Y171.954 E39.19428
G1 X42.423 Y171.791 E39.24501
G1 X39.152 Y170.177 E39.31892
G1 X25.824 Y159.143 E39.66954
G1 X25.277 Y158.645 E39.68453
G1 X21.552 Y154.920 E39.79127
G1 X21.061 Y154.382 E39.80603
G1 X9.830 Y140.857 E40.16225
G1 X8.557 Y138.702 E40.21298
G1 X8.023 Y136.255 E40.26371
G1 X8.283 Y133.765 E40.31444
G1 X10.030 Y130.550 E40.38858
G1 X70.292 Y63.466 E42.21585
G1 X70.760 Y63.886 F1800.000
G1 X110.195 Y19.986 E43.41160 F1800.000
G1 X111.458 Y18.687 E43.44831
G1 X112.342 Y17.852 E43.47296
G1 X113.495 Y16.845 E43.50399
G1 X114.692 Y15.888 E43.53503
G1 X115.928 Y14.985 E43.56606
G1 X117.203 Y14.136 E43.59709
G1 X118.513 Y13.343 E43.62813
G1 X119.857 Y12.608 E43.65916
G1 X121.231 Y11.931 E43.69019
G1 X122.633 Y11.316 E43.72123
G1 X124.061 Y10.761 E43.75226
G1 X125.511 Y10.270 E43.78329
G1 X126.982 Y9.841 E43.81433
G1 X128.469 Y9.477 E43.84536
G1 X129.971 Y9.178 E43.87639
G1 X131.485 Y8.944 E43.90743
G1 X133.007 Y8.777 E43.93846
G1 X134.535 Y8.675 E43.96950
G1 X136.381 Y8.642 E44.00691
G1 X137.598 Y8.672 E44.03156 F1800.000
G1 X139.126 Y8.770 E44.06259
G1 X140.961 Y8.977 E44.10001
G1 X142.473 Y9.221 E44.13105
G1 X143.666 Y9.461 E44.15570
G1 X145.458 Y9.904 E44.19311
G1 X146.625 Y10.247 E44.21776
G1 X148.077 Y10.736 E44.24880
G1 X149.797 Y11.408 E44.28621
G1 X150.909 Y11.900 E44.31086
G1 X152.285 Y12.573 E44.34190
G1 X153.903 Y13.463 E44.37931
G1 X154.942 Y14.095 E44.40396
G1 X156.218 Y14.942 E44.43499
G1 X157.707 Y16.034 E44.47241
G1 X158.655 Y16.796 E44.49706
G1 X159.811 Y17.801 E44.52810
G1 X161.145 Y19.078 E44.56551
G1 X161.986 Y19.957 E44.59016
G1 X163.001 Y21.103 E44.62119
G1 X164.158 Y22.543 E44.65861
G1 X165.058 Y23.782 E44.68964
G1 X165.736 Y24.793 E44.71431
G1 X166.695 Y26.370 E44.75171
G1 X167.281 Y27.436 E44.77637
G1 X167.967 Y28.805 E44.80739
G1 X168.713 Y30.494 E44.84481
G1 X169.156 Y31.627 E44.86946
G1 X169.658 Y33.074 E44.90049
G1 X170.178 Y34.846 E44.93791
G1 X170.470 Y36.027 E44.96256
G1 X170.779 Y37.527 E44.99359
G1 X171.065 Y39.351 E45.03101
G1 X171.230 Y40.874 E45.06204
G1 X171.313 Y42.088 E45.08671
G1 X171.359 Y43.934 E45.12411
G1 X171.337 Y45.150 E45.14877
G1 X171.249 Y46.679 E45.17980
G1 X171.056 Y48.515 E45.21721
G1 X170.875 Y49.718 E45.24186
G1 X170.590 Y51.223 E45.27289
G1 X170.159 Y53.018 E45.31030
G1 X169.824 Y54.188 E45.33497
G1 X169.345 Y55.643 E45.36601
G1 X168.684 Y57.367 E45.40341
G1 X168.200 Y58.483 E45.42807
G1 X167.536 Y59.863 E45.45910
G1 X166.657 Y61.487 E45.49650
G1 X166.032 Y62.530 E45.52115
G1 X165.195 Y63.813 E45.55219
G1 X164.302 Y65.057 E45.58322
G1 X163.357 Y66.262 E45.61426
G1 X162.148 Y67.658 E45.65167
G1 X161.091 Y68.767 E45.68271
G1 X160.014 Y69.805 E45.71303
G1 X49.030 Y169.502 E48.73605
G1 X47.003 Y170.789 E48.78470
G1 X44.666 Y171.344 E48.83336
G1 X42.277 Y171.107 E48.88201
G1 X39.553 Y169.694 E48.94421
G1 X26.224 Y158.659 E49.29483
G1 X25.721 Y158.200 E49.30862
G1 X21.996 Y154.475 E49.41537
G1 X21.544 Y153.980 E49.42895
G1 X10.313 Y140.456 E49.78517
G1 X9.106 Y138.380 E49.83382
G1 X8.642 Y136.024 E49.88248
G1 X8.973 Y133.646 E49.93113
G1 X10.498 Y130.970 E49.99354
G1 X70.719 Y63.931 E51.81959
G1 X71.187 Y64.350 F1800.000
G1 X110.662 Y20.406 E53.01656 F1800.000
G1 X111.889 Y19.144 E53.05222
G1 X112.773 Y18.309 E53.07687
G1 X113.906 Y17.320 E53.10735
G1 X115.082 Y16.381 E53.13783
G1 X116.297 Y15.494 E53.16831
G1 X117.549 Y14.660 E53.19879
G1 X118.836 Y13.882 E53.22927
G1 X120.156 Y13.160 E53.25975
G1 X121.506 Y12.496 E53.29023
G1 X122.883 Y11.892 E53.32071
G1 X124.286 Y11.348 E53.35119
G1 X125.710 Y10.866 E53.38167
G1 X127.155 Y10.445 E53.41215
G1 X128.616 Y10.088 E53.44263
G1 X130.091 Y9.795 E53.47311
G1 X131.578 Y9.566 E53.50359
G1 X133.073 Y9.402 E53.53408
G1 X134.574 Y9.303 E53.56456
G1 X136.366 Y9.270 E53.60086
G1 X137.582 Y9.300 E53.62552 F1800.000
G1 X139.083 Y9.397 E53.65600
G1 X140.864 Y9.597 E53.69231
G1 X142.349 Y9.837 E53.72279
G1 X143.541 Y10.077 E53.74744
G1 X145.281 Y10.507 E53.78375
G1 X146.448 Y10.850 E53.80840
G1 X147.874 Y11.330 E53.83888
G1 X149.543 Y11.983 E53.87519
G1 X150.655 Y12.475 E53.89984
G1 X152.006 Y13.136 E53.93032
G1 X153.576 Y14.000 E53.96663
G1 X154.858 Y14.787 E53.99711
G1 X155.869 Y15.464 E54.02176
G1 X157.313 Y16.524 E54.05807
G1 X158.262 Y17.286 E54.08272
G1 X159.396 Y18.274 E54.11320
G1 X160.691 Y19.513 E54.14951
G1 X161.726 Y20.604 E54.17999
G1 X162.529 Y21.518 E54.20464
G1 X163.651 Y22.915 E54.24096
G1 X164.536 Y24.131 E54.27143
G1 X165.213 Y25.142 E54.29609
G1 X166.144 Y26.673 E54.33240
G1 X166.731 Y27.739 E54.35705
G1 X167.403 Y29.084 E54.38752
G1 X168.128 Y30.723 E54.42383
G1 X168.571 Y31.856 E54.44848
G1 X169.063 Y33.278 E54.47896
G1 X169.568 Y34.997 E54.51528
G1 X169.923 Y36.459 E54.54576
G1 X170.163 Y37.651 E54.57040
G1 X170.441 Y39.421 E54.60672
