; generated by Slic3r 1.2.9 on 2021-04-02 at 15:22:00

; external perimeters extrusion width = 0.40mm
; perimeters extrusion width = 0.67mm
; infill extrusion width = 0.67mm
; solid infill extrusion width = 0.67mm
; top infill extrusion width = 0.67mm

M190 S60 ; set bed temperature
M104 S200 ; set temperature
G28 ; home all axes
G1 Z5 F5000 ; lift nozzle

M109 S200 ; wait for temperature to be reached
G21 ; set units to millimeters
G90 ; use absolute coordinates
M82 ; use absolute distances for extrusion
G92 E0
G1 Z0.200 F1800.000
G1 E-3.00000 F2400.00000
G92 E0
G1 X64.775 Y77.646 F1800.000
G1 E3.00000 F2400.00000
G1 X65.221 Y77.305 E3.01137 F1800.000
G1 X65.821 Y76.914 E3.02589
G1 X66.448 Y76.580 E3.04027
G1 X66.926 Y76.370 E3.05087
G1 X67.604 Y76.130 E3.06544
G1 X68.143 Y75.986 E3.07674
G1 X68.727 Y75.874 E3.08879
G1 X69.361 Y75.799 E3.10173
G1 X69.961 Y75.774 E3.11389
G1 X73.274 Y75.779 E3.18102
G1 X73.803 Y75.813 E3.19176
G1 X74.510 Y75.914 E3.20625
G1 X75.390 Y76.129 E3.22459
G1 X76.220 Y76.430 E3.24248
G1 X77.048 Y76.839 E3.26119
G1 X77.809 Y77.321 E3.27946
G1 X78.191 Y77.321 E3.28718
G1 X78.821 Y76.915 E3.30237
G1 X79.263 Y76.672 E3.31259
G1 X79.780 Y76.430 E3.32417
G1 X80.265 Y76.242 E3.33471
G1 X81.138 Y75.987 E3.35313
G1 X82.004 Y75.834 E3.37095
G1 X82.882 Y75.775 E3.38878
G1 X86.275 Y75.779 E3.45753
G1 X87.149 Y75.855 E3.47532
G1 X88.152 Y76.042 E3.49599
G1 X88.587 Y75.205 E3.51509
G1 X87.994 Y74.621 E3.53197
G1 X87.524 Y74.073 E3.54659
G1 X87.105 Y73.487 E3.56119
G1 X86.667 Y72.728 E3.57893
G1 X86.370 Y72.075 E3.59347
G1 X86.128 Y71.388 E3.60823
G1 X85.913 Y70.507 E3.62661
G1 X85.813 Y69.795 E3.64118
G1 X85.774 Y69.039 E3.65651
G1 X85.774 Y63.961 E3.75943
G1 X85.799 Y63.359 E3.77164
G1 X85.887 Y62.639 E3.78634
G1 X86.034 Y61.950 E3.80060
G1 X86.242 Y61.265 E3.81510
G1 X86.512 Y60.594 E3.82976
G1 X86.838 Y59.954 E3.84431
G1 X87.216 Y59.348 E3.85880
G1 X87.651 Y58.769 E3.87346
G1 X88.128 Y58.240 E3.88790
G1 X88.659 Y57.744 E3.90263
G1 X89.221 Y57.305 E3.91707
G1 X89.821 Y56.914 E3.93158
G1 X90.593 Y56.513 E3.94922
G1 X91.113 Y56.297 E3.96061
G1 X91.792 Y56.076 E3.97510
G1 X92.297 Y55.952 E3.98562
G1 X93.002 Y55.835 E4.00011
G1 X93.882 Y55.775 E4.01798
G1 X97.118 Y55.775 E4.08355
G1 X97.803 Y55.813 E4.09745 F1800.000
G1 X98.365 Y55.888 E4.10894
G1 X99.042 Y56.031 E4.12297
G1 X99.546 Y56.178 E4.13360
G1 X100.220 Y56.430 E4.14818
G1 X100.733 Y56.670 E4.15965
G1 X101.182 Y56.916 E4.17004
G1 X101.809 Y57.321 E4.18516
G1 X102.191 Y57.321 E4.19289
G1 X102.821 Y56.915 E4.20808
G1 X103.263 Y56.672 E4.21830
G1 X103.780 Y56.430 E4.22987
G1 X104.265 Y56.242 E4.24042
G1 X105.138 Y55.987 E4.25884
G1 X106.004 Y55.834 E4.27666
G1 X106.882 Y55.775 E4.29449
G1 X110.439 Y55.786 E4.36655
G1 X111.342 Y55.884 E4.38498
G1 X111.857 Y55.986 E4.39561
G1 X112.384 Y56.127 E4.40667
G1 X112.895 Y56.300 E4.41760
G1 X113.291 Y56.461 E4.42625
G1 X113.728 Y56.667 E4.43605
G1 X114.187 Y56.919 E4.44665
G1 X114.652 Y57.216 E4.45783
G1 X115.074 Y57.525 E4.46844
G1 X115.499 Y57.882 E4.47968
G1 X115.867 Y58.234 E4.49000
G1 X116.250 Y58.651 E4.50147
G1 X116.574 Y59.055 E4.51196
G1 X116.890 Y59.506 E4.52311
G1 X117.159 Y59.948 E4.53360
G1 X117.421 Y60.451 E4.54509
G1 X117.629 Y60.923 E4.55555
G1 X117.822 Y61.452 E4.56697
G1 X117.964 Y61.939 E4.57724
G1 X118.048 Y62.297 E4.58468
G1 X118.145 Y62.851 E4.59609
G1 X118.201 Y63.359 E4.60645
G1 X118.225 Y63.882 E4.61704
G1 X118.226 Y76.880 E4.88043
G1 X116.569 Y78.536 E4.92790
G1 X116.534 Y79.000 E4.93731
G1 X116.890 Y79.506 E4.94985
G1 X117.159 Y79.948 E4.96034
G1 X117.421 Y80.451 E4.97183
G1 X117.629 Y80.923 E4.98229
G1 X117.822 Y81.452 E4.99371
G1 X117.984 Y82.022 E5.00570
G1 X118.114 Y82.649 E5.01868
G1 X118.187 Y83.204 E5.03002
G1 X118.226 Y83.961 E5.04538
G1 X118.226 Y96.880 E5.30716
G1 X116.569 Y98.536 E5.35463
G1 X116.534 Y99.000 E5.36405
G1 X116.890 Y99.506 E5.37659
G1 X117.159 Y99.948 E5.38707
G1 X117.421 Y100.451 E5.39856
G1 X117.629 Y100.923 E5.40902
G1 X117.822 Y101.452 E5.42044
G1 X117.984 Y102.022 E5.43244
G1 X118.114 Y102.649 E5.44541
G1 X118.187 Y103.204 E5.45676
G1 X118.226 Y103.961 E5.47211
G1 X118.226 Y116.880 E5.73390
G1 X113.993 Y121.113 E5.85519
G1 X106.007 Y121.113 E6.01701
G1 X102.216 Y117.321 E6.12566
G1 X101.985 Y117.226 E6.13072
G1 X93.961 Y117.226 E6.29332
G1 X93.381 Y117.203 E6.30508
G1 X92.654 Y117.115 E6.31990
G1 X91.798 Y116.926 E6.33766
G1 X91.334 Y116.781 E6.34752
G1 X90.917 Y116.626 E6.35654
G1 X90.131 Y116.259 E6.37412
G1 X89.346 Y115.783 E6.39272
G1 X88.657 Y115.255 E6.41031
G1 X88.128 Y114.761 E6.42498
G1 X87.524 Y114.073 E6.44352
G1 X87.105 Y113.487 E6.45813
G1 X86.667 Y112.728 E6.47587
G1 X86.298 Y111.890 E6.49444
G1 X86.075 Y111.205 E6.50902
G1 X85.885 Y110.346 E6.52686
G1 X85.813 Y109.795 E6.53811
G1 X85.779 Y109.275 E6.54868
G1 X85.774 Y103.961 E6.65636
G1 X85.799 Y103.359 E6.66857
G1 X85.855 Y102.847 E6.67899
G1 X85.952 Y102.297 E6.69032
G1 X86.126 Y101.604 E6.70479
G1 X85.749 Y101.113 E6.71735
G1 X82.007 Y101.113 E6.79317
G1 X78.216 Y97.321 E6.90181
G1 X77.985 Y97.226 E6.90688
G1 X69.882 Y97.225 E7.07107
G1 X69.211 Y97.188 E7.08468
G1 X68.654 Y97.115 E7.09606
G1 X68.143 Y97.014 E7.10663
G1 X67.597 Y96.867 E7.11808
G1 X66.996 Y96.657 E7.13097
G1 X66.454 Y96.422 E7.14295
G1 X65.956 Y96.164 E7.15431
G1 X65.450 Y95.852 E7.16637
G1 X64.930 Y95.478 E7.17934
G1 X64.501 Y95.118 E7.19069
G1 X63.994 Y94.621 E7.20508
G1 X63.649 Y94.229 E7.21566
G1 X63.302 Y93.776 E7.22722
G1 X62.915 Y93.180 E7.24162
G1 X62.580 Y92.552 E7.25603
G1 X62.370 Y92.075 E7.26659
G1 X62.176 Y91.541 E7.27811
G1 X61.986 Y90.857 E7.29249
G1 X61.855 Y90.149 E7.30708
G1 X61.779 Y89.275 E7.32487
G1 X61.775 Y83.882 E7.43415
G1 X61.835 Y83.002 E7.45201
G1 X61.986 Y82.143 E7.46970
G1 X62.242 Y81.265 E7.48821
G1 X62.578 Y80.452 E7.50605
G1 X63.020 Y79.648 E7.52464
G1 X63.522 Y78.930 E7.54239
G1 X64.128 Y78.240 E7.56100
G1 X64.729 Y77.685 E7.57758
G1 X65.133 Y78.166 F1800.000
G1 X65.586 Y77.816 E7.58920 F1800.000
G1 X66.141 Y77.455 E7.60261
G1 X66.720 Y77.147 E7.61590
G1 X67.160 Y76.953 E7.62565
G1 X67.786 Y76.732 E7.63910
G1 X68.426 Y76.567 E7.65249
G1 X69.078 Y76.459 E7.66587
G1 X69.605 Y76.413 E7.67660
G1 X73.254 Y76.407 E7.75053
G1 X73.921 Y76.458 E7.76408
G1 X74.571 Y76.567 E7.77745
G1 X75.033 Y76.679 E7.78708
G1 X75.527 Y76.835 E7.79757
G1 X76.274 Y77.144 E7.81397
G1 X77.024 Y77.555 E7.83128
G1 X77.412 Y77.815 E7.84075
G1 X77.787 Y78.097 E7.85025
G1 X78.213 Y78.097 E7.85889
G1 X78.705 Y77.733 E7.87128
G1 X79.268 Y77.382 E7.88474
G1 X79.727 Y77.144 E7.89521
G1 X80.335 Y76.885 E7.90861
G1 X80.796 Y76.729 E7.91846
G1 X81.281 Y76.599 E7.92864
G1 X81.759 Y76.504 E7.93851
G1 X82.272 Y76.437 E7.94900
G1 X82.964 Y76.403 E7.96304
G1 X86.036 Y76.403 E8.02528
G1 X86.591 Y76.425 E8.03653
G1 X87.061 Y76.477 E8.04611
G1 X87.829 Y76.626 E8.06196
G1 X88.533 Y76.837 E8.07686
G1 X89.148 Y77.085 E8.09031
G1 X89.839 Y77.441 E8.10605
G1 X90.161 Y77.441 E8.11257
G1 X90.720 Y77.147 E8.12537
G1 X91.250 Y76.910 E8.13714
G1 X91.250 Y76.090 E8.15376
G1 X90.725 Y75.856 E8.16539
G1 X90.264 Y75.616 E8.17592
G1 X89.862 Y75.372 E8.18547
G1 X89.432 Y75.071 E8.19609
G1 X89.066 Y74.777 E8.20561
G1 X88.679 Y74.423 E8.21623
G1 X88.351 Y74.081 E8.22583
G1 X88.019 Y73.685 E8.23632
G1 X87.631 Y73.143 E8.24981
G1 X87.228 Y72.444 E8.26616
G1 X86.953 Y71.841 E8.27959
G1 X86.730 Y71.207 E8.29322
G1 X86.567 Y70.574 E8.30646
G1 X86.477 Y70.061 E8.31702
G1 X86.425 Y69.590 E8.32660
G1 X86.403 Y69.036 E8.33785
G1 X86.407 Y63.746 E8.44504
G1 X86.477 Y62.936 E8.46151
G1 X86.567 Y62.426 E8.47201
G1 X86.680 Y61.965 E8.48163
G1 X86.885 Y61.335 E8.49505
G1 X87.228 Y60.556 E8.51230
G1 X87.630 Y59.859 E8.52860
G1 X88.016 Y59.318 E8.54208
G1 X88.577 Y58.679 E8.55930
G1 X89.068 Y58.221 E8.57290
G1 X89.702 Y57.735 E8.58910
G1 X90.428 Y57.294 E8.60630
G1 X91.029 Y57.007 E8.61981
G1 X91.641 Y56.778 E8.63304
G1 X92.286 Y56.598 E8.64660
G1 X92.936 Y56.477 E8.66001
G1 X93.409 Y56.425 E8.66966
G1 X93.892 Y56.403 E8.67945
G1 X97.036 Y56.403 E8.74315
G1 X97.604 Y56.426 E8.75468 F1800.000
G1 X98.261 Y56.508 E8.76809
G1 X98.887 Y56.640 E8.78106
G1 X99.527 Y56.835 E8.79460
G1 X100.141 Y57.082 E8.80803
G1 X100.739 Y57.386 E8.82162
G1 X101.297 Y57.734 E8.83494
G1 X101.787 Y58.097 E8.84729
G1 X102.213 Y58.097 E8.85593
G1 X102.705 Y57.733 E8.86831
G1 X103.141 Y57.456 E8.87879
G1 X103.727 Y57.144 E8.89225
G1 X104.162 Y56.952 E8.90189
G1 X104.967 Y56.679 E8.91910
G1 X105.413 Y56.570 E8.92841
G1 X105.937 Y56.477 E8.93919
G1 X106.409 Y56.425 E8.94881
G1 X106.892 Y56.403 E8.95862
G1 X110.255 Y56.407 E9.02675
G1 X110.734 Y56.438 E9.03649
G1 X111.241 Y56.504 E9.04684
G1 X112.039 Y56.681 E9.06340
G1 X112.533 Y56.837 E9.07390
G1 X112.966 Y57.005 E9.08331
G1 X113.444 Y57.228 E9.09400
G1 X113.866 Y57.460 E9.10376
G1 X114.297 Y57.734 E9.11412
G1 X114.686 Y58.019 E9.12389
G1 X115.079 Y58.350 E9.13430
G1 X115.418 Y58.674 E9.14380
G1 X115.773 Y59.060 E9.15442
G1 X116.071 Y59.432 E9.16408
G1 X116.364 Y59.850 E9.17442
G1 X116.612 Y60.257 E9.18407
G1 X116.854 Y60.722 E9.19471
G1 X117.046 Y61.157 E9.20434
G1 X117.224 Y61.648 E9.21492
G1 X117.355 Y62.096 E9.22438
G1 X117.523 Y62.940 E9.24181
G1 X117.575 Y63.407 E9.25134
G1 X117.597 Y63.892 E9.26117
G1 X117.597 Y76.620 E9.51908
G1 X115.726 Y78.491 E9.57270
G1 X115.705 Y78.979 E9.58261
G1 X116.071 Y79.432 E9.59441
G1 X116.445 Y79.976 E9.60778
G1 X116.706 Y80.428 E9.61836
G1 X116.991 Y81.026 E9.63178
G1 X117.163 Y81.467 E9.64138
G1 X117.355 Y82.096 E9.65470
G1 X117.470 Y82.616 E9.66549
G1 X117.562 Y83.265 E9.67879
G1 X117.597 Y83.964 E9.69296
G1 X117.597 Y96.620 E9.94940
G1 X115.726 Y98.491 E10.00303
G1 X115.705 Y98.979 E10.01293
G1 X116.071 Y99.432 E10.02473
G1 X116.445 Y99.976 E10.03811
G1 X116.706 Y100.428 E10.04869
G1 X116.991 Y101.026 E10.06210
G1 X117.163 Y101.467 E10.07171
G1 X117.355 Y102.096 E10.08503
G1 X117.470 Y102.616 E10.09581
G1 X117.562 Y103.265 E10.10911
G1 X117.597 Y103.964 E10.12328
G1 X117.597 Y116.620 E10.37973
G1 X113.733 Y120.484 E10.49047
G1 X106.267 Y120.484 E10.64175
G1 X102.476 Y116.693 E10.75039
G1 X102.245 Y116.597 E10.75546
G1 X93.964 Y116.597 E10.92326
G1 X93.427 Y116.576 E10.93415
G1 X92.756 Y116.495 E10.94784
G1 X91.967 Y116.321 E10.96421
G1 X91.152 Y116.044 E10.98166
G1 X90.427 Y115.705 E10.99787
G1 X89.701 Y115.264 E11.01509
G1 X89.066 Y114.777 E11.03130
G1 X88.577 Y114.321 E11.04485
G1 X88.019 Y113.685 E11.06201
G1 X87.554 Y113.021 E11.07842
G1 X87.147 Y112.280 E11.09556
G1 X86.886 Y111.668 E11.10903
G1 X86.643 Y110.897 E11.12542
G1 X86.477 Y110.061 E11.14269
G1 X86.407 Y109.254 E11.15909
G1 X86.407 Y103.746 E11.27071
G1 X86.459 Y103.078 E11.28430
G1 X86.567 Y102.426 E11.29768
G1 X86.731 Y101.789 E11.31101
G1 X87.003 Y101.031 E11.32732
G1 X86.629 Y100.484 E11.34075
G1 X82.267 Y100.484 E11.42913
G1 X78.476 Y96.693 E11.53778
G1 X78.245 Y96.597 E11.54284
G1 X69.964 Y96.597 E11.71064
G1 X69.427 Y96.576 E11.72153
G1 X68.936 Y96.523 E11.73153
G1 X68.426 Y96.433 E11.74204
G1 X67.967 Y96.321 E11.75160
G1 X67.465 Y96.162 E11.76228
G1 X66.859 Y95.918 E11.77552
G1 X66.427 Y95.705 E11.78528
G1 X65.980 Y95.447 E11.79573
G1 X65.581 Y95.181 E11.80545
G1 X65.066 Y94.777 E11.81871
G1 X64.679 Y94.423 E11.82934
G1 X64.230 Y93.943 E11.84265
G1 X63.929 Y93.569 E11.85238
G1 X63.554 Y93.021 E11.86584
G1 X63.294 Y92.572 E11.87635
G1 X63.009 Y91.974 E11.88977
G1 X62.836 Y91.532 E11.89940
G1 X62.643 Y90.897 E11.91285
G1 X62.477 Y90.061 E11.93012
G1 X62.407 Y89.254 E11.94652
G1 X62.403 Y83.964 E12.05372
G1 X62.438 Y83.265 E12.06790
G1 X62.567 Y82.426 E12.08511
G1 X62.775 Y81.648 E12.10142
G1 X63.084 Y80.854 E12.11869
G1 X63.453 Y80.144 E12.13490
G1 X63.929 Y79.432 E12.15225
G1 X64.447 Y78.814 E12.16859
G1 X64.815 Y78.447 E12.17912
G1 X65.087 Y78.205 E12.18650
G1 X65.490 Y78.687 F1800.000
G1 X65.952 Y78.327 E12.19836 F1800.000
G1 X66.461 Y77.996 E12.21066
G1 X66.992 Y77.713 E12.22285
G1 X67.394 Y77.536 E12.23176
G1 X67.969 Y77.333 E12.24410
G1 X68.555 Y77.182 E12.25638
G1 X69.153 Y77.082 E12.26865
G1 X69.639 Y77.040 E12.27853
G1 X73.234 Y77.035 E12.35138
G1 X73.845 Y77.082 E12.36381
G1 X74.442 Y77.182 E12.37607
G1 X74.864 Y77.285 E12.38487
G1 X75.318 Y77.428 E12.39452
G1 X75.726 Y77.586 E12.40339
G1 X76.164 Y77.790 E12.41317
G1 X76.542 Y77.998 E12.42191
G1 X76.942 Y78.253 E12.43154
G1 X77.294 Y78.511 E12.44037
G1 X77.764 Y78.909 E12.45284
G1 X78.236 Y78.909 E12.46242
G1 X78.706 Y78.511 E12.47489
G1 X79.059 Y78.252 E12.48376
G1 X79.461 Y77.996 E12.49341
G1 X79.998 Y77.710 E12.50575
G1 X80.557 Y77.473 E12.51804
G1 X80.977 Y77.331 E12.52704
G1 X81.544 Y77.185 E12.53889
G1 X82.155 Y77.082 E12.55144
G1 X82.903 Y77.032 E12.56664
G1 X86.032 Y77.031 E12.63006
G1 X86.543 Y77.052 E12.64040
G1 X86.972 Y77.099 E12.64916
G1 X87.572 Y77.210 E12.66151
G1 X88.158 Y77.373 E12.67384
G1 X88.604 Y77.536 E12.68347
G1 X89.012 Y77.715 E12.69249
G1 X89.428 Y77.932 E12.70201
G1 X89.824 Y78.169 E12.71136
G1 X90.176 Y78.169 E12.71848
G1 X90.574 Y77.931 E12.72788
G1 X90.992 Y77.713 E12.73744
G1 X91.678 Y77.429 E12.75248
G1 X92.428 Y77.210 E12.76832
G1 X93.416 Y77.039 E12.78864
G1 X93.416 Y75.960 E12.81050
G1 X92.428 Y75.790 E12.83081
G1 X91.963 Y75.665 E12.84057
G1 X91.554 Y75.526 E12.84931
G1 X91.118 Y75.345 E12.85889
G1 X90.723 Y75.151 E12.86780
G1 X90.312 Y74.913 E12.87742
G1 X89.948 Y74.670 E12.88630
G1 X89.569 Y74.379 E12.89598
G1 X89.244 Y74.094 E12.90474
G1 X88.819 Y73.662 E12.91701
G1 X88.513 Y73.297 E12.92668
G1 X88.253 Y72.942 E12.93558
G1 X87.997 Y72.540 E12.94525
G1 X87.788 Y72.160 E12.95402
G1 X87.587 Y71.728 E12.96369
G1 X87.371 Y71.151 E12.97616
G1 X87.210 Y70.572 E12.98834
G1 X87.099 Y69.972 E13.00070
G1 X87.040 Y69.370 E13.01297
G1 X87.032 Y63.902 E13.12376
G1 X87.063 Y63.327 E13.13543
G1 X87.147 Y62.730 E13.14765
G1 X87.333 Y61.971 E13.16348
G1 X87.587 Y61.272 E13.17854
G1 X87.933 Y60.571 E13.19439
G1 X88.327 Y59.952 E13.20926
G1 X88.818 Y59.340 E13.22516
G1 X89.340 Y58.818 E13.24012
G1 X89.952 Y58.327 E13.25602
G1 X90.574 Y57.931 E13.27095
G1 X91.112 Y57.657 E13.28320
G1 X91.837 Y57.375 E13.29895
G1 X92.428 Y57.210 E13.31140
G1 X93.025 Y57.099 E13.32370
G1 X93.457 Y57.052 E13.33251
G1 X93.903 Y57.032 E13.34154
G1 X97.097 Y57.032 E13.40628
G1 X97.845 Y57.082 E13.42147 F1800.000
G1 X98.442 Y57.182 E13.43373
G1 X99.026 Y57.332 E13.44595
G1 X99.604 Y57.535 E13.45836
G1 X100.164 Y57.790 E13.47082
G1 X100.692 Y58.089 E13.48311
G1 X101.191 Y58.431 E13.49538
G1 X101.764 Y58.909 E13.51048
G1 X102.236 Y58.909 E13.52007
G1 X102.706 Y58.511 E13.53254
G1 X103.203 Y58.156 E13.54491
G1 X103.722 Y57.850 E13.55712
G1 X104.274 Y57.586 E13.56951
G1 X104.977 Y57.331 E13.58467
G1 X105.424 Y57.211 E13.59406
G1 X105.861 Y57.124 E13.60307
G1 X106.333 Y57.063 E13.61272
G1 X106.903 Y57.032 E13.62428
G1 X110.235 Y57.035 E13.69180
G1 X110.972 Y57.099 E13.70680
G1 X111.747 Y57.253 E13.72282
G1 X112.158 Y57.373 E13.73148
G1 X112.604 Y57.536 E13.74111
G1 X113.012 Y57.715 E13.75013
G1 X113.428 Y57.932 E13.75964
G1 X113.791 Y58.152 E13.76824
G1 X114.192 Y58.432 E13.77816
G1 X114.534 Y58.707 E13.78704
G1 X114.970 Y59.114 E13.79912
G1 X115.296 Y59.470 E13.80891
G1 X115.568 Y59.809 E13.81773
G1 X115.838 Y60.194 E13.82725
G1 X116.064 Y60.566 E13.83607
G1 X116.288 Y60.994 E13.84586
G1 X116.463 Y61.391 E13.85466
G1 X116.627 Y61.843 E13.86440
G1 X116.747 Y62.253 E13.87304
G1 X116.901 Y63.028 E13.88906
G1 X116.948 Y63.456 E13.89778
G1 X116.968 Y63.902 E13.90683
G1 X116.969 Y76.359 E14.15926
G1 X114.854 Y78.475 E14.21987
G1 X114.848 Y78.987 E14.23025
G1 X115.296 Y79.470 E14.24359
G1 X115.568 Y79.809 E14.25241
G1 X115.911 Y80.308 E14.26468
G1 X116.212 Y80.840 E14.27706
G1 X116.463 Y81.391 E14.28934
G1 X116.667 Y81.969 E14.30174
G1 X116.818 Y82.555 E14.31402
G1 X116.919 Y83.162 E14.32648
G1 X116.969 Y83.967 E14.34283
G1 X116.969 Y96.359 E14.59393
G1 X114.854 Y98.475 E14.65455
G1 X114.848 Y98.987 E14.66493
G1 X115.296 Y99.470 E14.67827
G1 X115.568 Y99.809 E14.68709
G1 X115.911 Y100.308 E14.69936
G1 X116.212 Y100.840 E14.71174
G1 X116.463 Y101.391 E14.72401
G1 X116.667 Y101.969 E14.73642
G1 X116.818 Y102.555 E14.74869
G1 X116.919 Y103.162 E14.76116
