; generated by Slic3r 1.2.9 on 2021-03-31 at 12:57:58

; external perimeters extrusion width = 0.40mm
; perimeters extrusion width = 0.67mm
; infill extrusion width = 0.67mm
; solid infill extrusion width = 0.67mm
; top infill extrusion width = 0.67mm
; support material extrusion width = 0.40mm

M190 S60 ; set bed temperature
M104 S200 ; set temperature
G28 ; home all axes
G1 Z5 F5000 ; lift nozzle

M109 S200 ; wait for temperature to be reached
G21 ; set units to millimeters
G90 ; use absolute coordinates
M82 ; use absolute distances for extrusion
G92 E0
G1 Z0.300 F1800.000
G1 E-3.00000 F2400.00000
G92 E0
G1 X25.544 Y53.527 F1800.000
G1 E3.00000 F2400.00000
G1 X26.072 Y53.290 E3.01174 F1800.000
G1 X26.609 Y53.075 E3.02346
G1 X27.155 Y52.885 E3.03518
G1 X27.709 Y52.718 E3.04690
G1 X28.270 Y52.576 E3.05863
G1 X28.837 Y52.458 E3.07036
G1 X29.409 Y52.365 E3.08209
G1 X29.982 Y52.298 E3.09380
G1 X31.082 Y52.239 E3.11612
G1 X33.718 Y52.245 E3.16952
G1 X34.295 Y52.278 E3.18123
G1 X34.870 Y52.336 E3.19296
G1 X35.443 Y52.420 E3.20468
G1 X36.011 Y52.528 E3.21640
G1 X36.575 Y52.661 E3.22815
G1 X37.131 Y52.818 E3.23985
G1 X37.681 Y52.999 E3.25157
G1 X38.222 Y53.204 E3.26330
G1 X38.754 Y53.433 E3.27503
G1 X39.275 Y53.685 E3.28677
G1 X39.784 Y53.958 E3.29848
G1 X40.282 Y54.254 E3.31021
G1 X40.950 Y54.701 E3.32649
G1 X41.413 Y55.046 E3.33820
G1 X41.861 Y55.412 E3.34992
G1 X42.292 Y55.797 E3.36163
G1 X42.708 Y56.202 E3.37338
G1 X43.105 Y56.623 E3.38512
G1 X43.557 Y57.155 E3.39927
G1 X43.729 Y57.237 E3.40313
G1 X113.330 Y57.237 E4.81347
G1 X113.508 Y57.148 E4.81751
G1 X113.872 Y56.669 E4.82970
G1 X114.232 Y56.236 E4.84112
G1 X114.760 Y55.663 E4.85690
G1 X115.165 Y55.265 E4.86841
G1 X115.852 Y54.663 E4.88691
G1 X116.751 Y53.989 E4.90968
G1 X117.708 Y53.391 E4.93255
G1 X118.501 Y52.977 E4.95068
G1 X119.431 Y52.572 E4.97122
G1 X120.498 Y52.207 E4.99407
G1 X121.432 Y51.968 E5.01361
G1 X154.400 Y44.942 E5.69665
G1 X162.013 Y51.103 E5.89509
G1 X162.013 Y67.812 E6.23367 F1800.000
G1 X157.442 Y73.460 E6.38089
G1 X139.456 Y77.293 E6.75351
G1 X139.280 Y77.471 E6.75860
G1 X139.030 Y78.545 E6.78095
G1 X138.752 Y79.428 E6.79970
G1 X138.460 Y80.179 E6.81602
G1 X138.068 Y81.021 E6.83485
G1 X137.681 Y81.726 E6.85114
G1 X137.178 Y82.516 E6.87013
G1 X136.839 Y82.987 E6.88188
G1 X136.482 Y83.439 E6.89355
G1 X135.953 Y84.042 E6.90979
G1 X135.294 Y84.701 E6.92869
G1 X134.692 Y85.230 E6.94492
G1 X133.949 Y85.800 E6.96390
G1 X133.278 Y86.248 E6.98025
G1 X132.474 Y86.712 E6.99907
G1 X131.750 Y87.069 E7.01542
G1 X130.888 Y87.426 E7.03431
G1 X130.347 Y87.614 E7.04594
G1 X129.790 Y87.782 E7.05771
G1 X129.010 Y87.973 E7.07398
G1 X128.441 Y88.081 E7.08572
G1 X127.517 Y88.202 E7.10460
G1 X126.717 Y88.255 E7.12086
G1 X113.849 Y88.263 E7.38160
G1 X108.413 Y82.826 E7.53738
G1 X108.259 Y82.763 E7.54076
G1 X51.408 Y82.763 E8.69274
G1 X51.163 Y83.008 E8.69977
G1 X51.163 Y96.992 E8.98313
G1 X51.408 Y97.237 E8.99017
G1 X108.259 Y97.237 E10.14215
G1 X108.413 Y97.174 E10.14552
G1 X113.849 Y91.737 E10.30131
G1 X126.306 Y91.737 E10.55372
G1 X127.295 Y91.778 E10.57378
G1 X127.871 Y91.836 E10.58551
G1 X128.660 Y91.958 E10.60169
G1 X129.232 Y92.076 E10.61352
G1 X129.788 Y92.218 E10.62514
G1 X130.345 Y92.385 E10.63693
G1 X130.891 Y92.575 E10.64865
G1 X131.751 Y92.932 E10.66752
G1 X132.274 Y93.184 E10.67928
G1 X132.978 Y93.570 E10.69555
G1 X133.472 Y93.876 E10.70732
G1 X134.236 Y94.411 E10.72622
G1 X134.689 Y94.768 E10.73792
G1 X135.130 Y95.148 E10.74971
G1 X135.708 Y95.702 E10.76592
G1 X136.338 Y96.389 E10.78482
G1 X136.840 Y97.015 E10.80108
G1 X137.375 Y97.779 E10.81996
G1 X137.680 Y98.272 E10.83173
G1 X138.065 Y98.975 E10.84797
G1 X138.318 Y99.498 E10.85974
G1 X138.548 Y100.033 E10.87154
G1 X138.865 Y100.904 E10.89031
G1 X139.090 Y101.676 E10.90661
G1 X139.280 Y102.529 E10.92431
G1 X139.456 Y102.707 E10.92940
G1 X157.442 Y106.540 E11.30203
G1 X162.013 Y112.188 E11.44924
G1 X162.013 Y128.897 E11.78782
G1 X154.400 Y135.058 E11.98626
G1 X121.432 Y128.032 E12.66929
G1 X120.498 Y127.793 E12.68883
G1 X119.431 Y127.429 E12.71168
G1 X118.709 Y127.122 E12.72757
G1 X117.709 Y126.610 E12.75036
G1 X116.753 Y126.013 E12.77319
G1 X116.019 Y125.472 E12.79166
G1 X115.165 Y124.734 E12.81453
G1 X114.762 Y124.340 E12.82595
G1 X114.234 Y123.766 E12.84176
G1 X113.872 Y123.330 E12.85324
G1 X113.508 Y122.852 E12.86541
G1 X113.330 Y122.763 E12.86944
G1 X43.729 Y122.763 E14.27978
G1 X43.557 Y122.845 E14.28364
G1 X43.105 Y123.376 E14.29777
G1 X42.706 Y123.800 E14.30958
G1 X42.128 Y124.353 E14.32580
G1 X41.689 Y124.732 E14.33753
G1 X41.235 Y125.090 E14.34926
G1 X40.766 Y125.428 E14.36097
G1 X40.282 Y125.746 E14.37270
G1 X39.784 Y126.042 E14.38444
G1 X39.275 Y126.316 E14.39616
G1 X38.753 Y126.568 E14.40790
G1 X38.222 Y126.796 E14.41961
G1 X37.678 Y127.002 E14.43139
G1 X36.790 Y127.282 E14.45025
G1 X36.230 Y127.424 E14.46197
G1 X35.661 Y127.542 E14.47375
G1 X35.094 Y127.634 E14.48539
G1 X34.517 Y127.702 E14.49715
G1 X33.715 Y127.755 E14.51344
G1 X31.194 Y127.763 E14.56453
G1 X30.205 Y127.722 E14.58459
G1 X29.629 Y127.664 E14.59632
G1 X29.058 Y127.581 E14.60801
G1 X28.488 Y127.472 E14.61976
G1 X27.711 Y127.282 E14.63597
G1 X27.159 Y127.116 E14.64766
G1 X26.607 Y126.924 E14.65949
G1 X26.071 Y126.710 E14.67119
G1 X25.329 Y126.367 E14.68775
G1 X24.715 Y126.041 E14.70183
G1 X24.218 Y125.746 E14.71355
G1 X23.552 Y125.300 E14.72980
G1 X23.087 Y124.953 E14.74156
G1 X22.372 Y124.354 E14.76045
G1 X21.794 Y123.800 E14.77668
G1 X21.395 Y123.376 E14.78848
G1 X20.796 Y122.662 E14.80736
G1 X20.322 Y122.016 E14.82358
G1 X20.004 Y121.531 E14.83533
G1 X19.538 Y120.723 E14.85424
G1 X19.277 Y120.206 E14.86597
G1 X18.954 Y119.470 E14.88227
G1 X18.712 Y118.821 E14.89632
G1 X18.468 Y118.041 E14.91287
G1 X18.278 Y117.262 E14.92910
G1 X18.170 Y116.693 E14.94085
G1 X18.048 Y115.768 E14.95975
G1 X18.005 Y115.191 E14.97148
G1 X17.987 Y114.556 E14.98435
G1 X17.989 Y65.332 E15.98178
G1 X18.048 Y64.232 E16.00410
G1 X18.169 Y63.308 E16.02299
G1 X18.326 Y62.520 E16.03927
G1 X18.568 Y61.619 E16.05817
G1 X18.826 Y60.859 E16.07444
G1 X19.183 Y59.997 E16.09335
G1 X19.538 Y59.277 E16.10962
G1 X20.004 Y58.469 E16.12852
G1 X20.450 Y57.801 E16.14479
G1 X21.019 Y57.060 E16.16371
G1 X21.548 Y56.457 E16.17996
G1 X21.952 Y56.042 E16.19170
G1 X22.372 Y55.647 E16.20339
G1 X23.087 Y55.047 E16.22231
G1 X23.735 Y54.572 E16.23858
G1 X24.523 Y54.070 E16.25752
G1 X25.490 Y53.554 E16.27973
G1 X25.675 Y53.930 F1800.000
G1 X26.236 Y53.675 E16.29222 F1800.000
G1 X26.757 Y53.468 E16.30356
G1 X27.822 Y53.122 E16.32627
G1 X28.914 Y52.870 E16.34897
G1 X30.024 Y52.715 E16.37167
G1 X31.089 Y52.658 E16.39329
G1 X33.704 Y52.664 E16.44628
G1 X34.820 Y52.752 E16.46897
G1 X35.925 Y52.938 E16.49167
G1 X37.010 Y53.218 E16.51437
G1 X38.066 Y53.593 E16.53708
G1 X39.086 Y54.058 E16.55980
G1 X40.060 Y54.610 E16.58249
G1 X40.983 Y55.245 E16.60519
G1 X41.848 Y55.958 E16.62789
G1 X42.647 Y56.744 E16.65061
G1 X43.356 Y57.574 E16.67273
G1 X43.528 Y57.656 E16.67660
G1 X113.548 Y57.656 E18.09541
G1 X113.729 Y57.563 E18.09954
G1 X114.201 Y56.929 E18.11555
G1 X114.550 Y56.509 E18.12661
G1 X115.300 Y55.716 E18.14875
G1 X116.033 Y55.057 E18.16871
G1 X116.715 Y54.526 E18.18622
G1 X117.622 Y53.926 E18.20827
G1 X118.582 Y53.402 E18.23043
G1 X119.582 Y52.962 E18.25255
G1 X120.615 Y52.609 E18.27468
G1 X121.521 Y52.377 E18.29364
G1 X154.292 Y45.394 E18.97258
G1 X161.594 Y51.303 E19.16293 F1800.000
G1 X161.594 Y67.664 E19.49445
G1 X157.210 Y73.081 E19.63566
G1 X139.095 Y76.941 E20.01096
G1 X138.917 Y77.126 E20.01615
G1 X138.766 Y77.884 E20.03182
G1 X138.531 Y78.760 E20.05019
G1 X138.284 Y79.490 E20.06581
G1 X137.936 Y80.331 E20.08425
G1 X137.594 Y81.023 E20.09989
G1 X137.321 Y81.512 E20.11126
G1 X137.025 Y81.991 E20.12267
G1 X136.504 Y82.735 E20.14107
G1 X136.020 Y83.338 E20.15673
G1 X135.570 Y83.837 E20.17034
G1 X135.008 Y84.395 E20.18640
G1 X134.426 Y84.906 E20.20208
G1 X133.982 Y85.256 E20.21353
G1 X133.240 Y85.775 E20.23188
G1 X132.764 Y86.070 E20.24322
G1 X132.086 Y86.442 E20.25890
G1 X131.066 Y86.907 E20.28162
G1 X130.216 Y87.216 E20.29994
G1 X129.678 Y87.378 E20.31134
G1 X128.585 Y87.630 E20.33405
G1 X128.033 Y87.720 E20.34540
G1 X127.262 Y87.804 E20.36110
G1 X126.304 Y87.844 E20.38054
G1 X114.023 Y87.844 E20.62940
G1 X108.586 Y82.407 E20.78518
G1 X108.432 Y82.344 E20.78856
G1 X50.989 Y82.344 E21.95254
G1 X50.744 Y82.589 E21.95957
G1 X50.744 Y97.411 E22.25991
G1 X50.989 Y97.656 E22.26695
G1 X108.432 Y97.656 E23.43093
G1 X108.586 Y97.593 E23.43431
G1 X114.023 Y92.156 E23.59009
G1 X126.304 Y92.156 E23.83894
G1 X126.918 Y92.173 E23.85141
G1 X127.821 Y92.252 E23.86976
G1 X128.693 Y92.391 E23.88766
G1 X129.675 Y92.621 E23.90809
G1 X130.539 Y92.893 E23.92644
G1 X131.264 Y93.175 E23.94221
G1 X132.085 Y93.558 E23.96056
G1 X132.765 Y93.931 E23.97627
G1 X133.529 Y94.418 E23.99463
G1 X134.157 Y94.878 E24.01041
G1 X134.850 Y95.460 E24.02876
G1 X135.408 Y95.994 E24.04441
G1 X136.020 Y96.662 E24.06276
G1 X136.505 Y97.267 E24.07847
G1 X137.024 Y98.008 E24.09680
G1 X137.427 Y98.673 E24.11256
G1 X137.847 Y99.480 E24.13100
G1 X138.159 Y100.189 E24.14670
G1 X138.530 Y101.237 E24.16922
G1 X138.765 Y102.112 E24.18758
G1 X138.917 Y102.874 E24.20333
G1 X139.095 Y103.059 E24.20852
G1 X157.210 Y106.919 E24.58383
G1 X161.594 Y112.336 E24.72503
G1 X161.594 Y128.697 E25.05656
G1 X154.292 Y134.606 E25.24690
G1 X121.522 Y127.623 E25.92584
G1 X120.616 Y127.391 E25.94479
G1 X119.582 Y127.038 E25.96692
G1 X118.583 Y126.598 E25.98905
G1 X117.624 Y126.075 E26.01119
G1 X116.714 Y125.473 E26.03329
G1 X115.857 Y124.795 E26.05543
G1 X115.299 Y124.284 E26.07076
G1 X114.551 Y123.492 E26.09283
G1 X114.200 Y123.070 E26.10395
G1 X113.729 Y122.437 E26.11995
G1 X113.548 Y122.344 E26.12407
G1 X43.528 Y122.344 E27.54289
G1 X43.356 Y122.426 E27.54675
G1 X42.793 Y123.096 E27.56449
G1 X42.407 Y123.507 E27.57592
G1 X41.588 Y124.270 E27.59859
G1 X40.706 Y124.958 E27.62126
G1 X39.766 Y125.569 E27.64397
G1 X38.776 Y126.094 E27.66668
G1 X37.745 Y126.532 E27.68938
G1 X36.678 Y126.878 E27.71212
G1 X36.135 Y127.016 E27.72347
G1 X35.377 Y127.167 E27.73913
G1 X34.263 Y127.304 E27.76188
G1 X33.305 Y127.344 E27.78130
G1 X30.795 Y127.336 E27.83215
G1 X30.021 Y127.285 E27.84787
G1 X29.126 Y127.167 E27.86617
G1 X28.574 Y127.062 E27.87754
G1 X27.824 Y126.879 E27.89320
G1 X26.755 Y126.532 E27.91597
G1 X26.236 Y126.325 E27.92730
G1 X25.515 Y125.992 E27.94339
G1 X24.921 Y125.676 E27.95702
G1 X24.439 Y125.390 E27.96837
G1 X23.796 Y124.960 E27.98406
G1 X23.345 Y124.624 E27.99545
G1 X22.652 Y124.042 E28.01379
G1 X22.093 Y123.507 E28.02946
G1 X21.707 Y123.096 E28.04089
G1 X21.125 Y122.403 E28.05922
G1 X20.668 Y121.780 E28.07488
G1 X20.360 Y121.310 E28.08626
G1 X19.907 Y120.526 E28.10462
G1 X19.655 Y120.025 E28.11597
G1 X19.342 Y119.314 E28.13171
G1 X19.108 Y118.686 E28.14530
G1 X18.872 Y117.928 E28.16139
G1 X18.688 Y117.176 E28.17707
G1 X18.583 Y116.625 E28.18844
G1 X18.465 Y115.727 E28.20679
G1 X18.423 Y115.168 E28.21815
G1 X18.406 Y114.554 E28.23061
G1 X18.408 Y65.339 E29.22785
G1 X18.465 Y64.274 E29.24947
G1 X18.583 Y63.376 E29.26781
G1 X18.734 Y62.615 E29.28353
G1 X18.968 Y61.740 E29.30188
G1 X19.218 Y61.006 E29.31759
G1 X19.564 Y60.170 E29.33595
G1 X19.907 Y59.474 E29.35166
G1 X20.360 Y58.690 E29.37001
G1 X20.791 Y58.045 E29.38572
G1 X21.343 Y57.326 E29.40409
G1 X21.853 Y56.744 E29.41978
G1 X22.651 Y55.959 E29.44246
G1 X23.346 Y55.376 E29.46083
G1 X23.971 Y54.918 E29.47654
G1 X24.736 Y54.430 E29.49493
G1 X25.621 Y53.956 E29.51527
G1 X25.806 Y54.332 F1800.000
G1 X26.401 Y54.060 E29.52851 F1800.000
G1 X26.904 Y53.860 E29.53949
G1 X27.935 Y53.525 E29.56145
G1 X28.991 Y53.282 E29.58342
G1 X30.065 Y53.131 E29.60538
G1 X31.096 Y53.076 E29.62630
G1 X33.690 Y53.083 E29.67887
G1 X34.770 Y53.168 E29.70082
G1 X35.839 Y53.347 E29.72278
G1 X36.888 Y53.619 E29.74474
G1 X37.910 Y53.982 E29.76671
G1 X38.896 Y54.432 E29.78869
G1 X39.839 Y54.966 E29.81064
G1 X40.732 Y55.580 E29.83260
G1 X41.568 Y56.270 E29.85456
G1 X42.341 Y57.030 E29.87654
G1 X42.702 Y57.435 E29.88752
G1 X43.148 Y57.989 E29.90193
G1 X43.323 Y58.075 E29.90589
G1 X113.767 Y58.075 E31.33331
G1 X113.951 Y57.978 E31.33753
G1 X114.327 Y57.450 E31.35065
G1 X114.655 Y57.034 E31.36140
G1 X115.358 Y56.249 E31.38274
G1 X116.130 Y55.523 E31.40421
G1 X116.960 Y54.866 E31.42566
G1 X117.838 Y54.285 E31.44699
G1 X118.766 Y53.778 E31.46843
G1 X119.733 Y53.353 E31.48983
G1 X120.733 Y53.011 E31.51124
G1 X121.611 Y52.787 E31.52961
G1 X154.184 Y45.845 E32.20446
G1 X161.175 Y51.503 E32.38670
G1 X161.175 Y67.516 E32.71117 F1800.000
G1 X156.977 Y72.702 E32.84637
G1 X138.725 Y76.592 E33.22452
G1 X138.546 Y76.782 E33.22980
G1 X138.358 Y77.789 E33.25057
G1 X138.131 Y78.638 E33.26839
G1 X137.852 Y79.446 E33.28569
G1 X137.467 Y80.344 E33.30550
G1 X136.960 Y81.299 E33.32741
G1 X136.486 Y82.043 E33.34528
G1 X136.044 Y82.646 E33.36042
G1 X135.478 Y83.321 E33.37828
G1 X134.721 Y84.090 E33.40014
G1 X134.160 Y84.582 E33.41527
G1 X133.461 Y85.119 E33.43313
G1 X132.836 Y85.536 E33.44836
G1 X132.079 Y85.973 E33.46607
G1 X131.404 Y86.306 E33.48131
G1 X130.593 Y86.641 E33.49909
G1 X129.565 Y86.975 E33.52100
G1 X128.838 Y87.153 E33.53617
G1 X128.305 Y87.254 E33.54716
G1 X127.435 Y87.369 E33.56493
G1 X126.689 Y87.417 E33.58008
G1 X114.196 Y87.425 E33.83323
G1 X108.760 Y81.989 E33.98902
G1 X108.606 Y81.925 E33.99239
G1 X50.570 Y81.925 E35.16838
G1 X50.325 Y82.170 E35.17541
G1 X50.325 Y97.830 E35.49273
G1 X50.570 Y98.075 E35.49976
G1 X108.606 Y98.075 E36.67575
G1 X108.760 Y98.011 E36.67913
G1 X114.196 Y92.575 E36.83491
G1 X126.301 Y92.575 E37.08020
G1 X127.231 Y92.614 E37.09905
G1 X127.771 Y92.668 E37.11004
G1 X128.506 Y92.781 E37.12512
G1 X129.562 Y93.024 E37.14708
G1 X130.596 Y93.360 E37.16910
G1 X131.406 Y93.695 E37.18686
G1 X131.895 Y93.931 E37.19788
G1 X132.551 Y94.291 E37.21304
G1 X133.014 Y94.577 E37.22406
G1 X133.733 Y95.081 E37.24185
G1 X134.315 Y95.548 E37.25698
G1 X134.963 Y96.142 E37.27478
G1 X135.478 Y96.680 E37.28988
G1 X135.834 Y97.092 E37.30092
G1 X136.369 Y97.789 E37.31871
G1 X136.673 Y98.237 E37.32968
G1 X137.062 Y98.878 E37.34488
G1 X137.420 Y99.561 E37.36050
G1 X137.691 Y100.153 E37.37370
G1 X137.961 Y100.849 E37.38883
G1 X138.225 Y101.685 E37.40659
G1 X138.402 Y102.407 E37.42164
G1 X138.546 Y103.218 E37.43835
G1 X138.725 Y103.408 E37.44364
G1 X156.977 Y107.298 E37.82179
G1 X161.175 Y112.484 E37.95698
G1 X161.175 Y128.497 E38.28145
G1 X154.184 Y134.155 E38.46370
G1 X121.611 Y127.213 E39.13854
G1 X120.733 Y126.989 E39.15690
G1 X119.734 Y126.647 E39.17831
G1 X118.767 Y126.222 E39.19972
G1 X117.839 Y125.715 E39.22114
G1 X116.959 Y125.133 E39.24251
G1 X116.130 Y124.477 E39.26394
G1 X115.360 Y123.753 E39.28535
G1 X114.655 Y122.966 E39.30676
G1 X114.328 Y122.552 E39.31746
G1 X113.951 Y122.022 E39.33062
G1 X113.767 Y121.925 E39.33485
G1 X43.323 Y121.925 E40.76227
G1 X43.148 Y122.011 E40.76623
G1 X42.702 Y122.565 E40.78064
G1 X42.342 Y122.969 E40.79160
G1 X41.721 Y123.590 E40.80939
G1 X41.315 Y123.952 E40.82041
G1 X40.462 Y124.618 E40.84233
G1 X39.553 Y125.208 E40.86431
G1 X38.595 Y125.717 E40.88628
G1 X37.597 Y126.140 E40.90824
G1 X36.565 Y126.475 E40.93024
G1 X36.040 Y126.608 E40.94121
G1 X35.308 Y126.754 E40.95633
G1 X34.231 Y126.886 E40.97833
G1 X33.302 Y126.925 E40.99715
G1 X30.809 Y126.917 E41.04768
G1 X30.062 Y126.868 E41.06283
G1 X29.194 Y126.754 E41.08058
G1 X28.661 Y126.652 E41.09159
G1 X27.937 Y126.475 E41.10669
G1 X26.903 Y126.140 E41.12872
G1 X26.400 Y125.940 E41.13968
G1 X25.700 Y125.616 E41.15530
G1 X25.126 Y125.311 E41.16847
G1 X24.661 Y125.034 E41.17945
G1 X24.040 Y124.619 E41.19459
G1 X23.604 Y124.294 E41.20560
G1 X22.931 Y123.730 E41.22339
G1 X22.393 Y123.214 E41.23850
G1 X22.019 Y122.817 E41.24956
G1 X21.455 Y122.145 E41.26733
G1 X21.014 Y121.543 E41.28245
G1 X20.716 Y121.089 E41.29345
G1 X20.277 Y120.328 E41.31125
G1 X20.033 Y119.844 E41.32224
G1 X19.731 Y119.158 E41.33742
G1 X19.505 Y118.551 E41.35055
G1 X19.275 Y117.815 E41.36617
G1 X19.098 Y117.090 E41.38130
G1 X18.996 Y116.557 E41.39230
G1 X18.882 Y115.686 E41.41010
G1 X18.842 Y115.145 E41.42109
G1 X18.825 Y114.551 E41.43312
