; generated by Slic3r 1.2.9 on 2021-03-31 at 16:22:22

; external perimeters extrusion width = 0.30mm
; perimeters extrusion width = 0.40mm
; infill extrusion width = 0.40mm
; solid infill extrusion width = 0.40mm
; top infill extrusion width = 0.40mm
; support material extrusion width = 0.30mm

M190 S60 ; set bed temperature
M104 S180 ; set temperature
G28 ; home all axes
G1 Z5 F5000 ; lift nozzle

M109 S180 ; wait for temperature to be reached
G21 ; set units to millimeters
G90 ; use absolute coordinates
M82 ; use absolute distances for extrusion
G92 E0
G1 Z0.200 F2400.000
G1 E-2.00000 F2400.00000
G92 E0
G1 X33.073 Y34.211 F2400.000
G1 E2.00000 F2400.00000
G1 X33.516 Y33.798 E2.01779 F2400.000
G1 X34.078 Y33.330 E2.03929
G1 X34.639 Y32.918 E2.05975
G1 X35.256 Y32.523 E2.08128
G1 X35.783 Y32.224 E2.09909
G1 X36.408 Y31.915 E2.11958
G1 X37.173 Y31.599 E2.14391
G1 X37.654 Y31.431 E2.15889
G1 X38.322 Y31.236 E2.17931
G1 X38.820 Y31.119 E2.19435
G1 X39.320 Y31.023 E2.20931
G1 X40.140 Y30.915 E2.23362
G1 X41.108 Y30.864 E2.26213
G1 X43.392 Y30.864 E2.32923
G1 X44.172 Y30.899 E2.35218
G1 X44.868 Y30.975 E2.37274
G1 X45.681 Y31.119 E2.39703
G1 X46.176 Y31.236 E2.41198
G1 X46.846 Y31.431 E2.43246
G1 X47.417 Y31.634 E2.45028
G1 X48.092 Y31.915 E2.47177
G1 X48.717 Y32.224 E2.49226
G1 X49.161 Y32.472 E2.50722
G1 X49.860 Y32.917 E2.53156
G1 X50.273 Y33.215 E2.54651
G1 X50.816 Y33.651 E2.56699
G1 X51.196 Y33.990 E2.58196
G1 X51.782 Y34.576 E2.60631
G1 X52.242 Y35.100 E2.62682
G1 X52.768 Y35.787 E2.65222
G1 X52.919 Y35.863 E2.65718
G1 X124.200 Y35.863 E4.75200
G1 X124.359 Y35.777 E4.75729
G1 X124.937 Y34.935 E4.78731
G1 X125.444 Y34.309 E4.81098
G1 X125.778 Y33.939 E4.82563
G1 X126.491 Y33.247 E4.85481
G1 X127.258 Y32.619 E4.88396
G1 X128.075 Y32.060 E4.91305
G1 X128.939 Y31.570 E4.94223
G1 X129.838 Y31.157 E4.97131
G1 X130.772 Y30.821 E5.00048
G1 X131.775 Y30.557 E5.03095
G1 X163.986 Y23.692 E5.99883
G1 X170.409 Y28.890 E6.24166
G1 X170.409 Y44.267 E6.69354 F2400.000
G1 X166.553 Y49.032 E6.87368
G1 X148.007 Y52.984 E7.43092
G1 X147.854 Y53.153 E7.43764
G1 X147.715 Y54.142 E7.46699
G1 X147.538 Y54.942 E7.49107
G1 X147.241 Y55.912 E7.52088
G1 X146.984 Y56.575 E7.54176
G1 X146.633 Y57.325 E7.56610
G1 X146.134 Y58.206 E7.59587
G1 X145.747 Y58.786 E7.61636
G1 X145.121 Y59.588 E7.64626
G1 X144.561 Y60.199 E7.67061
G1 X143.817 Y60.893 E7.70051
G1 X143.270 Y61.331 E7.72108
G1 X142.433 Y61.907 E7.75097
G1 X141.551 Y62.407 E7.78075
G1 X140.799 Y62.757 E7.80514
G1 X139.849 Y63.112 E7.83494
G1 X139.179 Y63.307 E7.85543
G1 X138.679 Y63.425 E7.87054
G1 X137.865 Y63.569 E7.89483
G1 X137.360 Y63.628 E7.90976
G1 X136.667 Y63.674 E7.93019
G1 X124.513 Y63.681 E8.28735
G1 X119.441 Y58.609 E8.49816
G1 X119.441 Y58.388 E8.50464
G1 X119.234 Y58.181 E8.51325
G1 X59.766 Y58.181 E10.26088
G1 X59.559 Y58.388 E10.26948
G1 X59.559 Y75.656 E10.77695
G1 X59.766 Y75.863 E10.78555
G1 X119.234 Y75.863 E12.53318
G1 X119.441 Y75.656 E12.54178
G1 X119.441 Y75.435 E12.54827
G1 X124.513 Y70.363 E12.75908
G1 X136.297 Y70.363 E13.10538
G1 X136.853 Y70.378 E13.12173
G1 X137.677 Y70.450 E13.14602
G1 X138.371 Y70.557 E13.16667
G1 X139.359 Y70.785 E13.19647
G1 X140.332 Y71.101 E13.22653
G1 X141.263 Y71.495 E13.25624
G1 X142.161 Y71.972 E13.28613
G1 X143.015 Y72.526 E13.31603
G1 X143.817 Y73.151 E13.34592
G1 X144.560 Y73.843 E13.37576
G1 X145.121 Y74.455 E13.40015
G1 X145.746 Y75.257 E13.43004
G1 X146.299 Y76.109 E13.45989
G1 X146.777 Y77.009 E13.48982
G1 X147.175 Y77.948 E13.51980
G1 X147.400 Y78.612 E13.54039
G1 X147.653 Y79.589 E13.57007
G1 X147.749 Y80.094 E13.58517
G1 X147.854 Y80.890 E13.60877
G1 X148.007 Y81.060 E13.61549
G1 X166.553 Y85.012 E14.17273
G1 X170.409 Y89.777 E14.35288
G1 X170.409 Y105.153 E14.80475
G1 X163.986 Y110.352 E15.04758
G1 X132.280 Y103.595 E16.00029
G1 X132.015 Y104.004 E16.01460
G1 X133.022 Y105.382 E16.06478
G1 X134.100 Y106.996 E16.12180
G1 X135.106 Y108.655 E16.17882
G1 X135.951 Y110.191 E16.23032
G1 X136.955 Y112.222 E16.29694
G1 X137.679 Y113.871 E16.34986
G1 X138.383 Y115.680 E16.40689
G1 X139.054 Y117.663 E16.46841
G1 X139.553 Y119.380 E16.52096
G1 X140.016 Y121.263 E16.57795
G1 X140.426 Y123.331 E16.63991
G1 X140.695 Y125.084 E16.69202
G1 X140.909 Y127.012 E16.74904
G1 X141.039 Y128.947 E16.80603
G1 X141.082 Y130.752 E16.85908
G1 X141.039 Y133.009 E16.92542
G1 X140.909 Y134.944 E16.98241
G1 X140.717 Y136.702 E17.03440
G1 X140.397 Y138.789 E17.09644
G1 X140.016 Y140.693 E17.15351
G1 X139.593 Y142.424 E17.20588
G1 X139.008 Y144.439 E17.26754
G1 X138.383 Y146.277 E17.32457
G1 X137.733 Y147.952 E17.37738
G1 X136.898 Y149.859 E17.43857
G1 X135.951 Y151.766 E17.50114
G1 X135.106 Y153.301 E17.55264
G1 X134.100 Y154.960 E17.60966
G1 X133.022 Y156.574 E17.66669
G1 X131.945 Y158.048 E17.72033
G1 X130.526 Y159.815 E17.78694
G1 X129.385 Y161.113 E17.83773
G1 X128.115 Y162.445 E17.89181
G1 X126.477 Y164.012 E17.95843
G1 X125.087 Y165.227 E18.01269
G1 X123.572 Y166.440 E18.06971
G1 X122.006 Y167.586 E18.12673
G1 X120.567 Y168.548 E18.17761
G1 X118.630 Y169.726 E18.24423
G1 X117.031 Y170.600 E18.29780
G1 X115.290 Y171.458 E18.35483
G1 X113.392 Y172.288 E18.41571
G1 X111.706 Y172.942 E18.46886
G1 X109.869 Y173.566 E18.52587
G1 X107.865 Y174.147 E18.58720
G1 X106.123 Y174.572 E18.63989
G1 X104.220 Y174.952 E18.69691
G1 X102.298 Y175.250 E18.75405
G1 X100.525 Y175.447 E18.80649
G1 X98.260 Y175.599 E18.87319
G1 X96.475 Y175.637 E18.92568
G1 X94.530 Y175.597 E18.98286
G1 X92.586 Y175.472 E19.04009
G1 X90.807 Y175.280 E19.09268
G1 X88.563 Y174.939 E19.15938
G1 X86.818 Y174.591 E19.21168
G1 X84.926 Y174.131 E19.26891
G1 X83.056 Y173.589 E19.32611
G1 X81.355 Y173.015 E19.37885
G1 X79.238 Y172.197 E19.44558
G1 X77.614 Y171.482 E19.49771
G1 X75.867 Y170.623 E19.55493
G1 X74.158 Y169.689 E19.61216
G1 X72.492 Y168.682 E19.66936
G1 X70.873 Y167.604 E19.72654
G1 X69.416 Y166.541 E19.77953
G1 X67.643 Y165.124 E19.84624
G1 X66.314 Y163.959 E19.89817
G1 X64.906 Y162.615 E19.95537
G1 X63.557 Y161.212 E20.01257
G1 X62.271 Y159.751 E20.06978
G1 X61.049 Y158.235 E20.12699
G1 X59.976 Y156.777 E20.18020
G1 X58.710 Y154.893 E20.24690
G1 X57.704 Y153.226 E20.30411
G1 X56.771 Y151.518 E20.36131
G1 X55.913 Y149.770 E20.41852
G1 X55.204 Y148.158 E20.47029
G1 X54.386 Y146.041 E20.53700
G1 X53.809 Y144.327 E20.59013
G1 X53.268 Y142.457 E20.64733
G1 X52.808 Y140.566 E20.70455
G1 X52.432 Y138.656 E20.76175
G1 X52.139 Y136.731 E20.81895
G1 X51.946 Y134.973 E20.87095
G1 X51.814 Y133.029 E20.92819
G1 X51.767 Y131.082 E20.98543
G1 X51.821 Y128.828 E21.05170
G1 X51.943 Y127.019 E21.10498
G1 X52.158 Y125.084 E21.16218
G1 X52.457 Y123.161 E21.21939
G1 X52.803 Y121.418 E21.27162
G1 X53.347 Y119.214 E21.33833
G1 X53.851 Y117.494 E21.39100
G1 X54.479 Y115.651 E21.44821
G1 X55.187 Y113.838 E21.50542
G1 X55.904 Y112.206 E21.55781
G1 X56.912 Y110.172 E21.62451
G1 X57.775 Y108.607 E21.67704
G1 X58.700 Y107.079 E21.72952
G1 X59.869 Y105.326 E21.79144
G1 X61.022 Y103.757 E21.84865
G1 X62.242 Y102.240 E21.90586
G1 X63.618 Y100.681 E21.96699
G1 X64.764 Y99.483 E22.01570
G1 X65.654 Y98.624 E22.05205
G1 X65.476 Y98.181 E22.06609
G1 X52.918 Y98.181 E22.43513
G1 X52.768 Y98.257 E22.44009
G1 X52.242 Y98.944 E22.46551
G1 X51.561 Y99.699 E22.49540
G1 X51.055 Y100.183 E22.51597
G1 X50.422 Y100.714 E22.54026
G1 X49.860 Y101.126 E22.56073
G1 X49.159 Y101.573 E22.58517
G1 X48.264 Y102.048 E22.61495
G1 X47.624 Y102.330 E22.63548
G1 X46.846 Y102.613 E22.65982
G1 X46.173 Y102.809 E22.68042
G1 X45.370 Y102.987 E22.70460
G1 X44.678 Y103.094 E22.72518
G1 X44.172 Y103.145 E22.74011
G1 X43.393 Y103.180 E22.76303
G1 X40.649 Y103.166 E22.84368
G1 X39.823 Y103.094 E22.86803
G1 X39.129 Y102.987 E22.88866
G1 X38.323 Y102.808 E22.91294
G1 X37.654 Y102.613 E22.93342
G1 X36.877 Y102.330 E22.95773
G1 X36.038 Y101.950 E22.98479
G1 X35.341 Y101.573 E23.00808
G1 X34.640 Y101.127 E23.03250
G1 X34.077 Y100.714 E23.05302
G1 X33.303 Y100.053 E23.08291
G1 X32.718 Y99.468 E23.10724
G1 X32.258 Y98.944 E23.12773
G1 X31.754 Y98.287 E23.15206
G1 X31.366 Y97.707 E23.17258
G1 X30.952 Y96.989 E23.19693
G1 X30.643 Y96.363 E23.21743
G1 X30.442 Y95.896 E23.23236
G1 X30.231 Y95.329 E23.25017
G1 X30.013 Y94.630 E23.27167
G1 X29.888 Y94.138 E23.28658
G1 X29.785 Y93.640 E23.30154
G1 X29.679 Y92.953 E23.32196
G1 X29.627 Y92.442 E23.33706
G1 X29.592 Y91.663 E23.35997
G1 X29.598 Y42.107 E24.81631
G1 X29.678 Y41.093 E24.84620
G1 X29.847 Y40.090 E24.87609
G1 X30.102 Y39.106 E24.90597
G1 X30.262 Y38.623 E24.92093
G1 X30.514 Y37.974 E24.94138
G1 X30.723 Y37.509 E24.95637
G1 X30.999 Y36.969 E24.97419
G1 X31.366 Y36.337 E24.99567
G1 X31.645 Y35.912 E25.01061
G1 X32.258 Y35.100 E25.04050
G1 X32.590 Y34.715 E25.05545
G1 X33.041 Y34.243 E25.07464
G1 X33.291 Y34.493 F2400.000
G1 X33.678 Y34.126 E25.09031 F2400.000
G1 X34.296 Y33.608 E25.11401
G1 X34.839 Y33.210 E25.13379
G1 X35.252 Y32.938 E25.14832
G1 X35.949 Y32.535 E25.17199
G1 X36.554 Y32.237 E25.19180
G1 X37.297 Y31.929 E25.21545
G1 X37.764 Y31.767 E25.22998
G1 X38.409 Y31.579 E25.24973
G1 X38.892 Y31.464 E25.26431
G1 X39.377 Y31.372 E25.27881
G1 X40.174 Y31.267 E25.30244
G1 X41.114 Y31.217 E25.33010
G1 X43.386 Y31.217 E25.39686
G1 X44.145 Y31.251 E25.41919
G1 X44.818 Y31.325 E25.43907
G1 X45.609 Y31.465 E25.46268
G1 X46.089 Y31.578 E25.47718
G1 X46.736 Y31.767 E25.49698
G1 X47.289 Y31.963 E25.51423
G1 X47.946 Y32.237 E25.53515
G1 X48.551 Y32.535 E25.55497
G1 X49.248 Y32.938 E25.57863
G1 X49.809 Y33.313 E25.59845
G1 X50.204 Y33.608 E25.61296
G1 X50.821 Y34.125 E25.63662
G1 X51.308 Y34.592 E25.65644
G1 X51.852 Y35.185 E25.68011
G1 X52.274 Y35.711 E25.69992
G1 X52.580 Y36.136 E25.71532
G1 X52.734 Y36.216 E25.72040
G1 X124.398 Y36.216 E27.82645
G1 X124.559 Y36.127 E27.83185
G1 X125.115 Y35.289 E27.86140
G1 X125.407 Y34.906 E27.87555
G1 X125.830 Y34.405 E27.89482
G1 X126.502 Y33.717 E27.92309
G1 X127.232 Y33.086 E27.95145
G1 X127.860 Y32.623 E27.97440
G1 X128.263 Y32.359 E27.98854
G1 X129.101 Y31.885 E28.01683
G1 X129.973 Y31.484 E28.04503
G1 X130.878 Y31.158 E28.07331
G1 X131.850 Y30.902 E28.10285
G1 X163.895 Y24.073 E29.06572
G1 X170.056 Y29.059 E29.29864 F2400.000
G1 X170.056 Y44.141 E29.74188
G1 X166.356 Y48.712 E29.91467
G1 X147.679 Y52.692 E30.47588
G1 X147.525 Y52.867 E30.48273
G1 X147.448 Y53.582 E30.50388
G1 X147.268 Y54.557 E30.53301
G1 X147.059 Y55.336 E30.55669
G1 X146.729 Y56.266 E30.58570
G1 X146.458 Y56.882 E30.60548
G1 X145.996 Y57.752 E30.63443
G1 X145.564 Y58.430 E30.65807
G1 X145.164 Y58.976 E30.67797
G1 X144.644 Y59.596 E30.70174
G1 X143.957 Y60.294 E30.73053
G1 X143.447 Y60.741 E30.75044
G1 X142.809 Y61.231 E30.77407
G1 X142.246 Y61.607 E30.79398
G1 X141.391 Y62.091 E30.82286
G1 X140.660 Y62.432 E30.84656
G1 X139.739 Y62.776 E30.87546
G1 X139.091 Y62.965 E30.89528
G1 X138.303 Y63.140 E30.91900
G1 X137.635 Y63.243 E30.93888
G1 X136.655 Y63.321 E30.96776
G1 X124.660 Y63.327 E31.32028
G1 X119.794 Y58.462 E31.52248
G1 X119.794 Y58.034 E31.53505
G1 X119.587 Y57.827 E31.54365
G1 X59.413 Y57.827 E33.31206
G1 X59.206 Y58.034 E33.32066
G1 X59.206 Y76.009 E33.84890
G1 X59.413 Y76.216 E33.85750
G1 X119.587 Y76.216 E35.62590
G1 X119.794 Y76.009 E35.63451
G1 X119.794 Y75.582 E35.64708
G1 X124.660 Y70.716 E35.84928
G1 X136.295 Y70.716 E36.19122
G1 X136.834 Y70.731 E36.20707
G1 X137.635 Y70.801 E36.23068
G1 X138.608 Y70.964 E36.25967
G1 X139.563 Y71.212 E36.28869
G1 X140.493 Y71.542 E36.31767
G1 X141.388 Y71.951 E36.34661
G1 X142.243 Y72.435 E36.37548
G1 X143.061 Y72.997 E36.40463
G1 X143.818 Y73.622 E36.43348
G1 X144.523 Y74.316 E36.46257
G1 X144.969 Y74.824 E36.48243
G1 X145.563 Y75.611 E36.51140
G1 X146.084 Y76.443 E36.54025
G1 X146.535 Y77.326 E36.56938
G1 X146.844 Y78.073 E36.59312
G1 X147.147 Y79.008 E36.62202
G1 X147.307 Y79.662 E36.64181
G1 X147.400 Y80.152 E36.65646
G1 X147.525 Y81.177 E36.68681
G1 X147.679 Y81.351 E36.69366
G1 X166.356 Y85.332 E37.25486
G1 X170.056 Y89.902 E37.42766
G1 X170.056 Y104.985 E37.87090
G1 X163.895 Y109.971 E38.10382
G1 X131.415 Y103.040 E39.07983
G1 X131.146 Y103.467 E39.09464
G1 X131.661 Y104.119 E39.11908
G1 X132.798 Y105.679 E39.17579
G1 X133.802 Y107.186 E39.22901
G1 X134.800 Y108.832 E39.28558
G1 X135.726 Y110.520 E39.34217
G1 X136.501 Y112.087 E39.39354
G1 X137.405 Y114.135 E39.45934
G1 X138.052 Y115.802 E39.51188
G1 X138.620 Y117.470 E39.56366
G1 X139.212 Y119.473 E39.62505
G1 X139.705 Y121.494 E39.68618
G1 X140.049 Y123.231 E39.73822
G1 X140.345 Y125.133 E39.79478
G1 X140.557 Y127.046 E39.85136
G1 X140.678 Y128.831 E39.90392
G1 X140.732 Y131.067 E39.96965
G1 X140.686 Y132.990 E40.02619
G1 X140.572 Y134.741 E40.07776
G1 X140.345 Y136.824 E40.13932
G1 X140.049 Y138.725 E40.19587
G1 X139.705 Y140.462 E40.24791
G1 X139.212 Y142.483 E40.30904
G1 X138.672 Y144.332 E40.36564
G1 X138.100 Y146.020 E40.41804
G1 X137.302 Y148.067 E40.48259
G1 X136.578 Y149.709 E40.53534
G1 X135.784 Y151.322 E40.58816
G1 X134.800 Y153.124 E40.64851
G1 X133.802 Y154.770 E40.70508
G1 X132.798 Y156.277 E40.75830
G1 X131.472 Y158.083 E40.82412
G1 X130.392 Y159.427 E40.87481
G1 X129.124 Y160.876 E40.93138
G1 X127.794 Y162.268 E40.98796
G1 X126.472 Y163.539 E41.04185
G1 X124.788 Y165.015 E41.10767
G1 X123.358 Y166.159 E41.16147
G1 X121.973 Y167.176 E41.21198
G1 X120.111 Y168.421 E41.27780
G1 X118.555 Y169.362 E41.33123
G1 X116.868 Y170.286 E41.38778
G1 X115.140 Y171.138 E41.44437
G1 X113.548 Y171.840 E41.49553
G1 X111.584 Y172.610 E41.55750
G1 X109.632 Y173.269 E41.61806
G1 X107.913 Y173.769 E41.67067
G1 X106.045 Y174.227 E41.72720
G1 X104.157 Y174.604 E41.78378
G1 X102.407 Y174.876 E41.83582
G1 X100.178 Y175.124 E41.90174
G1 X98.404 Y175.240 E41.95397
G1 X96.473 Y175.284 E42.01075
G1 X94.543 Y175.244 E42.06748
G1 X92.768 Y175.131 E42.11975
G1 X90.537 Y174.890 E42.18567
G1 X88.786 Y174.620 E42.23775
G1 X86.892 Y174.246 E42.29449
G1 X85.015 Y173.789 E42.35127
G1 X83.302 Y173.293 E42.40367
G1 X81.177 Y172.577 E42.46958
G1 X79.528 Y171.935 E42.52155
G1 X77.761 Y171.160 E42.57826
G1 X76.027 Y170.309 E42.63503
G1 X74.332 Y169.382 E42.69181
G1 X72.680 Y168.383 E42.74856
G1 X71.189 Y167.391 E42.80117
G1 X69.377 Y166.069 E42.86708
G1 X68.005 Y164.967 E42.91881
G1 X66.551 Y163.696 E42.97557
G1 X65.153 Y162.363 E43.03232
G1 X63.815 Y160.970 E43.08907
G1 X62.539 Y159.521 E43.14583
G1 X61.411 Y158.121 E43.19867
G1 X60.080 Y156.315 E43.26459
G1 X59.010 Y154.706 E43.32137
G1 X58.012 Y153.053 E43.37813
G1 X57.086 Y151.358 E43.43488
G1 X56.311 Y149.786 E43.48639
G1 X55.529 Y148.019 E43.54317
G1 X54.825 Y146.220 E43.59996
G1 X54.109 Y144.094 E43.66587
G1 X53.610 Y142.369 E43.71864
G1 X53.154 Y140.492 E43.77540
G1 X52.781 Y138.598 E43.83215
G1 X52.490 Y136.689 E43.88891
G1 X52.283 Y134.769 E43.94566
G1 X52.160 Y132.841 E44.00242
G1 X52.121 Y130.910 E44.05917
G1 X52.159 Y129.146 E44.11103
G1 X52.281 Y127.218 E44.16781
G1 X52.487 Y125.297 E44.22459
G1 X52.832 Y123.080 E44.29051
G1 X53.183 Y121.331 E44.34294
G1 X53.645 Y119.456 E44.39970
G1 X54.188 Y117.603 E44.45645
G1 X54.811 Y115.775 E44.51320
G1 X55.513 Y113.975 E44.56996
G1 X56.293 Y112.208 E44.62672
G1 X57.149 Y110.477 E44.68347
G1 X58.002 Y108.920 E44.73567
G1 X59.083 Y107.135 E44.79698
G1 X60.070 Y105.656 E44.84924
G1 X61.399 Y103.850 E44.91515
G1 X62.511 Y102.469 E44.96724
G1 X63.786 Y101.018 E45.02400
G1 X65.122 Y99.624 E45.08075
G1 X66.534 Y98.271 E45.13823
G1 X66.356 Y97.827 E45.15227
G1 X52.734 Y97.827 E45.55261
G1 X52.580 Y97.907 E45.55769
G1 X52.164 Y98.476 E45.57839
G1 X51.524 Y99.226 E45.60738
G1 X50.956 Y99.795 E45.63101
G1 X50.448 Y100.241 E45.65087
G1 X49.810 Y100.730 E45.67450
G1 X49.247 Y101.106 E45.69439
G1 X48.390 Y101.592 E45.72334
G1 X47.660 Y101.932 E45.74701
G1 X47.034 Y102.176 E45.76676
G1 X46.262 Y102.419 E45.79055
G1 X45.305 Y102.640 E45.81941
G1 X44.635 Y102.743 E45.83931
G1 X44.145 Y102.792 E45.85379
G1 X43.387 Y102.826 E45.87609
G1 X40.847 Y102.821 E45.95074
G1 X40.175 Y102.777 E45.97054
G1 X39.375 Y102.671 E45.99425
G1 X38.716 Y102.540 E46.01398
G1 X37.937 Y102.331 E46.03770
G1 X37.295 Y102.113 E46.05762
G1 X36.554 Y101.807 E46.08118
G1 X35.951 Y101.509 E46.10094
G1 X35.252 Y101.106 E46.12465
