; generated by Slic3r 1.2.9 on 2021-03-31 at 16:31:41

; external perimeters extrusion width = 0.50mm
; perimeters extrusion width = 0.85mm
; infill extrusion width = 1.02mm
; solid infill extrusion width = 0.85mm
; top infill extrusion width = 0.85mm
; support material extrusion width = 0.50mm

M190 S60 ; set bed temperature
M104 S200 ; set temperature
G28 ; home all axes
G1 Z5 F5000 ; lift nozzle

M109 S200 ; wait for temperature to be reached
G21 ; set units to millimeters
G90 ; use absolute coordinates
M82 ; use absolute distances for extrusion
G92 E0
G1 Z0.300 F7800.000
G1 E-2.00000 F2400.00000
G92 E0
G1 X22.757 Y23.745 F7800.000
G1 E2.00000 F2400.00000
G1 X23.553 Y23.040 E2.02754 F1800.000
G1 X24.410 Y22.404 E2.05520
G1 X25.317 Y21.846 E2.08279
G1 X26.271 Y21.370 E2.11042
G1 X27.262 Y20.978 E2.13804
G1 X28.283 Y20.674 E2.16563
G1 X29.327 Y20.461 E2.19324
G1 X30.386 Y20.339 E2.22085
G1 X151.254 Y13.821 E5.35715
G1 X153.950 Y14.075 E5.42730
G1 X156.456 Y15.100 E5.49746 F1800.000
G1 X158.555 Y16.810 E5.56761
G1 X160.067 Y19.056 E5.63777
G1 X160.860 Y21.645 E5.70792
G1 X160.964 Y23.022 E5.74370
G1 X160.964 Y91.022 E7.50561
G1 X160.566 Y93.700 E7.57576
G1 X159.269 Y96.346 E7.65212
G1 X123.411 Y146.984 E9.25982
G1 X122.284 Y148.518 E9.30914
G1 X121.056 Y150.048 E9.35996
G1 X119.763 Y151.522 E9.41078
G1 X118.557 Y152.786 E9.45605
G1 X116.991 Y154.295 E9.51239
G1 X115.518 Y155.589 E9.56319
G1 X113.945 Y156.853 E9.61548
G1 X112.410 Y157.979 E9.66481
G1 X110.733 Y159.102 E9.71710
G1 X109.057 Y160.120 E9.76792
G1 X107.339 Y161.064 E9.81870
G1 X105.581 Y161.934 E9.86952
G1 X103.786 Y162.726 E9.92035
G1 X101.960 Y163.439 E9.97115
G1 X100.104 Y164.073 E10.02196
G1 X98.223 Y164.625 E10.07276
G1 X96.320 Y165.095 E10.12356
G1 X94.397 Y165.483 E10.17439
G1 X92.455 Y165.787 E10.22530
G1 X90.158 Y166.036 E10.28518
G1 X88.531 Y166.142 E10.32743
G1 X86.562 Y166.191 E10.37846
G1 X84.593 Y166.154 E10.42949
G1 X82.685 Y166.035 E10.47901
G1 X80.668 Y165.823 E10.53157
G1 X78.824 Y165.546 E10.57987
G1 X76.438 Y165.073 E10.64290
G1 X74.871 Y164.689 E10.68470
G1 X72.978 Y164.144 E10.73573
G1 X71.111 Y163.518 E10.78676
G1 X69.272 Y162.810 E10.83784
G1 X67.466 Y162.023 E10.88888
G1 X65.777 Y161.198 E10.93758
G1 X63.643 Y160.030 E11.00061
G1 X62.278 Y159.201 E11.04198
G1 X60.636 Y158.113 E11.09303
G1 X59.042 Y156.954 E11.14408
G1 X57.502 Y155.727 E11.19511
G1 X56.015 Y154.434 E11.24616
G1 X54.640 Y153.129 E11.29529
G1 X52.956 Y151.373 E11.35832
G1 X51.914 Y150.185 E11.39927
G1 X50.674 Y148.654 E11.45032
G1 X49.503 Y147.070 E11.50136
G1 X48.401 Y145.437 E11.55240
G1 X47.172 Y143.411 E11.61379
G1 X46.232 Y141.680 E11.66485
G1 X45.471 Y140.134 E11.70949
G1 X20.203 Y86.730 E13.24027
G1 X19.891 Y86.009 E13.26062
G1 X19.664 Y85.386 E13.27782
G1 X19.403 Y84.489 E13.30202
G1 X19.259 Y83.840 E13.31923
G1 X19.102 Y82.787 E13.34684
G1 X19.059 Y82.255 E13.36065
G1 X19.036 Y81.522 E13.37966
G1 X19.036 Y32.522 E14.64927
G1 X19.059 Y31.788 E14.66829
G1 X19.169 Y30.729 E14.69590
G1 X19.371 Y29.683 E14.72350
G1 X19.664 Y28.658 E14.75111
G1 X19.844 Y28.157 E14.76491
G1 X20.098 Y27.543 E14.78210
G1 X20.574 Y26.590 E14.80972
G1 X21.132 Y25.682 E14.83733
G1 X21.767 Y24.826 E14.86495
G1 X22.111 Y24.420 E14.87874
G1 X22.704 Y23.798 E14.90102
G1 X23.128 Y24.132 F7800.000
G1 X23.888 Y23.457 E14.92735 F1800.000
G1 X24.708 Y22.849 E14.95380
G1 X25.575 Y22.316 E14.98017
G1 X26.487 Y21.860 E15.00660
G1 X27.435 Y21.485 E15.03300
G1 X28.411 Y21.195 E15.05939
G1 X29.409 Y20.990 E15.08578
G1 X30.421 Y20.874 E15.11218
G1 X151.283 Y14.356 E18.24832
G1 X153.897 Y14.614 E18.31639
G1 X156.315 Y15.642 E18.38446 F1800.000
G1 X158.315 Y17.346 E18.45254
G1 X159.712 Y19.571 E18.52061
G1 X160.428 Y23.022 E18.61194
G1 X160.428 Y91.022 E20.37385
G1 X160.030 Y93.619 E20.44192
G1 X158.832 Y96.037 E20.51184
G1 X122.974 Y146.675 E22.11954
G1 X121.861 Y148.190 E22.16827
G1 X120.647 Y149.702 E22.21850
G1 X119.369 Y151.159 E22.26872
G1 X118.170 Y152.416 E22.31373
G1 X116.630 Y153.900 E22.36915
G1 X115.173 Y155.179 E22.41937
G1 X113.618 Y156.428 E22.47107
G1 X112.054 Y157.575 E22.52129
G1 X110.443 Y158.652 E22.57151
G1 X108.786 Y159.658 E22.62173
G1 X107.089 Y160.591 E22.67193
G1 X105.351 Y161.450 E22.72216
G1 X103.577 Y162.233 E22.77239
G1 X101.772 Y162.938 E22.82260
G1 X99.938 Y163.564 E22.87283
G1 X98.078 Y164.110 E22.92304
G1 X96.197 Y164.574 E22.97325
G1 X94.296 Y164.957 E23.02348
G1 X92.378 Y165.257 E23.07380
G1 X90.123 Y165.501 E23.13257
G1 X88.499 Y165.607 E23.17472
G1 X86.553 Y165.655 E23.22515
G1 X84.607 Y165.618 E23.27558
G1 X82.723 Y165.501 E23.32450
G1 X80.729 Y165.290 E23.37646
G1 X78.906 Y165.016 E23.42423
G1 X76.565 Y164.553 E23.48605
G1 X75.001 Y164.170 E23.52778
G1 X73.130 Y163.631 E23.57822
G1 X71.285 Y163.011 E23.62865
G1 X69.468 Y162.311 E23.67911
G1 X67.683 Y161.533 E23.72956
G1 X66.014 Y160.718 E23.77770
G1 X63.921 Y159.572 E23.83952
G1 X62.557 Y158.744 E23.88085
G1 X60.935 Y157.669 E23.93130
G1 X59.360 Y156.523 E23.98174
G1 X57.838 Y155.310 E24.03218
G1 X56.369 Y154.032 E24.08262
G1 X55.010 Y152.742 E24.13118
G1 X53.359 Y151.020 E24.19300
G1 X52.317 Y149.832 E24.23393
G1 X51.092 Y148.319 E24.28437
G1 X49.935 Y146.754 E24.33481
G1 X48.847 Y145.139 E24.38525
G1 X47.642 Y143.153 E24.44544
G1 X46.712 Y141.442 E24.49589
G1 X45.955 Y139.905 E24.54030
G1 X20.687 Y86.501 E26.07109
G1 X20.390 Y85.815 E26.09045
G1 X20.171 Y85.213 E26.10704
G1 X19.923 Y84.361 E26.13004
G1 X19.784 Y83.736 E26.14664
G1 X19.635 Y82.728 E26.17304
G1 X19.593 Y82.220 E26.18624
G1 X19.572 Y81.522 E26.20434
G1 X19.572 Y32.522 E27.47396
G1 X19.593 Y31.823 E27.49206
G1 X19.699 Y30.810 E27.51846
G1 X19.892 Y29.810 E27.54485
G1 X20.171 Y28.830 E27.57125
G1 X20.345 Y28.346 E27.58458
G1 X20.588 Y27.759 E27.60104
G1 X21.044 Y26.848 E27.62744
G1 X21.577 Y25.980 E27.65384
G1 X22.184 Y25.161 E27.68025
G1 X22.514 Y24.773 E27.69343
G1 X23.075 Y24.185 E27.71450
G1 X23.498 Y24.519 F7800.000
G1 X24.223 Y23.875 E27.73962 F1800.000
G1 X25.005 Y23.294 E27.76486
G1 X25.833 Y22.786 E27.79002
G1 X26.703 Y22.350 E27.81524
G1 X27.607 Y21.992 E27.84043
G1 X28.538 Y21.715 E27.86561
G1 X29.490 Y21.520 E27.89079
G1 X30.456 Y21.408 E27.91597
G1 X151.312 Y14.891 E31.05195
G1 X153.843 Y15.153 E31.11788
G1 X156.169 Y16.183 E31.18381 F1800.000
G1 X158.064 Y17.881 E31.24973
G1 X159.343 Y20.081 E31.31566
G1 X159.892 Y23.022 E31.39319
G1 X159.892 Y91.022 E33.15510
G1 X159.495 Y93.535 E33.22103
G1 X158.395 Y95.727 E33.28458
G1 X122.537 Y146.365 E34.89227
G1 X121.437 Y147.862 E34.94041
G1 X120.238 Y149.356 E34.99005
G1 X118.975 Y150.796 E35.03968
G1 X117.783 Y152.045 E35.08442
G1 X116.268 Y153.505 E35.13893
G1 X114.829 Y154.769 E35.18856
G1 X113.291 Y156.004 E35.23966
G1 X111.746 Y157.137 E35.28930
G1 X110.153 Y158.201 E35.33893
G1 X108.516 Y159.196 E35.38856
G1 X106.838 Y160.117 E35.43817
G1 X105.121 Y160.966 E35.48781
G1 X103.368 Y161.740 E35.53745
G1 X101.584 Y162.436 E35.58707
G1 X99.771 Y163.055 E35.63670
G1 X97.933 Y163.594 E35.68633
G1 X96.074 Y164.053 E35.73595
G1 X94.196 Y164.431 E35.78559
G1 X92.300 Y164.727 E35.83531
G1 X90.088 Y164.967 E35.89297
G1 X88.468 Y165.073 E35.93503
G1 X86.545 Y165.120 E35.98486
G1 X84.622 Y165.083 E36.03469
G1 X82.807 Y164.970 E36.08181
G1 X80.482 Y164.717 E36.14242
G1 X78.888 Y164.471 E36.18420
G1 X77.001 Y164.102 E36.23403
G1 X75.131 Y163.650 E36.28388
G1 X73.373 Y163.144 E36.33127
G1 X71.157 Y162.394 E36.39188
G1 X69.664 Y161.813 E36.43340
G1 X67.901 Y161.044 E36.48324
G1 X66.173 Y160.199 E36.53307
G1 X64.484 Y159.279 E36.58291
G1 X62.836 Y158.287 E36.63273
G1 X61.300 Y157.269 E36.68050
G1 X59.412 Y155.887 E36.74111
G1 X58.174 Y154.893 E36.78225
G1 X56.723 Y153.630 E36.83209
G1 X55.329 Y152.305 E36.88192
G1 X53.994 Y150.921 E36.93176
G1 X52.720 Y149.479 E36.98160
G1 X51.551 Y148.035 E37.02974
G1 X50.166 Y146.150 E37.09035
G1 X49.103 Y144.545 E37.14024
G1 X48.111 Y142.896 E37.19010
G1 X47.193 Y141.205 E37.23994
G1 X46.439 Y139.676 E37.28413
G1 X21.171 Y86.272 E38.81491
G1 X20.890 Y85.621 E38.83329
G1 X20.679 Y85.041 E38.84928
G1 X20.535 Y84.577 E38.86188
G1 X20.335 Y83.761 E38.88363
G1 X20.248 Y83.282 E38.89626
G1 X20.167 Y82.670 E38.91225
G1 X20.128 Y82.185 E38.92485
G1 X20.108 Y81.522 E38.94204
G1 X20.108 Y32.522 E40.21166
G1 X20.128 Y31.859 E40.22885
G1 X20.228 Y30.892 E40.25404
G1 X20.412 Y29.937 E40.27922
G1 X20.679 Y29.002 E40.30441
G1 X20.842 Y28.545 E40.31700
G1 X21.078 Y27.975 E40.33298
G1 X21.513 Y27.105 E40.35818
G1 X22.022 Y26.277 E40.38337
G1 X22.602 Y25.496 E40.40856
G1 X22.916 Y25.126 E40.42114
G1 X23.445 Y24.572 E40.44100
G1 X23.868 Y24.906 F7800.000
G1 X24.559 Y24.293 E40.46492 F1800.000
G1 X25.303 Y23.740 E40.48894
G1 X26.090 Y23.255 E40.51289
G1 X26.919 Y22.840 E40.53689
G1 X27.779 Y22.500 E40.56087
G1 X28.665 Y22.235 E40.58484
G1 X29.572 Y22.049 E40.60882
G1 X30.491 Y21.943 E40.63279
G1 X151.341 Y15.426 E43.76861
G1 X153.785 Y15.692 E43.83231
G1 X156.017 Y16.724 E43.89602 F1800.000
G1 X157.803 Y18.414 E43.95973
G1 X158.956 Y20.585 E44.02344
G1 X159.357 Y23.022 E44.08741
G1 X159.357 Y91.022 E45.84933
G1 X158.959 Y93.448 E45.91303
G1 X157.958 Y95.418 E45.97028
G1 X122.100 Y146.055 E47.57797
G1 X121.014 Y147.534 E47.62552
G1 X119.829 Y149.010 E47.67457
G1 X118.581 Y150.433 E47.72361
G1 X117.396 Y151.675 E47.76808
G1 X115.906 Y153.110 E47.82168
G1 X114.484 Y154.359 E47.87072
G1 X112.964 Y155.580 E47.92123
G1 X111.437 Y156.699 E47.97028
G1 X109.864 Y157.751 E48.01932
G1 X108.246 Y158.733 E48.06836
G1 X106.588 Y159.644 E48.11738
G1 X104.891 Y160.483 E48.16643
G1 X103.159 Y161.247 E48.21548
G1 X101.396 Y161.935 E48.26451
G1 X99.604 Y162.546 E48.31355
G1 X97.788 Y163.078 E48.36259
G1 X95.951 Y163.531 E48.41162
G1 X94.095 Y163.905 E48.46067
G1 X92.222 Y164.197 E48.50979
G1 X90.053 Y164.432 E48.56633
G1 X88.436 Y164.538 E48.60830
G1 X86.537 Y164.584 E48.65753
G1 X84.637 Y164.547 E48.70676
G1 X82.842 Y164.435 E48.75336
G1 X80.563 Y164.188 E48.81276
G1 X78.972 Y163.942 E48.85447
G1 X77.108 Y163.577 E48.90370
G1 X75.260 Y163.130 E48.95294
G1 X73.523 Y162.630 E48.99979
G1 X71.351 Y161.895 E49.05919
G1 X69.860 Y161.315 E49.10066
G1 X68.118 Y160.554 E49.14990
G1 X66.412 Y159.719 E49.19913
G1 X64.743 Y158.811 E49.24836
G1 X63.116 Y157.830 E49.29758
G1 X61.597 Y156.823 E49.34479
G1 X59.747 Y155.469 E49.40419
G1 X58.510 Y154.476 E49.44529
G1 X57.077 Y153.228 E49.49453
G1 X55.700 Y151.919 E49.54376
G1 X54.381 Y150.551 E49.59300
G1 X53.123 Y149.127 E49.64224
G1 X51.969 Y147.700 E49.68979
G1 X50.612 Y145.852 E49.74919
G1 X49.561 Y144.267 E49.79847
G1 X48.581 Y142.638 E49.84772
G1 X47.673 Y140.968 E49.89697
G1 X46.923 Y139.446 E49.94092
G1 X21.655 Y86.043 E51.47170
G1 X21.389 Y85.427 E51.48910
G1 X21.186 Y84.869 E51.50448
G1 X21.049 Y84.427 E51.51648
G1 X20.861 Y83.656 E51.53702
G1 X20.777 Y83.200 E51.54904
G1 X20.700 Y82.612 E51.56442
G1 X20.662 Y82.150 E51.57642
G1 X20.643 Y81.522 E51.59271
G1 X20.643 Y32.522 E52.86232
G1 X20.662 Y31.894 E52.87861
G1 X20.757 Y30.973 E52.90258
G1 X20.932 Y30.065 E52.92655
G1 X21.186 Y29.174 E52.95053
G1 X21.341 Y28.739 E52.96252
G1 X21.568 Y28.191 E52.97790
G1 X21.983 Y27.363 E53.00188
G1 X22.468 Y26.575 E53.02586
G1 X23.020 Y25.832 E53.04984
G1 X23.319 Y25.480 E53.06182
G1 X23.815 Y24.959 E53.08046
G1 X24.239 Y25.292 F7800.000
G1 X24.894 Y24.710 E53.10317 F1800.000
G1 X25.601 Y24.185 E53.12598
G1 X26.348 Y23.725 E53.14873
G1 X27.134 Y23.331 E53.17151
G1 X27.951 Y23.007 E53.19428
G1 X28.793 Y22.756 E53.21704
G1 X29.653 Y22.578 E53.23981
G1 X30.526 Y22.477 E53.26257
G1 X151.369 Y15.961 E56.39822
G1 X153.724 Y16.232 E56.45963
G1 X155.857 Y17.265 E56.52104 F1800.000
G1 X157.528 Y18.946 E56.58245
G1 X158.550 Y21.084 E56.64386
G1 X158.821 Y23.022 E56.69456
G1 X158.821 Y91.022 E58.45647
G1 X158.424 Y93.358 E58.51788
G1 X157.521 Y95.108 E58.56891
G1 X121.663 Y145.745 E60.17658
G1 X120.591 Y147.206 E60.22355
G1 X119.420 Y148.665 E60.27200
G1 X118.187 Y150.071 E60.32046
G1 X117.009 Y151.305 E60.36466
G1 X115.544 Y152.715 E60.41735
G1 X114.139 Y153.949 E60.46579
G1 X112.637 Y155.156 E60.51572
G1 X111.129 Y156.261 E60.56418
G1 X109.574 Y157.300 E60.61262
G1 X107.976 Y158.271 E60.66108
G1 X106.337 Y159.170 E60.70950
G1 X104.661 Y159.999 E60.75796
G1 X102.949 Y160.754 E60.80642
G1 X101.208 Y161.433 E60.85487
G1 X99.438 Y162.037 E60.90332
G1 X97.644 Y162.563 E60.95176
G1 X95.828 Y163.010 E61.00020
G1 X93.995 Y163.379 E61.04866
G1 X92.144 Y163.667 E61.09720
G1 X90.018 Y163.898 E61.15262
G1 X88.404 Y164.003 E61.19450
G1 X86.528 Y164.048 E61.24313
G1 X84.652 Y164.012 E61.29175
G1 X82.877 Y163.901 E61.33783
G1 X80.645 Y163.658 E61.39602
G1 X79.056 Y163.413 E61.43766
G1 X77.215 Y163.052 E61.48628
G1 X75.390 Y162.611 E61.53492
G1 X73.673 Y162.116 E61.58123
G1 X71.545 Y161.396 E61.63942
G1 X70.056 Y160.816 E61.68083
G1 X68.336 Y160.065 E61.72947
G1 X66.650 Y159.240 E61.77810
G1 X65.002 Y158.342 E61.82673
G1 X63.395 Y157.373 E61.87535
G1 X61.895 Y156.378 E61.92199
G1 X60.082 Y155.052 E61.98018
G1 X58.846 Y154.059 E62.02126
G1 X57.431 Y152.826 E62.06989
G1 X56.071 Y151.533 E62.11852
G1 X54.768 Y150.181 E62.16716
G1 X53.526 Y148.774 E62.21579
G1 X52.387 Y147.365 E62.26275
G1 X51.057 Y145.555 E62.32094
G1 X50.019 Y143.989 E62.36962
G1 X49.050 Y142.380 E62.41827
G1 X48.153 Y140.731 E62.46691
G1 X47.408 Y139.217 E62.51064
G1 X22.139 Y85.814 E64.04142
G1 X21.888 Y85.233 E64.05782
G1 X21.693 Y84.697 E64.07260
G1 X21.563 Y84.277 E64.08399
G1 X21.386 Y83.552 E64.10333
G1 X21.232 Y82.553 E64.12951
G1 X21.197 Y82.115 E64.14090
G1 X21.179 Y81.522 E64.15628
G1 X21.179 Y32.522 E65.42589
G1 X21.197 Y31.929 E65.44127
G1 X21.287 Y31.054 E65.46404
G1 X21.453 Y30.192 E65.48680
G1 X21.693 Y29.347 E65.50957
G1 X22.059 Y28.406 E65.53571
G1 X22.452 Y27.621 E65.55848
G1 X22.913 Y26.872 E65.58125
G1 X23.437 Y26.167 E65.60402
G1 X23.722 Y25.833 E65.61539
G1 X24.186 Y25.346 E65.63283
G1 X24.609 Y25.679 F7800.000
G1 X25.229 Y25.128 E65.65433 F1800.000
G1 X25.898 Y24.630 E65.67593
G1 X26.606 Y24.194 E65.69746
G1 X27.350 Y23.821 E65.71904
G1 X28.123 Y23.514 E65.74060
G1 X28.920 Y23.276 E65.76214
G1 X29.735 Y23.108 E65.78370
G1 X30.561 Y23.012 E65.80525
G1 X151.398 Y16.496 E68.94074
G1 X153.659 Y16.771 E68.99976
G1 X155.688 Y17.806 E69.05878 F1800.000
G1 X157.239 Y19.475 E69.11780
G1 X158.123 Y21.574 E69.17682
G1 X158.286 Y23.022 E69.21457
G1 X158.286 Y91.022 E70.97649
G1 X157.889 Y93.265 E71.03551
G1 X157.084 Y94.799 E71.08039
G1 X121.227 Y145.436 E72.68806
G1 X120.167 Y146.878 E72.73443
G1 X119.011 Y148.319 E72.78230
G1 X117.793 Y149.708 E72.83016
G1 X116.622 Y150.934 E72.87409
G1 X115.183 Y152.320 E72.92587
G1 X113.795 Y153.539 E72.97373
G1 X112.310 Y154.731 E73.02307
G1 X110.820 Y155.823 E73.07093
G1 X109.284 Y156.850 E73.11879
G1 X107.705 Y157.808 E73.16665
G1 X106.087 Y158.697 E73.21449
G1 X104.431 Y159.515 E73.26236
G1 X102.740 Y160.261 E73.31023
G1 X101.020 Y160.932 E73.35808
G1 X99.271 Y161.528 E73.40594
G1 X97.499 Y162.047 E73.45380
G1 X95.706 Y162.489 E73.50165
G1 X93.894 Y162.852 E73.54952
G1 X92.066 Y163.138 E73.59745
G1 X89.982 Y163.364 E73.65176
G1 X88.373 Y163.468 E73.69355
G1 X86.520 Y163.513 E73.74158
G1 X84.667 Y163.477 E73.78960
G1 X82.912 Y163.366 E73.83516
G1 X80.726 Y163.129 E73.89213
G1 X79.140 Y162.884 E73.93370
G1 X77.322 Y162.527 E73.98172
G1 X75.520 Y162.091 E74.02976
G1 X73.823 Y161.601 E74.07553
G1 X71.740 Y160.896 E74.13251
G1 X70.252 Y160.318 E74.17387
G1 X68.553 Y159.575 E74.22190
G1 X66.889 Y158.760 E74.26993
G1 X65.261 Y157.873 E74.31796
G1 X63.674 Y156.916 E74.36598
G1 X62.192 Y155.932 E74.41206
G1 X60.418 Y154.634 E74.46903
G1 X59.182 Y153.642 E74.51008
G1 X57.785 Y152.424 E74.55811
G1 X56.442 Y151.146 E74.60614
G1 X55.156 Y149.811 E74.65418
G1 X53.929 Y148.421 E74.70221
G1 X52.805 Y147.029 E74.74858
G1 X51.502 Y145.257 E74.80555
G1 X50.477 Y143.711 E74.85363
G1 X49.520 Y142.123 E74.90168
G1 X48.633 Y140.494 E74.94972
G1 X47.892 Y138.988 E74.99321
G1 X22.623 Y85.585 E76.52399
G1 X22.387 Y85.039 E76.53941
G1 X22.200 Y84.525 E76.55358
G1 X22.078 Y84.127 E76.56437
G1 X21.911 Y83.447 E76.58250
G1 X21.765 Y82.495 E76.60747
G1 X21.714 Y81.522 E76.63271
