; generated by Slic3r 1.2.9 on 2021-03-31 at 16:59:28

; external perimeters extrusion width = 0.40mm
; perimeters extrusion width = 0.67mm
; infill extrusion width = 0.67mm
; solid infill extrusion width = 0.67mm
; top infill extrusion width = 0.67mm
; support material extrusion width = 0.40mm

M190 S60 ; set bed temperature
M104 S200 ; set temperature
G28 ; home all axes
G1 Z5 F5000 ; lift nozzle

M109 S200 ; wait for temperature to be reached
G21 ; set units to millimeters
G90 ; use absolute coordinates
M82 ; use absolute distances for extrusion
G92 E0
G1 Z0.200 F1800.000
G1 E-3.00000 F2400.00000
G92 E0
G1 X45.181 Y30.189 F1800.000
G1 E3.00000 F2400.00000
G1 X45.709 Y29.410 E3.01908 F1800.000
G1 X46.676 Y28.090 E3.05224
G1 X48.146 Y26.253 E3.09990
G1 X49.465 Y24.758 E3.14031
G1 X50.602 Y23.570 E3.17361
G1 X52.293 Y21.946 E3.22112
G1 X53.796 Y20.636 E3.26153
G1 X55.083 Y19.602 E3.29499
G1 X56.966 Y18.217 E3.34234
G1 X58.735 Y17.046 E3.38533
G1 X60.334 Y16.083 E3.42316
G1 X61.790 Y15.283 E3.45682
G1 X63.998 Y14.195 E3.50670
G1 X65.703 Y13.451 E3.54438
G1 X67.257 Y12.846 E3.57819
G1 X69.452 Y12.096 E3.62520
G1 X71.509 Y11.507 E3.66854
G1 X73.306 Y11.072 E3.70602
G1 X74.952 Y10.744 E3.74003
G1 X77.235 Y10.388 E3.78683
G1 X79.218 Y10.174 E3.82724
G1 X80.900 Y10.063 E3.86140
G1 X83.324 Y10.009 E3.91054
G1 X85.302 Y10.061 E3.95063 F1800.000
G1 X87.355 Y10.206 E3.99234
G1 X89.240 Y10.419 E4.03078
G1 X90.851 Y10.667 E4.06380
G1 X92.810 Y11.047 E4.10425
G1 X95.070 Y11.596 E4.15137
G1 X96.975 Y12.155 E4.19159
G1 X98.853 Y12.797 E4.23181
G1 X100.702 Y13.519 E4.27204
G1 X102.518 Y14.322 E4.31227
G1 X104.464 Y15.291 E4.35632
G1 X106.037 Y16.158 E4.39272
G1 X107.518 Y17.055 E4.42779
G1 X109.183 Y18.155 E4.46823
G1 X110.984 Y19.467 E4.51339
G1 X112.532 Y20.709 E4.55361
G1 X114.053 Y22.043 E4.59460
G1 X115.488 Y23.417 E4.63484
G1 X116.860 Y24.851 E4.67507
G1 X118.169 Y26.342 E4.71528
G1 X119.412 Y27.890 E4.75550
G1 X120.675 Y29.616 E4.79884
G1 X159.808 Y86.699 E6.20122
G1 X161.041 Y89.200 E6.25773
G1 X161.520 Y92.223 E6.31975
G1 X161.520 Y160.223 E7.69764
G1 X161.122 Y162.983 E7.75415
G1 X159.961 Y165.518 E7.81065
G1 X158.130 Y167.622 E7.86715
G1 X155.780 Y169.123 E7.92366
G1 X153.102 Y169.899 E7.98016
G1 X151.224 Y169.979 E8.01825
G1 X30.350 Y163.460 E10.47111
G1 X29.242 Y163.333 E10.49369
G1 X28.281 Y163.142 E10.51355
G1 X27.740 Y163.000 E10.52489
G1 X27.207 Y162.835 E10.53618
G1 X26.561 Y162.600 E10.55012
G1 X26.047 Y162.384 E10.56141
G1 X25.169 Y161.951 E10.58125
G1 X24.207 Y161.374 E10.60397
G1 X23.650 Y160.984 E10.61777
G1 X23.206 Y160.640 E10.62915
G1 X22.467 Y159.992 E10.64905
G1 X22.071 Y159.600 E10.66035
G1 X21.606 Y159.093 E10.67429
G1 X21.250 Y158.664 E10.68559
G1 X20.596 Y157.763 E10.70815
G1 X20.024 Y156.807 E10.73072
G1 X19.588 Y155.925 E10.75065
G1 X19.180 Y154.890 E10.77320
G1 X18.973 Y154.233 E10.78716
G1 X18.713 Y153.150 E10.80973
G1 X18.550 Y152.048 E10.83230
G1 X18.485 Y151.067 E10.85223
G1 X18.480 Y101.723 E11.85209
G1 X18.504 Y100.953 E11.86770
G1 X18.550 Y100.398 E11.87899
G1 X18.713 Y99.296 E11.90157
G1 X18.972 Y98.215 E11.92409
G1 X19.252 Y97.351 E11.94248
G1 X40.165 Y39.976 E13.17991
G1 X40.931 Y38.034 E13.22220
G1 X41.704 Y36.297 E13.26074
G1 X42.422 Y34.838 E13.29369
G1 X43.556 Y32.766 E13.34155
G1 X44.402 Y31.371 E13.37461
G1 X45.147 Y30.239 E13.40207
G1 X45.670 Y30.588 F1800.000
G1 X46.218 Y29.778 E13.42190 F1800.000
G1 X47.183 Y28.461 E13.45497
G1 X48.621 Y26.664 E13.50161
G1 X49.922 Y25.189 E13.54147
G1 X51.055 Y24.005 E13.57468
G1 X52.711 Y22.416 E13.62118
G1 X54.193 Y21.123 E13.66103
G1 X55.476 Y20.092 E13.69439
G1 X57.319 Y18.736 E13.74075
G1 X59.061 Y17.584 E13.78306
G1 X60.641 Y16.631 E13.82045
G1 X62.092 Y15.834 E13.85400
G1 X64.251 Y14.770 E13.90277
G1 X65.936 Y14.035 E13.94002
G1 X67.485 Y13.431 E13.97371
G1 X69.635 Y12.697 E14.01973
G1 X71.658 Y12.117 E14.06238
G1 X73.436 Y11.687 E14.09945
G1 X75.075 Y11.360 E14.13332
G1 X77.310 Y11.011 E14.17916
G1 X79.266 Y10.801 E14.21902
G1 X80.941 Y10.690 E14.25303
G1 X83.311 Y10.638 E14.30107
G1 X85.262 Y10.688 E14.34062 F1800.000
G1 X87.287 Y10.831 E14.38174
G1 X89.148 Y11.041 E14.41971
G1 X90.755 Y11.288 E14.45265
G1 X92.688 Y11.663 E14.49254
G1 X94.900 Y12.201 E14.53868
G1 X96.779 Y12.752 E14.57836
G1 X98.632 Y13.385 E14.61804
G1 X100.457 Y14.098 E14.65772
G1 X102.248 Y14.889 E14.69741
G1 X104.162 Y15.842 E14.74072
G1 X105.720 Y16.701 E14.77678
G1 X107.192 Y17.592 E14.81164
G1 X108.834 Y18.677 E14.85153
G1 X110.601 Y19.965 E14.89582
G1 X112.128 Y21.190 E14.93550
G1 X113.629 Y22.507 E14.97596
G1 X115.192 Y24.013 E15.01993
G1 X116.398 Y25.277 E15.05534
G1 X117.689 Y26.748 E15.09501
G1 X118.916 Y28.275 E15.13469
G1 X120.157 Y29.971 E15.17728
G1 X159.290 Y87.054 E16.57967
G1 X160.470 Y89.479 E16.63432
G1 X160.892 Y92.223 E16.69057
G1 X160.892 Y160.223 E18.06847
G1 X160.494 Y162.890 E18.12311
G1 X159.335 Y165.325 E18.17776
G1 X157.516 Y167.317 E18.23241
G1 X155.195 Y168.690 E18.28706
G1 X151.258 Y169.351 E18.36796
G1 X30.391 Y162.833 E20.82067
G1 X29.338 Y162.712 E20.84214
G1 X28.430 Y162.532 E20.86089
G1 X27.916 Y162.397 E20.87167
G1 X27.409 Y162.240 E20.88241
G1 X26.789 Y162.014 E20.89580
G1 X26.301 Y161.809 E20.90653
G1 X25.471 Y161.400 E20.92526
G1 X24.556 Y160.852 E20.94687
G1 X24.021 Y160.477 E20.96011
G1 X23.599 Y160.150 E20.97094
G1 X22.902 Y159.538 E20.98973
G1 X22.525 Y159.166 E21.00047
G1 X22.079 Y158.679 E21.01385
G1 X21.740 Y158.270 E21.02460
G1 X21.119 Y157.413 E21.04605
G1 X20.574 Y156.505 E21.06751
G1 X20.164 Y155.672 E21.08633
G1 X19.775 Y154.688 E21.10777
G1 X19.576 Y154.057 E21.12118
G1 X19.330 Y153.027 E21.14263
G1 X19.174 Y151.980 E21.16409
G1 X19.113 Y151.053 E21.18291
G1 X19.108 Y101.723 E22.18249
G1 X19.131 Y100.994 E22.19727
G1 X19.174 Y100.466 E22.20800
G1 X19.330 Y99.418 E22.22947
G1 X19.575 Y98.390 E22.25088
G1 X19.842 Y97.566 E22.26843
G1 X40.752 Y40.200 E23.50566
G1 X41.506 Y38.287 E23.54733
G1 X42.269 Y36.571 E23.58538
G1 X42.986 Y35.116 E23.61826
G1 X44.095 Y33.088 E23.66509
G1 X44.939 Y31.697 E23.69807
G1 X45.636 Y30.638 E23.72376
G1 X46.159 Y30.987 F1800.000
G1 X46.727 Y30.146 E23.74433 F1800.000
G1 X47.690 Y28.833 E23.77732
G1 X49.097 Y27.075 E23.82294
G1 X50.380 Y25.620 E23.86225
G1 X51.509 Y24.439 E23.89536
G1 X53.129 Y22.885 E23.94085
G1 X54.590 Y21.609 E23.98015
G1 X55.870 Y20.582 E24.01340
G1 X57.673 Y19.255 E24.05876
G1 X59.387 Y18.121 E24.10041
G1 X60.949 Y17.179 E24.13737
G1 X62.394 Y16.385 E24.17079
G1 X64.504 Y15.345 E24.21845
G1 X66.170 Y14.618 E24.25528
G1 X67.713 Y14.017 E24.28883
G1 X69.817 Y13.299 E24.33388
G1 X71.807 Y12.727 E24.37584
G1 X73.565 Y12.302 E24.41250
G1 X75.198 Y11.976 E24.44622
G1 X77.386 Y11.635 E24.49110
G1 X79.315 Y11.427 E24.53041
G1 X80.982 Y11.317 E24.56427
G1 X83.298 Y11.266 E24.61121
G1 X85.223 Y11.315 E24.65023 F1800.000
G1 X87.218 Y11.455 E24.69076
G1 X89.057 Y11.662 E24.72825
G1 X90.660 Y11.909 E24.76111
G1 X92.565 Y12.279 E24.80045
G1 X94.731 Y12.805 E24.84560
G1 X96.584 Y13.350 E24.88474
G1 X98.412 Y13.973 E24.92388
G1 X100.211 Y14.676 E24.96302
G1 X101.979 Y15.457 E25.00217
G1 X103.859 Y16.393 E25.04474
G1 X105.403 Y17.243 E25.08045
G1 X106.866 Y18.129 E25.11510
G1 X108.485 Y19.200 E25.15444
G1 X110.217 Y20.462 E25.19787
G1 X111.724 Y21.671 E25.23701
G1 X113.205 Y22.970 E25.27693
G1 X114.738 Y24.447 E25.32007
G1 X115.936 Y25.702 E25.35522
G1 X117.209 Y27.154 E25.39435
G1 X118.419 Y28.660 E25.43349
G1 X119.639 Y30.326 E25.47534
G1 X158.772 Y87.409 E26.87773
G1 X159.898 Y89.755 E26.93046
G1 X160.263 Y92.223 E26.98101
G1 X160.263 Y160.223 E28.35890
G1 X159.866 Y162.794 E28.41163
G1 X158.710 Y165.126 E28.46436
G1 X156.904 Y166.999 E28.51708
G1 X154.616 Y168.239 E28.56981
G1 X151.292 Y168.724 E28.63789
G1 X30.432 Y162.206 E31.09045
G1 X29.433 Y162.091 E31.11081
G1 X28.579 Y161.922 E31.12846
G1 X28.091 Y161.794 E31.13868
G1 X27.611 Y161.645 E31.14886
G1 X27.016 Y161.429 E31.16169
G1 X26.554 Y161.234 E31.17187
G1 X25.773 Y160.849 E31.18950
G1 X24.906 Y160.330 E31.20999
G1 X24.389 Y159.968 E31.22277
G1 X23.992 Y159.660 E31.23295
G1 X23.336 Y159.085 E31.25063
G1 X22.979 Y158.731 E31.26081
G1 X22.551 Y158.264 E31.27364
G1 X22.230 Y157.877 E31.28383
G1 X21.641 Y157.064 E31.30417
G1 X21.125 Y156.203 E31.32452
G1 X20.739 Y155.419 E31.34223
G1 X20.370 Y154.486 E31.36256
G1 X20.179 Y153.881 E31.37541
G1 X19.946 Y152.905 E31.39575
G1 X19.799 Y151.911 E31.41610
G1 X19.742 Y151.039 E31.43381
G1 X19.737 Y101.723 E32.43312
G1 X19.758 Y101.035 E32.44706
G1 X19.799 Y100.534 E32.45724
G1 X19.946 Y99.541 E32.47759
G1 X20.178 Y98.566 E32.49790
G1 X20.432 Y97.781 E32.51461
G1 X41.339 Y40.425 E33.75163
G1 X42.081 Y38.540 E33.79268
G1 X42.834 Y36.846 E33.83025
G1 X43.550 Y35.394 E33.86305
G1 X44.635 Y33.411 E33.90885
G1 X45.476 Y32.023 E33.94175
G1 X46.125 Y31.037 E33.96567
G1 X46.648 Y31.386 F1800.000
G1 X47.237 Y30.514 E33.98699 F1800.000
G1 X48.196 Y29.204 E34.01989
G1 X49.572 Y27.486 E34.06449
G1 X50.837 Y26.051 E34.10325
G1 X51.963 Y24.874 E34.13626
G1 X53.547 Y23.354 E34.18075
G1 X54.988 Y22.096 E34.21950
G1 X56.263 Y21.072 E34.25264
G1 X58.027 Y19.775 E34.29700
G1 X59.713 Y18.658 E34.33799
G1 X61.256 Y17.727 E34.37450
G1 X62.697 Y16.936 E34.40781
G1 X64.757 Y15.921 E34.45436
G1 X66.403 Y15.201 E34.49076
G1 X67.941 Y14.603 E34.52418
G1 X69.999 Y13.900 E34.56826
G1 X71.957 Y13.338 E34.60953
G1 X73.695 Y12.917 E34.64576
G1 X75.320 Y12.592 E34.67935
G1 X77.461 Y12.259 E34.72326
G1 X79.363 Y12.054 E34.76202
G1 X81.023 Y11.944 E34.79573
G1 X83.285 Y11.894 E34.84157
G1 X85.183 Y11.942 E34.88006 F1800.000
G1 X87.150 Y12.080 E34.92000
G1 X88.965 Y12.284 E34.95701
G1 X90.564 Y12.530 E34.98980
G1 X92.443 Y12.895 E35.02858
G1 X94.561 Y13.410 E35.07275
G1 X96.388 Y13.947 E35.11134
G1 X98.191 Y14.562 E35.14994
G1 X99.966 Y15.255 E35.18854
G1 X101.709 Y16.024 E35.22715
G1 X103.557 Y16.944 E35.26898
G1 X105.086 Y17.786 E35.30435
G1 X106.540 Y18.666 E35.33879
G1 X108.136 Y19.722 E35.37757
G1 X109.834 Y20.960 E35.42015
G1 X111.319 Y22.152 E35.45874
G1 X112.780 Y23.433 E35.49812
G1 X114.284 Y24.882 E35.54042
G1 X115.474 Y26.128 E35.57533
G1 X116.730 Y27.559 E35.61392
G1 X117.922 Y29.044 E35.65252
G1 X119.121 Y30.681 E35.69362
G1 X158.253 Y87.764 E37.09601
G1 X159.323 Y90.028 E37.14674
G1 X159.635 Y92.223 E37.19167
G1 X159.635 Y160.223 E38.56956
G1 X159.237 Y162.695 E38.62029
G1 X158.085 Y164.917 E38.67102
G1 X156.294 Y166.667 E38.72175
G1 X154.045 Y167.766 E38.77248
G1 X151.326 Y168.096 E38.82799
G1 X30.473 Y161.579 E41.28041
G1 X29.529 Y161.470 E41.29966
G1 X28.729 Y161.311 E41.31620
G1 X28.267 Y161.191 E41.32586
G1 X27.813 Y161.050 E41.33549
G1 X27.244 Y160.843 E41.34776
G1 X26.807 Y160.659 E41.35738
G1 X26.075 Y160.298 E41.37391
G1 X25.257 Y159.809 E41.39324
G1 X24.764 Y159.464 E41.40542
G1 X24.386 Y159.170 E41.41513
G1 X23.771 Y158.631 E41.43170
G1 X23.433 Y158.297 E41.44133
G1 X22.803 Y157.587 E41.46056
G1 X22.237 Y156.826 E41.47977
G1 X21.740 Y156.016 E41.49902
G1 X21.459 Y155.478 E41.51133
G1 X21.082 Y154.607 E41.53056
G1 X20.782 Y153.705 E41.54981
G1 X20.562 Y152.782 E41.56904
G1 X20.423 Y151.843 E41.58828
G1 X20.370 Y151.026 E41.60488
G1 X20.365 Y101.723 E42.60391
G1 X20.385 Y101.076 E42.61702
G1 X20.423 Y100.603 E42.62664
G1 X20.562 Y99.663 E42.64588
G1 X20.782 Y98.742 E42.66508
G1 X21.023 Y97.997 E42.68095
G1 X41.925 Y40.650 E43.91777
G1 X42.657 Y38.794 E43.95819
G1 X43.399 Y37.121 E43.99528
G1 X44.113 Y35.671 E44.02801
G1 X45.174 Y33.733 E44.07278
G1 X46.014 Y32.349 E44.10560
G1 X46.614 Y31.435 E44.12775
G1 X47.137 Y31.785 F1800.000
G1 X47.746 Y30.882 E44.14981 F1800.000
G1 X48.703 Y29.576 E44.18263
G1 X50.048 Y27.897 E44.22621
G1 X51.294 Y26.482 E44.26441
G1 X52.417 Y25.308 E44.29734
G1 X53.965 Y23.823 E44.34081
G1 X55.385 Y22.583 E44.37901
G1 X56.656 Y21.562 E44.41205
G1 X58.380 Y20.294 E44.45541
G1 X60.039 Y19.195 E44.49573
G1 X61.563 Y18.275 E44.53180
G1 X62.999 Y17.487 E44.56499
G1 X65.011 Y16.496 E44.61043
G1 X66.637 Y15.784 E44.64640
G1 X68.168 Y15.188 E44.67970
G1 X70.181 Y14.501 E44.72280
G1 X72.106 Y13.948 E44.76338
G1 X73.824 Y13.532 E44.79920
G1 X75.443 Y13.209 E44.83265
G1 X77.537 Y12.883 E44.87560
G1 X79.412 Y12.680 E44.91380
G1 X81.064 Y12.571 E44.94736
G1 X83.271 Y12.522 E44.99210
G1 X85.144 Y12.569 E45.03005 F1800.000
G1 X87.082 Y12.704 E45.06941
G1 X88.873 Y12.906 E45.10595
G1 X90.469 Y13.151 E45.13865
G1 X92.320 Y13.512 E45.17687
G1 X94.391 Y14.015 E45.22006
G1 X96.193 Y14.544 E45.25811
G1 X97.971 Y15.150 E45.29617
G1 X99.720 Y15.833 E45.33423
G1 X101.439 Y16.591 E45.37230
G1 X103.255 Y17.494 E45.41339
G1 X104.769 Y18.328 E45.44842
G1 X106.214 Y19.203 E45.48264
G1 X107.787 Y20.245 E45.52087
G1 X109.450 Y21.458 E45.56259
G1 X110.915 Y22.633 E45.60064
G1 X112.356 Y23.897 E45.63947
G1 X113.713 Y25.196 E45.67754
G1 X115.011 Y26.553 E45.71561
G1 X116.250 Y27.965 E45.75365
G1 X117.426 Y29.429 E45.79171
G1 X118.537 Y30.943 E45.82978
G1 X157.735 Y88.120 E47.23447
G1 X158.747 Y90.297 E47.28312
G1 X159.007 Y92.223 E47.32249
G1 X159.007 Y160.223 E48.70039
G1 X158.609 Y162.591 E48.74904
G1 X157.461 Y164.700 E48.79769
G1 X155.688 Y166.318 E48.84635
G1 X153.483 Y167.270 E48.89500
G1 X151.359 Y167.469 E48.93822
G1 X30.514 Y160.953 E51.39049
G1 X29.625 Y160.849 E51.40863
G1 X28.878 Y160.701 E51.42406
G1 X28.443 Y160.587 E51.43317
G1 X28.015 Y160.456 E51.44224
G1 X27.472 Y160.258 E51.45396
G1 X27.060 Y160.084 E51.46302
G1 X26.377 Y159.747 E51.47844
G1 X25.606 Y159.286 E51.49666
G1 X25.136 Y158.957 E51.50828
G1 X24.779 Y158.680 E51.51743
G1 X24.205 Y158.177 E51.53289
G1 X23.887 Y157.862 E51.54197
G1 X23.293 Y157.193 E51.56009
G1 X22.760 Y156.476 E51.57819
G1 X22.290 Y155.714 E51.59633
G1 X22.023 Y155.200 E51.60808
G1 X21.668 Y154.379 E51.62620
G1 X21.385 Y153.530 E51.64434
G1 X21.178 Y152.660 E51.66246
G1 X21.048 Y151.774 E51.68059
G1 X20.998 Y151.012 E51.69608
G1 X20.993 Y101.723 E52.69483
G1 X21.012 Y101.117 E52.70710
G1 X21.048 Y100.671 E52.71617
G1 X21.178 Y99.786 E52.73431
G1 X21.385 Y98.917 E52.75240
G1 X21.613 Y98.212 E52.76742
G1 X42.512 Y40.874 E54.00404
G1 X43.232 Y39.047 E54.04384
G1 X43.964 Y37.395 E54.08044
G1 X44.677 Y35.949 E54.11310
G1 X45.713 Y34.056 E54.15684
G1 X46.551 Y32.675 E54.18958
G1 X47.104 Y31.834 E54.20996
G1 X47.626 Y32.184 F1800.000
G1 X48.255 Y31.250 E54.23277 F1800.000
G1 X49.210 Y29.947 E54.26550
G1 X50.523 Y28.308 E54.30806
G1 X51.751 Y26.913 E54.34571
G1 X52.871 Y25.743 E54.37854
G1 X54.383 Y24.292 E54.42100
G1 X55.782 Y23.069 E54.45865
G1 X57.049 Y22.052 E54.49158
G1 X58.734 Y20.813 E54.53394
G1 X60.365 Y19.732 E54.57359
G1 X61.871 Y18.823 E54.60924
G1 X63.301 Y18.037 E54.64231
G1 X65.264 Y17.071 E54.68664
G1 X66.871 Y16.368 E54.72218
G1 X68.396 Y15.774 E54.75535
G1 X70.363 Y15.103 E54.79747
G1 X72.255 Y14.558 E54.83736
G1 X73.953 Y14.146 E54.87277
G1 X75.565 Y13.825 E54.90607
G1 X77.613 Y13.506 E54.94806
G1 X79.460 Y13.307 E54.98571
G1 X81.105 Y13.198 E55.01912
G1 X83.258 Y13.150 E55.06276
G1 X85.104 Y13.196 E55.10018 F1800.000
G1 X87.013 Y13.329 E55.13895
G1 X88.782 Y13.527 E55.17501
G1 X90.373 Y13.772 E55.20764
G1 X92.197 Y14.128 E55.24530
G1 X94.221 Y14.620 E55.28750
G1 X95.998 Y15.141 E55.32502
G1 X97.750 Y15.738 E55.36253
G1 X99.475 Y16.411 E55.40005
G1 X101.169 Y17.159 E55.43757
G1 X102.953 Y18.045 E55.47793
G1 X104.452 Y18.871 E55.51261
G1 X105.888 Y19.740 E55.54663
G1 X107.437 Y20.767 E55.58429
G1 X109.067 Y21.955 E55.62516
G1 X110.511 Y23.114 E55.66267
G1 X111.932 Y24.360 E55.70096
G1 X113.269 Y25.641 E55.73849
G1 X114.549 Y26.979 E55.77601
G1 X115.770 Y28.370 E55.81352
G1 X116.929 Y29.814 E55.85103
G1 X118.025 Y31.307 E55.88856
G1 X157.217 Y88.475 E57.29305
G1 X158.167 Y90.563 E57.33953
G1 X158.378 Y92.223 E57.37344
G1 X158.378 Y160.223 E58.75133
G1 X157.981 Y162.482 E58.79782
G1 X156.838 Y164.471 E58.84430
G1 X155.085 Y165.951 E58.89079
G1 X152.933 Y166.745 E58.93727
G1 X151.393 Y166.842 E58.96853
G1 X30.555 Y160.326 E61.42065
G1 X29.720 Y160.228 E61.43768
G1 X29.027 Y160.091 E61.45200
G1 X28.619 Y159.984 E61.46055
G1 X27.699 Y159.672 E61.48022
G1 X27.313 Y159.509 E61.48873
G1 X26.679 Y159.196 E61.50305
