; generated by Slic3r 1.2.9 on 2021-03-31 at 13:42:46

; external perimeters extrusion width = 0.30mm
; perimeters extrusion width = 0.40mm
; infill extrusion width = 0.40mm
; solid infill extrusion width = 0.40mm
; top infill extrusion width = 0.40mm
; support material extrusion width = 0.30mm

M190 S60 ; set bed temperature
M104 S180 ; set temperature
G28 ; home all axes
G1 Z5 F5000 ; lift nozzle

M109 S180 ; wait for temperature to be reached
G21 ; set units to millimeters
G90 ; use absolute coordinates
M82 ; use absolute distances for extrusion
G92 E0
G1 Z0.300 F1800.000
G1 E-2.00000 F2400.00000
G92 E0
G1 X36.256 Y66.260 F1800.000
G1 E2.00000 F2400.00000
G1 X36.663 Y66.051 E2.01432 F1800.000
G1 X37.382 Y65.735 E2.03887
G1 X37.812 Y65.575 E2.05321
G1 X38.374 Y65.398 E2.07161
G1 X38.817 Y65.282 E2.08594
G1 X39.588 Y65.129 E2.11049
G1 X40.172 Y65.052 E2.12891
G1 X40.715 Y65.010 E2.14595
G1 X161.346 Y58.507 E5.92218
G1 X163.773 Y58.774 E5.99852
G1 X165.986 Y59.807 E6.07485 F1800.000
G1 X167.751 Y61.495 E6.15118
G1 X168.880 Y63.660 E6.22751
G1 X169.254 Y66.000 E6.30158
G1 X169.254 Y134.000 E8.42717
G1 X168.856 Y136.409 E8.50350
G1 X167.706 Y138.564 E8.57983
G1 X165.926 Y140.235 E8.65616
G1 X163.703 Y141.245 E8.73249
G1 X161.346 Y141.493 E8.80656
G1 X40.631 Y134.985 E12.58542
G1 X40.041 Y134.933 E12.60393
G1 X39.267 Y134.814 E12.62841
G1 X38.817 Y134.718 E12.64281
G1 X38.248 Y134.565 E12.66122
G1 X37.504 Y134.313 E12.68578
G1 X36.960 Y134.087 E12.70419
G1 X36.545 Y133.890 E12.71855
G1 X35.857 Y133.513 E12.74306
G1 X35.360 Y133.197 E12.76149
G1 X34.986 Y132.931 E12.77585
G1 X34.374 Y132.440 E12.80036
G1 X33.940 Y132.042 E12.81877
G1 X33.618 Y131.715 E12.83311
G1 X33.100 Y131.125 E12.85765
G1 X32.819 Y130.763 E12.87198
G1 X32.481 Y130.281 E12.89040
G1 X32.237 Y129.892 E12.90474
G1 X31.859 Y129.204 E12.92927
G1 X31.610 Y128.670 E12.94769
G1 X31.326 Y127.938 E12.97223
G1 X31.148 Y127.376 E12.99066
G1 X30.962 Y126.614 E13.01517
G1 X30.879 Y126.163 E13.02952
G1 X30.802 Y125.578 E13.04794
G1 X30.765 Y125.122 E13.06227
G1 X30.746 Y124.500 E13.08171
G1 X30.746 Y75.500 E14.61339
G1 X30.774 Y74.748 E14.63691
G1 X30.859 Y73.967 E14.66147
G1 X30.962 Y73.387 E14.67989
G1 X31.148 Y72.624 E14.70443
G1 X31.326 Y72.062 E14.72286
G1 X31.610 Y71.331 E14.74738
G1 X31.859 Y70.796 E14.76582
G1 X32.237 Y70.108 E14.79035
G1 X32.554 Y69.610 E14.80879
G1 X33.018 Y68.977 E14.83334
G1 X33.397 Y68.526 E14.85176
G1 X33.940 Y67.958 E14.87631
G1 X34.374 Y67.560 E14.89473
G1 X34.987 Y67.069 E14.91927
G1 X35.469 Y66.731 E14.93769
G1 X36.216 Y66.282 E14.96493
G1 X36.337 Y66.502 F1800.000
G1 X36.774 Y66.276 E14.98032 F1800.000
G1 X37.473 Y65.969 E15.00418
G1 X37.893 Y65.813 E15.01818
G1 X38.444 Y65.639 E15.03624
G1 X38.877 Y65.526 E15.05022
G1 X39.626 Y65.377 E15.07410
G1 X40.199 Y65.301 E15.09217
G1 X40.729 Y65.260 E15.10878
G1 X161.360 Y58.757 E18.88501
G1 X163.745 Y59.027 E18.96005
G1 X165.912 Y60.060 E19.03509 F1800.000
G1 X167.623 Y61.743 E19.11012
G1 X168.690 Y63.893 E19.18516
G1 X169.003 Y66.000 E19.25173
G1 X169.003 Y134.000 E21.37731
G1 X168.606 Y136.367 E21.45235
G1 X167.458 Y138.476 E21.52739
G1 X165.684 Y140.093 E21.60243
G1 X163.480 Y141.044 E21.67746
G1 X161.360 Y141.243 E21.74403
G1 X40.648 Y134.735 E25.52280
G1 X40.069 Y134.684 E25.54097
G1 X39.316 Y134.569 E25.56476
G1 X38.877 Y134.474 E25.57882
G1 X38.318 Y134.324 E25.59689
G1 X37.595 Y134.079 E25.62076
G1 X37.061 Y133.858 E25.63883
G1 X36.656 Y133.666 E25.65284
G1 X35.987 Y133.299 E25.67668
G1 X35.500 Y132.988 E25.69476
G1 X35.134 Y132.728 E25.70878
G1 X34.539 Y132.251 E25.73260
G1 X34.113 Y131.861 E25.75068
G1 X33.585 Y131.309 E25.77456
G1 X33.217 Y130.870 E25.79247
G1 X32.943 Y130.510 E25.80661
G1 X32.519 Y129.875 E25.83048
G1 X32.230 Y129.374 E25.84855
G1 X32.026 Y128.976 E25.86254
G1 X31.718 Y128.277 E25.88640
G1 X31.521 Y127.734 E25.90448
G1 X31.307 Y127.001 E25.92834
G1 X31.207 Y126.561 E25.94245
G1 X31.107 Y125.995 E25.96040
G1 X31.024 Y125.237 E25.98423
G1 X30.997 Y124.500 E26.00729
G1 X30.997 Y75.500 E27.53896
G1 X31.024 Y74.764 E27.56198
G1 X31.107 Y74.005 E27.58585
G1 X31.207 Y73.435 E27.60393
G1 X31.389 Y72.694 E27.62779
G1 X31.563 Y72.142 E27.64588
G1 X31.839 Y71.431 E27.66972
G1 X32.084 Y70.907 E27.68781
G1 X32.451 Y70.238 E27.71166
G1 X32.762 Y69.749 E27.72976
G1 X33.213 Y69.134 E27.75362
G1 X33.585 Y68.691 E27.77170
G1 X34.113 Y68.139 E27.79557
G1 X34.539 Y67.749 E27.81365
G1 X35.135 Y67.271 E27.83750
G1 X35.608 Y66.939 E27.85558
G1 X36.297 Y66.523 E27.88073
G1 X36.418 Y66.743 F1800.000
G1 X36.885 Y66.501 E27.89718 F1800.000
G1 X37.564 Y66.202 E27.92036
G1 X38.514 Y65.880 E27.95173
G1 X38.936 Y65.769 E27.96537
G1 X39.664 Y65.625 E27.98856
G1 X40.226 Y65.551 E28.00629
G1 X40.742 Y65.511 E28.02247
G1 X161.373 Y59.008 E31.79870
G1 X163.716 Y59.279 E31.87242
G1 X165.836 Y60.313 E31.94614 F1800.000
G1 X167.492 Y61.992 E32.01986
G1 X168.497 Y64.125 E32.09358
G1 X168.752 Y66.000 E32.15272
G1 X168.752 Y134.000 E34.27831
G1 X168.355 Y136.325 E34.35203
G1 X167.209 Y138.386 E34.42575
G1 X165.443 Y139.949 E34.49947
G1 X163.259 Y140.838 E34.57319
G1 X161.373 Y140.992 E34.63233
G1 X40.664 Y134.485 E38.41102
G1 X40.096 Y134.435 E38.42884
G1 X39.365 Y134.323 E38.45195
G1 X38.388 Y134.084 E38.48338
G1 X37.686 Y133.845 E38.50657
G1 X37.162 Y133.628 E38.52430
G1 X36.767 Y133.441 E38.53797
G1 X36.117 Y133.085 E38.56112
G1 X35.282 Y132.526 E38.59253
G1 X34.705 Y132.063 E38.61567
G1 X34.287 Y131.680 E38.63340
G1 X33.773 Y131.144 E38.65660
G1 X33.412 Y130.713 E38.67417
G1 X33.145 Y130.361 E38.68797
G1 X32.733 Y129.745 E38.71116
G1 X32.251 Y128.865 E38.74252
G1 X31.952 Y128.186 E38.76570
G1 X31.758 Y127.653 E38.78343
G1 X31.551 Y126.941 E38.80661
G1 X31.452 Y126.511 E38.82041
G1 X31.355 Y125.957 E38.83799
G1 X31.274 Y125.221 E38.86113
G1 X31.248 Y124.500 E38.88368
G1 X31.248 Y75.500 E40.41536
G1 X31.274 Y74.781 E40.43786
G1 X31.355 Y74.043 E40.46105
G1 X31.453 Y73.484 E40.47879
G1 X31.629 Y72.764 E40.50196
G1 X31.800 Y72.223 E40.51971
G1 X32.069 Y71.532 E40.54286
G1 X32.309 Y71.018 E40.56062
G1 X32.665 Y70.368 E40.58378
G1 X32.970 Y69.889 E40.60154
G1 X33.409 Y69.291 E40.62472
G1 X33.773 Y68.856 E40.64245
G1 X34.286 Y68.320 E40.66564
G1 X34.705 Y67.937 E40.68337
G1 X35.283 Y67.473 E40.70655
G1 X35.748 Y67.148 E40.72428
G1 X36.378 Y66.765 E40.74735
G1 X36.502 Y66.983 F1800.000
G1 X37.383 Y66.548 E40.77807 F1800.000
G1 X38.054 Y66.287 E40.80056
G1 X38.584 Y66.120 E40.81794
G1 X38.996 Y66.013 E40.83124
G1 X39.702 Y65.872 E40.85375
G1 X40.254 Y65.800 E40.87114
G1 X40.756 Y65.761 E40.88688
G1 X161.387 Y59.258 E44.66311
G1 X163.686 Y59.532 E44.73549
G1 X165.757 Y60.566 E44.80787 F1800.000
G1 X167.358 Y62.239 E44.88025
G1 X168.298 Y64.355 E44.95263
G1 X168.502 Y66.000 E45.00443
G1 X168.502 Y134.000 E47.13002
G1 X168.105 Y136.281 E47.20240
G1 X166.960 Y138.294 E47.27478
G1 X165.203 Y139.802 E47.34716
G1 X163.040 Y140.628 E47.41954
G1 X161.387 Y140.742 E47.47134
G1 X40.680 Y134.235 E51.24994
G1 X40.123 Y134.186 E51.26741
G1 X39.414 Y134.077 E51.28985
G1 X38.459 Y133.843 E51.32059
G1 X37.777 Y133.612 E51.34310
G1 X37.263 Y133.399 E51.36048
G1 X36.878 Y133.216 E51.37381
G1 X36.247 Y132.870 E51.39628
G1 X35.430 Y132.324 E51.42701
G1 X34.870 Y131.875 E51.44946
G1 X34.460 Y131.499 E51.46685
G1 X33.962 Y130.979 E51.48936
G1 X33.607 Y130.556 E51.50659
G1 X33.348 Y130.213 E51.52005
G1 X32.948 Y129.615 E51.54256
G1 X32.475 Y128.754 E51.57323
G1 X32.186 Y128.095 E51.59573
G1 X31.995 Y127.572 E51.61312
G1 X31.794 Y126.882 E51.63562
G1 X31.698 Y126.463 E51.64905
G1 X31.602 Y125.919 E51.66631
G1 X31.524 Y125.204 E51.68878
G1 X31.498 Y124.500 E51.71081
G1 X31.498 Y75.500 E53.24248
G1 X31.524 Y74.797 E53.26448
G1 X31.602 Y74.081 E53.28698
G1 X31.699 Y73.533 E53.30438
G1 X31.870 Y72.834 E53.32686
G1 X32.037 Y72.303 E53.34427
G1 X32.298 Y71.633 E53.36674
G1 X32.533 Y71.128 E53.38416
G1 X32.879 Y70.498 E53.40664
G1 X33.179 Y70.028 E53.42405
G1 X33.604 Y69.448 E53.44655
G1 X33.962 Y69.021 E53.46394
G1 X34.460 Y68.501 E53.48645
G1 X34.870 Y68.125 E53.50384
G1 X35.431 Y67.675 E53.52633
G1 X35.887 Y67.356 E53.54372
G1 X36.463 Y67.005 E53.56479
G1 X36.588 Y67.222 F1800.000
G1 X36.989 Y67.008 E53.57901 F1800.000
G1 X37.484 Y66.777 E53.59608
G1 X38.134 Y66.525 E53.61789
G1 X38.654 Y66.361 E53.63493
G1 X39.055 Y66.256 E53.64788
G1 X39.740 Y66.120 E53.66971
G1 X40.281 Y66.049 E53.68675
G1 X40.769 Y66.011 E53.70207
G1 X161.400 Y59.508 E57.47830
G1 X163.655 Y59.784 E57.54931
G1 X165.677 Y60.819 E57.62032 F1800.000
G1 X167.220 Y62.487 E57.69134
G1 X168.095 Y64.583 E57.76235
G1 X168.251 Y66.000 E57.80690
G1 X168.251 Y134.000 E59.93249
G1 X167.854 Y136.237 E60.00350
G1 X166.712 Y138.201 E60.07452
G1 X164.964 Y139.651 E60.14553
G1 X162.823 Y140.412 E60.21654
G1 X161.400 Y140.492 E60.26110
G1 X40.697 Y133.985 E64.03960
G1 X40.151 Y133.937 E64.05674
G1 X39.463 Y133.831 E64.07849
G1 X38.529 Y133.603 E64.10855
G1 X37.868 Y133.378 E64.13037
G1 X37.364 Y133.170 E64.14741
G1 X36.989 Y132.991 E64.16040
G1 X36.377 Y132.656 E64.18219
G1 X35.578 Y132.122 E64.21223
G1 X35.035 Y131.686 E64.23400
G1 X34.633 Y131.318 E64.25105
G1 X34.150 Y130.813 E64.27288
G1 X33.803 Y130.400 E64.28977
G1 X33.550 Y130.065 E64.30288
G1 X33.162 Y129.485 E64.32470
G1 X32.700 Y128.643 E64.35470
G1 X32.419 Y128.004 E64.37651
G1 X32.233 Y127.492 E64.39356
G1 X32.037 Y126.822 E64.41537
G1 X31.944 Y126.414 E64.42846
G1 X31.850 Y125.881 E64.44538
G1 X31.774 Y125.188 E64.46716
G1 X31.749 Y124.500 E64.48869
G1 X31.749 Y75.500 E66.02036
G1 X31.774 Y74.813 E66.04184
G1 X31.850 Y74.119 E66.06366
G1 X31.945 Y73.582 E66.08071
G1 X32.111 Y72.905 E66.10252
G1 X32.275 Y72.384 E66.11958
G1 X32.527 Y71.734 E66.14137
G1 X32.758 Y71.239 E66.15844
G1 X33.094 Y70.628 E66.18024
G1 X33.387 Y70.167 E66.19731
G1 X33.800 Y69.604 E66.21913
G1 X34.150 Y69.187 E66.23618
G1 X34.633 Y68.682 E66.25800
G1 X35.035 Y68.314 E66.27505
G1 X35.579 Y67.877 E66.29686
G1 X36.026 Y67.564 E66.31391
G1 X36.549 Y67.245 E66.33306
G1 X36.674 Y67.462 F1800.000
G1 X37.100 Y67.233 E66.34818 F1800.000
G1 X37.585 Y67.007 E66.36490
G1 X38.215 Y66.762 E66.38602
G1 X38.599 Y66.638 E66.39863
G1 X39.115 Y66.500 E66.41534
G1 X39.778 Y66.368 E66.43647
G1 X40.308 Y66.298 E66.45318
G1 X40.783 Y66.261 E66.46806
G1 X161.414 Y59.758 E70.24429
G1 X163.623 Y60.037 E70.31391
G1 X165.595 Y61.072 E70.38353 F1800.000
G1 X167.079 Y62.733 E70.45315
G1 X167.886 Y64.809 E70.52277
G1 X168.001 Y66.000 E70.56017
G1 X168.001 Y134.000 E72.68576
G1 X167.604 Y136.192 E72.75538
G1 X166.464 Y138.105 E72.82500
G1 X164.725 Y139.497 E72.89462
G1 X162.609 Y140.191 E72.96424
G1 X161.414 Y140.242 E73.00164
G1 X40.713 Y133.735 E76.78006
G1 X39.778 Y133.632 E76.80946
G1 X39.115 Y133.500 E76.83059
G1 X38.720 Y133.397 E76.84336
G1 X38.215 Y133.238 E76.85992
G1 X37.585 Y132.993 E76.88104
G1 X36.743 Y132.578 E76.91036
G1 X36.165 Y132.227 E76.93150
G1 X35.727 Y131.920 E76.94824
G1 X35.200 Y131.498 E76.96933
G1 X34.806 Y131.137 E76.98604
G1 X34.339 Y130.648 E77.00718
G1 X33.995 Y130.239 E77.02389
G1 X33.596 Y129.694 E77.04499
G1 X33.308 Y129.242 E77.06175
G1 X32.983 Y128.650 E77.08286
G1 X32.757 Y128.165 E77.09957
G1 X32.512 Y127.536 E77.12070
G1 X32.351 Y127.025 E77.13742
G1 X32.191 Y126.370 E77.15851
G1 X32.098 Y125.843 E77.17525
G1 X32.024 Y125.172 E77.19635
G1 X31.999 Y124.500 E77.21736
G1 X31.999 Y75.500 E78.74903
G1 X32.024 Y74.830 E78.76999
G1 X32.098 Y74.157 E78.79113
G1 X32.166 Y73.756 E78.80385
G1 X32.281 Y73.238 E78.82045
G1 X32.470 Y72.589 E78.84159
G1 X32.653 Y72.086 E78.85830
G1 X32.925 Y71.468 E78.87943
G1 X33.376 Y70.645 E78.90874
G1 X33.752 Y70.083 E78.92989
G1 X34.074 Y69.663 E78.94643
G1 X34.339 Y69.352 E78.95920
G1 X34.806 Y68.863 E78.98034
G1 X35.200 Y68.502 E78.99705
G1 X35.728 Y68.079 E79.01818
G1 X36.165 Y67.773 E79.03488
G1 X36.635 Y67.484 E79.05212
G1 E77.05212 F2400.00000
G92 E0
G1 X129.786 Y113.852 F1800.000
G1 E2.00000 F2400.00000
G1 X130.018 Y113.550 E2.01193 F1800.000
G1 X130.301 Y113.291 E2.02392
G1 X130.693 Y113.054 E2.03823
G1 X131.129 Y112.906 E2.05263
G1 X131.516 Y112.855 E2.06485 F1800.000
G1 X131.966 Y112.885 E2.07894
G1 X132.341 Y112.985 E2.09107
G1 X132.748 Y113.186 E2.10524
G1 X133.055 Y113.422 E2.11737
G1 X133.353 Y113.760 E2.13146
G1 X133.549 Y114.099 E2.14368
G1 X133.694 Y114.528 E2.15786
G1 X133.744 Y114.906 E2.16977
G1 X133.728 Y115.287 E2.18169
G1 X133.618 Y115.735 E2.19608
G1 X133.414 Y116.148 E2.21048
G1 X133.178 Y116.456 E2.22261
G1 X132.837 Y116.755 E2.23679
G1 X132.507 Y116.945 E2.24871
G1 X132.146 Y117.076 E2.26071
G1 X131.693 Y117.146 E2.27502
G1 X131.234 Y117.115 E2.28941
G1 X130.866 Y117.017 E2.30132
G1 X130.520 Y116.856 E2.31324
G1 X130.149 Y116.583 E2.32763
G1 X129.847 Y116.240 E2.34193
G1 X129.655 Y115.907 E2.35393
G1 X129.525 Y115.549 E2.36586
G1 X129.454 Y115.094 E2.38025
G1 X129.485 Y114.634 E2.39465
G1 X129.585 Y114.259 E2.40679
G1 X129.766 Y113.893 E2.41955
G1 X129.990 Y114.004 F1800.000
G1 X130.203 Y113.720 E2.43064 F1800.000
G1 X130.452 Y113.492 E2.44118
G1 X130.799 Y113.282 E2.45386
G1 X131.186 Y113.151 E2.46663
G1 X131.524 Y113.107 E2.47730 F1800.000
G1 X131.925 Y113.133 E2.48985
G1 X132.252 Y113.221 E2.50044
G1 X132.615 Y113.399 E2.51307
G1 X132.883 Y113.606 E2.52366
G1 X133.148 Y113.907 E2.53620
G1 X133.319 Y114.203 E2.54688
G1 X133.449 Y114.586 E2.55951
G1 X133.493 Y114.917 E2.56997
G1 X133.478 Y115.252 E2.58043
G1 X133.381 Y115.648 E2.59320
G1 X133.201 Y116.015 E2.60596
G1 X132.994 Y116.283 E2.61655
G1 X132.690 Y116.550 E2.62918
G1 X132.401 Y116.717 E2.63965
G1 X132.084 Y116.832 E2.65019
G1 X131.683 Y116.894 E2.66287
G1 X131.275 Y116.867 E2.67563
G1 X130.952 Y116.780 E2.68609
G1 X130.649 Y116.639 E2.69655
G1 X130.320 Y116.398 E2.70931
G1 X130.052 Y116.093 E2.72199
G1 X129.883 Y115.801 E2.73253
G1 X129.768 Y115.486 E2.74300
G1 X129.706 Y115.083 E2.75576
G1 X129.733 Y114.675 E2.76853
G1 X129.821 Y114.348 E2.77912
G1 X129.971 Y114.044 E2.78971
G1 X130.189 Y114.152 F1800.000
G1 X130.383 Y113.885 E2.79941 F1800.000
G1 X130.598 Y113.688 E2.80799
G1 X130.902 Y113.504 E2.81843
G1 X131.241 Y113.389 E2.82894
G1 X131.532 Y113.351 E2.83757 F1800.000
G1 X131.885 Y113.374 E2.84796
G1 X132.166 Y113.449 E2.85651
G1 X132.486 Y113.607 E2.86698
G1 X132.716 Y113.784 E2.87553
G1 X132.950 Y114.050 E2.88592
G1 X133.097 Y114.304 E2.89455
G1 X133.211 Y114.641 E2.90501
G1 X133.249 Y114.928 E2.91352
G1 X133.236 Y115.217 E2.92202
G1 X133.151 Y115.565 E2.93254
G1 X132.993 Y115.886 E2.94305
G1 X132.816 Y116.116 E2.95160
G1 X132.548 Y116.351 E2.96207
G1 X132.298 Y116.496 E2.97058
G1 X132.023 Y116.596 E2.97915
G1 X131.672 Y116.649 E2.98959
G1 X131.315 Y116.626 E3.00011
G1 X131.035 Y116.551 E3.00861
G1 X130.773 Y116.429 E3.01711
G1 X130.485 Y116.217 E3.02763
G1 X130.250 Y115.950 E3.03807
G1 X130.104 Y115.698 E3.04665
G1 X130.005 Y115.426 E3.05515
G1 X129.951 Y115.072 E3.06567
G1 X129.974 Y114.715 E3.07618
G1 X130.049 Y114.434 E3.08473
G1 X130.169 Y114.192 E3.09266
G1 X130.052 Y113.885 F1800.000
G1 E1.09266 F2400.00000
G92 E0
G1 X130.100 Y113.000 F1800.000
G1 X130.100 Y113.000 F1800.000
G1 X131.593 Y87.147 F1800.000
G1 E2.00000 F2400.00000
G1 X131.142 Y87.097 E2.01418 F1800.000
G1 X130.772 Y86.981 E2.02632
G1 X130.374 Y86.763 E2.04049
G1 X130.077 Y86.513 E2.05262
G1 X129.795 Y86.162 E2.06671
G1 X129.614 Y85.815 E2.07893
G1 X129.487 Y85.380 E2.09311
G1 X129.454 Y85.000 E2.10503
G1 X129.487 Y84.620 E2.11694
G1 X129.614 Y84.185 E2.13113
G1 X129.795 Y83.838 E2.14335
G1 X130.082 Y83.481 E2.15765
G1 X130.441 Y83.193 E2.17204
G1 X130.779 Y83.017 E2.18396
G1 X131.142 Y82.903 E2.19587
G1 X131.590 Y82.853 E2.20996 F1800.000
G1 X131.982 Y82.888 E2.22226
G1 X132.422 Y83.016 E2.23658
G1 X132.826 Y83.237 E2.25097
G1 X133.118 Y83.482 E2.26289
G1 X133.363 Y83.774 E2.27480
G1 X133.581 Y84.172 E2.28898
G1 X133.698 Y84.545 E2.30120
G1 X133.748 Y85.000 E2.31551
G1 X133.698 Y85.455 E2.32981
G1 X133.581 Y85.828 E2.34203
G1 X133.363 Y86.226 E2.35621
G1 X133.117 Y86.518 E2.36814
G1 X132.823 Y86.764 E2.38013
G1 X132.422 Y86.984 E2.39444
G1 X131.983 Y87.112 E2.40874
G1 X131.638 Y87.143 E2.41955
G1 X131.616 Y86.893 F1800.000
