; generated by Slic3r 1.2.9 on 2021-03-31 at 16:41:25

; external perimeters extrusion width = 0.40mm
; perimeters extrusion width = 0.48mm
; infill extrusion width = 0.48mm
; solid infill extrusion width = 0.48mm
; top infill extrusion width = 0.48mm
; support material extrusion width = 0.40mm

M190 S60 ; set bed temperature
M104 S200 ; set temperature
G28 ; home all axes
G1 Z5 F5000 ; lift nozzle

M109 S200 ; wait for temperature to be reached
G21 ; set units to millimeters
G90 ; use absolute coordinates
M82 ; use absolute distances for extrusion
G92 E0
G1 Z0.200 F1800.000
G1 E-3.00000 F2400.00000
G92 E0
G1 X22.373 Y23.343 F1800.000
G1 E3.00000 F2400.00000
G1 X23.205 Y22.605 E3.02254 F1800.000
G1 X24.100 Y21.942 E3.04510
G1 X25.051 Y21.358 E3.06771
G1 X26.047 Y20.860 E3.09029
G1 X27.081 Y20.452 E3.11280
G1 X28.148 Y20.135 E3.13537
G1 X29.243 Y19.911 E3.15801
G1 X30.349 Y19.784 E3.18058
G1 X151.224 Y13.266 E5.63344
G1 X154.002 Y13.515 E5.68995
G1 X156.596 Y14.538 E5.74645 F1800.000
G1 X158.795 Y16.253 E5.80295
G1 X160.420 Y18.518 E5.85946
G1 X161.339 Y21.151 E5.91596
G1 X161.520 Y23.022 E5.95405
G1 X161.520 Y91.022 E7.33194
G1 X161.122 Y93.782 E7.38845
G1 X159.723 Y96.668 E7.45343
G1 X123.872 Y147.297 E8.71050
G1 X122.719 Y148.866 E8.74995
G1 X121.476 Y150.412 E8.79016
G1 X120.167 Y151.904 E8.83038
G1 X118.952 Y153.177 E8.86603
G1 X117.360 Y154.712 E8.91085
G1 X115.869 Y156.021 E8.95106
G1 X114.291 Y157.288 E8.99206
G1 X112.721 Y158.440 E9.03151
G1 X111.041 Y159.566 E9.07250
G1 X109.342 Y160.598 E9.11277
G1 X107.604 Y161.554 E9.15296
G1 X105.824 Y162.434 E9.19320
G1 X104.009 Y163.236 E9.23341
G1 X102.160 Y163.958 E9.27363
G1 X100.282 Y164.600 E9.31386
G1 X98.376 Y165.160 E9.35410
G1 X96.451 Y165.636 E9.39428
G1 X94.505 Y166.029 E9.43450
G1 X92.538 Y166.337 E9.47485
G1 X90.197 Y166.591 E9.52257
G1 X88.568 Y166.697 E9.55565
G1 X86.573 Y166.747 E9.59608
G1 X84.581 Y166.710 E9.63646
G1 X82.628 Y166.589 E9.67610
G1 X80.606 Y166.375 E9.71731
G1 X78.723 Y166.093 E9.75589
G1 X76.308 Y165.614 E9.80578
G1 X74.738 Y165.229 E9.83852
G1 X72.822 Y164.678 E9.87893
G1 X70.933 Y164.045 E9.91931
G1 X69.069 Y163.328 E9.95978
G1 X67.243 Y162.532 E10.00014
G1 X65.515 Y161.689 E10.03910
G1 X63.356 Y160.506 E10.08898
G1 X61.988 Y159.676 E10.12139
G1 X60.327 Y158.576 E10.16178
G1 X58.714 Y157.403 E10.20218
G1 X57.153 Y156.161 E10.24260
G1 X55.648 Y154.852 E10.28302
G1 X54.242 Y153.517 E10.32231
G1 X52.538 Y151.740 E10.37219
G1 X51.495 Y150.551 E10.40423
G1 X50.240 Y149.002 E10.44464
G1 X49.054 Y147.398 E10.48506
G1 X47.939 Y145.746 E10.52546
G1 X46.684 Y143.679 E10.57445
G1 X45.733 Y141.926 E10.61486
G1 X44.968 Y140.371 E10.64997
G1 X19.700 Y86.968 E11.84710
G1 X19.373 Y86.211 E11.86382
G1 X19.137 Y85.564 E11.87776
G1 X18.862 Y84.620 E11.89769
G1 X18.713 Y83.949 E11.91162
G1 X18.550 Y82.847 E11.93419
G1 X18.504 Y82.292 E11.94549
G1 X18.480 Y81.522 E11.96109
G1 X18.480 Y32.522 E12.95399
G1 X18.504 Y31.752 E12.96959
G1 X18.619 Y30.644 E12.99217
G1 X18.831 Y29.550 E13.01474
G1 X19.138 Y28.479 E13.03732
G1 X19.325 Y27.955 E13.04860
G1 X19.588 Y27.319 E13.06254
G1 X20.086 Y26.322 E13.08512
G1 X20.669 Y25.373 E13.10769
G1 X21.332 Y24.478 E13.13026
G1 X21.693 Y24.053 E13.14155
G1 X22.330 Y23.385 E13.16026
G1 X22.774 Y23.830 F1800.000
G1 X23.195 Y23.438 E13.17190 F1800.000
G1 X23.599 Y23.095 E13.18264
G1 X24.449 Y22.465 E13.20408
G1 X25.353 Y21.909 E13.22558
G1 X26.300 Y21.436 E13.24705
G1 X27.283 Y21.047 E13.26846
G1 X28.298 Y20.745 E13.28991
G1 X29.338 Y20.532 E13.31144
G1 X30.390 Y20.411 E13.33289
G1 X151.258 Y13.894 E15.78561
G1 X153.943 Y14.147 E15.84026
G1 X156.437 Y15.173 E15.89491 F1800.000
G1 X158.523 Y16.882 E15.94955
G1 X160.020 Y19.126 E16.00420
G1 X160.892 Y23.022 E16.08510
G1 X160.892 Y91.022 E17.46300
G1 X160.494 Y93.689 E17.51764
G1 X159.211 Y96.305 E17.57668
G1 X123.359 Y146.933 E18.83374
G1 X122.222 Y148.481 E18.87265
G1 X120.996 Y150.007 E18.91232
G1 X119.705 Y151.479 E18.95199
G1 X118.498 Y152.743 E18.98740
G1 X116.935 Y154.249 E19.03138
G1 X115.464 Y155.540 E19.07105
G1 X113.908 Y156.791 E19.11151
G1 X112.360 Y157.927 E19.15042
G1 X110.701 Y159.037 E19.19086
G1 X109.025 Y160.055 E19.23059
G1 X107.310 Y160.998 E19.27025
G1 X105.554 Y161.866 E19.30994
G1 X103.764 Y162.657 E19.34961
G1 X101.939 Y163.370 E19.38929
G1 X100.086 Y164.003 E19.42897
G1 X98.206 Y164.555 E19.46867
G1 X96.307 Y165.024 E19.50832
G1 X94.387 Y165.411 E19.54800
G1 X92.447 Y165.716 E19.58780
G1 X90.156 Y165.964 E19.63450
G1 X88.531 Y166.070 E19.66750
G1 X86.563 Y166.119 E19.70737
G1 X84.598 Y166.082 E19.74720
G1 X82.673 Y165.962 E19.78629
G1 X80.677 Y165.751 E19.82695
G1 X78.818 Y165.472 E19.86504
G1 X76.457 Y165.003 E19.91382
G1 X74.891 Y164.620 E19.94650
G1 X73.001 Y164.076 E19.98635
G1 X71.137 Y163.450 E20.02618
G1 X69.299 Y162.743 E20.06610
G1 X67.498 Y161.958 E20.10591
G1 X65.792 Y161.125 E20.14436
G1 X63.682 Y159.969 E20.19313
G1 X62.316 Y159.140 E20.22551
G1 X60.677 Y158.054 E20.26534
G1 X59.087 Y156.897 E20.30519
G1 X57.547 Y155.672 E20.34506
G1 X56.063 Y154.381 E20.38492
G1 X54.676 Y153.064 E20.42368
G1 X53.010 Y151.326 E20.47245
G1 X51.968 Y150.138 E20.50448
G1 X50.731 Y148.609 E20.54434
G1 X49.561 Y147.027 E20.58421
G1 X48.461 Y145.397 E20.62405
G1 X47.235 Y143.376 E20.67194
G1 X46.297 Y141.648 E20.71179
G1 X45.536 Y140.103 E20.74669
G1 X20.268 Y86.700 E21.94383
G1 X19.958 Y85.983 E21.95964
G1 X19.732 Y85.363 E21.97302
G1 X19.473 Y84.471 E21.99184
G1 X19.330 Y83.826 E22.00522
G1 X19.174 Y82.779 E22.02668
G1 X19.131 Y82.251 E22.03742
G1 X19.108 Y81.522 E22.05219
G1 X19.108 Y32.522 E23.04509
G1 X19.131 Y31.793 E23.05986
G1 X19.240 Y30.740 E23.08133
G1 X19.441 Y29.700 E23.10278
G1 X19.732 Y28.681 E23.12425
G1 X19.912 Y28.180 E23.13504
G1 X20.164 Y27.572 E23.14836
G1 X20.637 Y26.625 E23.16983
G1 X21.192 Y25.722 E23.19129
G1 X21.822 Y24.872 E23.21275
G1 X22.165 Y24.468 E23.22349
G1 X22.732 Y23.872 E23.24015
G1 X23.176 Y24.316 F1800.000
G1 X23.609 Y23.910 E23.25217 F1800.000
G1 X23.992 Y23.585 E23.26235
G1 X24.798 Y22.987 E23.28269
G1 X25.655 Y22.460 E23.30307
G1 X26.553 Y22.011 E23.32343
G1 X27.485 Y21.642 E23.34373
G1 X28.447 Y21.355 E23.36408
G1 X29.434 Y21.153 E23.38449
G1 X30.432 Y21.038 E23.40483
G1 X151.292 Y14.521 E25.85740
G1 X153.881 Y14.780 E25.91013
G1 X156.271 Y15.808 E25.96285 F1800.000
G1 X158.239 Y17.511 E26.01558
G1 X159.600 Y19.728 E26.06830
G1 X160.263 Y23.022 E26.13638
G1 X160.263 Y91.022 E27.51428
G1 X159.866 Y93.593 E27.56701
G1 X158.698 Y95.942 E27.62015
G1 X122.847 Y146.570 E28.87721
G1 X121.726 Y148.096 E28.91557
G1 X120.516 Y149.601 E28.95470
G1 X119.243 Y151.053 E28.99384
G1 X118.044 Y152.308 E29.02900
G1 X116.511 Y153.785 E29.07214
G1 X115.060 Y155.059 E29.11127
G1 X113.524 Y156.293 E29.15118
G1 X111.966 Y157.435 E29.19033
G1 X110.361 Y158.509 E29.22946
G1 X108.708 Y159.513 E29.26864
G1 X107.017 Y160.443 E29.30776
G1 X105.285 Y161.299 E29.34691
G1 X103.518 Y162.079 E29.38604
G1 X101.719 Y162.782 E29.42518
G1 X99.891 Y163.406 E29.46432
G1 X98.037 Y163.950 E29.50348
G1 X96.163 Y164.413 E29.54258
G1 X94.269 Y164.794 E29.58172
G1 X92.356 Y165.094 E29.62097
G1 X90.115 Y165.337 E29.66665
G1 X88.493 Y165.443 E29.69957
G1 X86.554 Y165.490 E29.73889
G1 X84.615 Y165.454 E29.77817
G1 X82.766 Y165.339 E29.81572
G1 X80.428 Y165.084 E29.86339
G1 X78.832 Y164.838 E29.89609
G1 X76.929 Y164.465 E29.93538
G1 X75.043 Y164.010 E29.97471
G1 X73.252 Y163.495 E30.01246
G1 X71.025 Y162.740 E30.06012
G1 X69.529 Y162.158 E30.09264
G1 X67.753 Y161.384 E30.13190
G1 X66.010 Y160.532 E30.17122
G1 X64.305 Y159.604 E30.21055
G1 X62.643 Y158.604 E30.24985
G1 X61.078 Y157.567 E30.28789
G1 X59.181 Y156.177 E30.33555
G1 X57.942 Y155.183 E30.36774
G1 X56.478 Y153.909 E30.40705
G1 X55.072 Y152.573 E30.44635
G1 X53.726 Y151.177 E30.48565
G1 X52.441 Y149.724 E30.52496
G1 X51.250 Y148.252 E30.56332
G1 X49.858 Y146.356 E30.61098
G1 X48.786 Y144.737 E30.65033
G1 X47.786 Y143.074 E30.68965
G1 X46.860 Y141.370 E30.72895
G1 X46.104 Y139.834 E30.76364
G1 X20.836 Y86.431 E31.96078
G1 X20.544 Y85.756 E31.97568
G1 X20.327 Y85.161 E31.98851
G1 X20.083 Y84.322 E32.00622
G1 X19.946 Y83.704 E32.01904
G1 X19.799 Y82.710 E32.03940
G1 X19.758 Y82.209 E32.04958
G1 X19.737 Y81.522 E32.06352
G1 X19.737 Y32.522 E33.05641
G1 X19.758 Y31.834 E33.07035
G1 X19.861 Y30.835 E33.09071
G1 X19.946 Y30.340 E33.10089
G1 X20.082 Y29.725 E33.11364
G1 X20.370 Y28.759 E33.13407
G1 X20.739 Y27.826 E33.15441
G1 X21.188 Y26.927 E33.17477
G1 X21.714 Y26.072 E33.19511
G1 X22.312 Y25.265 E33.21547
G1 X22.638 Y24.882 E33.22565
G1 X23.134 Y24.359 E33.24026
G1 X23.578 Y24.803 F1800.000
G1 X24.023 Y24.383 E33.25267 F1800.000
G1 X24.385 Y24.075 E33.26229
G1 X25.147 Y23.509 E33.28152
G1 X25.957 Y23.011 E33.30079
G1 X26.806 Y22.586 E33.32004
G1 X27.687 Y22.237 E33.33923
G1 X28.597 Y21.966 E33.35847
G1 X29.530 Y21.774 E33.37776
G1 X30.473 Y21.665 E33.39700
G1 X151.326 Y15.148 E35.84942
G1 X153.815 Y15.412 E35.90015
G1 X156.097 Y16.443 E35.95088 F1800.000
G1 X157.940 Y18.137 E36.00161
G1 X159.159 Y20.324 E36.05234
G1 X159.635 Y23.022 E36.10785
G1 X159.635 Y91.022 E37.48575
G1 X159.237 Y93.494 E37.53648
G1 X158.185 Y95.579 E37.58380
G1 X122.334 Y146.207 E38.84085
G1 X121.229 Y147.711 E38.87868
G1 X120.036 Y149.196 E38.91726
G1 X118.780 Y150.628 E38.95586
G1 X117.590 Y151.874 E38.99077
G1 X116.087 Y153.322 E39.03308
G1 X114.656 Y154.578 E39.07166
G1 X113.141 Y155.795 E39.11104
G1 X111.604 Y156.922 E39.14964
G1 X110.021 Y157.980 E39.18823
G1 X108.391 Y158.970 E39.22687
G1 X106.723 Y159.887 E39.26545
G1 X105.015 Y160.732 E39.30406
G1 X103.273 Y161.500 E39.34264
G1 X101.498 Y162.193 E39.38125
G1 X99.695 Y162.809 E39.41985
G1 X97.867 Y163.345 E39.45846
G1 X96.019 Y163.801 E39.49703
G1 X94.152 Y164.177 E39.53563
G1 X92.265 Y164.472 E39.57433
G1 X90.074 Y164.710 E39.61898
G1 X88.456 Y164.815 E39.65182
G1 X86.544 Y164.862 E39.69059
G1 X84.633 Y164.826 E39.72932
G1 X82.807 Y164.712 E39.76639
G1 X80.523 Y164.463 E39.81294
G1 X78.931 Y164.217 E39.84558
G1 X77.055 Y163.850 E39.88432
G1 X75.195 Y163.401 E39.92309
G1 X73.428 Y162.892 E39.96035
G1 X71.252 Y162.155 E40.00690
G1 X69.759 Y161.574 E40.03937
G1 X68.008 Y160.810 E40.07808
G1 X66.289 Y159.969 E40.11685
G1 X64.609 Y159.054 E40.15562
G1 X62.971 Y158.068 E40.19436
G1 X61.427 Y157.044 E40.23189
G1 X59.574 Y155.687 E40.27844
G1 X58.336 Y154.693 E40.31060
G1 X56.894 Y153.437 E40.34936
G1 X55.508 Y152.120 E40.38811
G1 X54.180 Y150.743 E40.42686
G1 X52.914 Y149.310 E40.46561
G1 X51.740 Y147.859 E40.50343
G1 X50.380 Y146.007 E40.54998
G1 X49.323 Y144.411 E40.58878
G1 X48.337 Y142.772 E40.62754
G1 X47.424 Y141.092 E40.66629
G1 X46.672 Y139.565 E40.70077
G1 X21.404 Y86.162 E41.89791
G1 X21.130 Y85.528 E41.91191
G1 X20.922 Y84.959 E41.92418
G1 X20.782 Y84.505 E41.93381
G1 X20.588 Y83.713 E41.95032
G1 X20.502 Y83.241 E41.96004
G1 X20.423 Y82.642 E41.97229
G1 X20.385 Y82.168 E41.98192
G1 X20.365 Y81.522 E41.99502
G1 X20.365 Y32.522 E42.98792
G1 X20.385 Y31.875 E43.00103
G1 X20.482 Y30.931 E43.02027
G1 X20.562 Y30.462 E43.02990
G1 X20.692 Y29.875 E43.04210
G1 X20.964 Y28.961 E43.06141
G1 X21.314 Y28.079 E43.08064
G1 X21.739 Y27.229 E43.09989
G1 X22.236 Y26.421 E43.11913
G1 X22.802 Y25.658 E43.13837
G1 X23.110 Y25.296 E43.14799
G1 X23.536 Y24.845 E43.16056
G1 X23.980 Y25.289 F1800.000
G1 X24.438 Y24.855 E43.17335 F1800.000
G1 X24.779 Y24.565 E43.18242
G1 X25.496 Y24.032 E43.20054
G1 X26.259 Y23.562 E43.21869
G1 X27.060 Y23.161 E43.23683
G1 X27.889 Y22.832 E43.25491
G1 X28.746 Y22.576 E43.27304
G1 X29.625 Y22.395 E43.29122
G1 X30.514 Y22.292 E43.30935
G1 X151.359 Y15.776 E45.76162
G1 X153.745 Y16.045 E45.81027
G1 X155.913 Y17.078 E45.85893 F1800.000
G1 X157.625 Y18.762 E45.90758
G1 X158.693 Y20.912 E45.95623
G1 X159.007 Y23.022 E45.99946
G1 X159.007 Y91.022 E47.37735
G1 X158.609 Y93.390 E47.42601
G1 X157.672 Y95.215 E47.46759
G1 X121.822 Y145.843 E48.72463
G1 X120.732 Y147.326 E48.76191
G1 X119.556 Y148.790 E48.79996
G1 X118.318 Y150.202 E48.83802
G1 X117.137 Y151.439 E48.87268
G1 X115.662 Y152.859 E48.91415
G1 X114.251 Y154.097 E48.95220
G1 X112.757 Y155.297 E48.99103
G1 X111.242 Y156.408 E49.02909
G1 X109.681 Y157.452 E49.06714
G1 X108.074 Y158.428 E49.10524
G1 X106.429 Y159.332 E49.14327
G1 X104.745 Y160.164 E49.18134
G1 X103.027 Y160.922 E49.21939
G1 X101.277 Y161.605 E49.25745
G1 X99.500 Y162.211 E49.29551
G1 X97.697 Y162.740 E49.33358
G1 X95.875 Y163.190 E49.37161
G1 X94.034 Y163.560 E49.40966
G1 X92.173 Y163.851 E49.44781
G1 X90.033 Y164.083 E49.49145
G1 X88.419 Y164.188 E49.52421
G1 X86.534 Y164.234 E49.56242
G1 X84.650 Y164.197 E49.60060
G1 X82.848 Y164.085 E49.63719
G1 X80.619 Y163.842 E49.68263
G1 X79.030 Y163.597 E49.71521
G1 X77.180 Y163.234 E49.75339
G1 X75.347 Y162.791 E49.79161
G1 X73.604 Y162.289 E49.82837
G1 X71.480 Y161.569 E49.87381
G1 X69.989 Y160.989 E49.90623
G1 X68.263 Y160.236 E49.94439
G1 X66.569 Y159.407 E49.98260
G1 X64.913 Y158.504 E50.02082
G1 X63.298 Y157.531 E50.05902
G1 X61.776 Y156.522 E50.09603
G1 X59.967 Y155.197 E50.14147
G1 X58.730 Y154.204 E50.17360
G1 X57.309 Y152.966 E50.21181
G1 X55.943 Y151.667 E50.25000
G1 X54.635 Y150.310 E50.28820
G1 X53.387 Y148.896 E50.32640
G1 X52.230 Y147.466 E50.36368
G1 X50.903 Y145.658 E50.40912
G1 X49.860 Y144.085 E50.44736
G1 X48.888 Y142.469 E50.48557
G1 X47.987 Y140.813 E50.52377
G1 X47.240 Y139.296 E50.55803
G1 X21.972 Y85.893 E51.75517
G1 X21.715 Y85.300 E51.76827
G1 X21.517 Y84.757 E51.77999
G1 X21.385 Y84.329 E51.78906
G1 X21.205 Y83.590 E51.80446
G1 X21.123 Y83.145 E51.81363
G1 X21.048 Y82.573 E51.82532
G1 X21.012 Y82.127 E51.83439
G1 X20.993 Y81.522 E51.84666
G1 X20.993 Y32.522 E52.83956
G1 X21.012 Y31.916 E52.85183
G1 X21.104 Y31.026 E52.86997
G1 X21.272 Y30.148 E52.88809
G1 X21.517 Y29.287 E52.90623
G1 X21.668 Y28.866 E52.91529
G1 X21.889 Y28.332 E52.92701
G1 X22.290 Y27.531 E52.94514
G1 X22.759 Y26.770 E52.96327
G1 X23.293 Y26.051 E52.98140
G1 X23.937 Y25.332 E53.00098
G1 X24.382 Y25.776 F1800.000
G1 X24.852 Y25.327 E53.01416 F1800.000
G1 X25.172 Y25.055 E53.02267
G1 X25.846 Y24.554 E53.03968
G1 X26.562 Y24.113 E53.05672
G1 X27.313 Y23.736 E53.07374
G1 X28.091 Y23.427 E53.09072
G1 X28.896 Y23.186 E53.10774
G1 X29.721 Y23.016 E53.12480
G1 X30.555 Y22.919 E53.14182
G1 X151.393 Y16.403 E55.59394
G1 X153.671 Y16.678 E55.64043
G1 X155.718 Y17.713 E55.68691 F1800.000
G1 X157.290 Y19.383 E55.73340
G1 X158.199 Y21.490 E55.77988
G1 X158.378 Y23.022 E55.81114
G1 X158.378 Y91.022 E57.18904
G1 X157.981 Y93.281 E57.23552
G1 X157.159 Y94.852 E57.27145
G1 X121.309 Y145.480 E58.52849
G1 X120.236 Y146.941 E58.56523
G1 X119.077 Y148.385 E58.60274
G1 X117.856 Y149.776 E58.64025
G1 X116.683 Y151.005 E58.67467
G1 X115.238 Y152.395 E58.71530
G1 X113.847 Y153.616 E58.75281
G1 X112.374 Y154.800 E58.79110
G1 X110.880 Y155.895 E58.82862
G1 X109.341 Y156.923 E58.86613
G1 X107.757 Y157.885 E58.90368
G1 X106.136 Y158.776 E58.94117
G1 X104.475 Y159.597 E58.97870
G1 X102.782 Y160.344 E59.01621
G1 X101.057 Y161.017 E59.05373
G1 X99.304 Y161.614 E59.09124
G1 X97.527 Y162.135 E59.12877
G1 X95.731 Y162.578 E59.16626
G1 X93.916 Y162.943 E59.20378
G1 X92.082 Y163.229 E59.24138
G1 X89.991 Y163.456 E59.28399
G1 X88.382 Y163.561 E59.31667
G1 X86.524 Y163.606 E59.35433
G1 X84.668 Y163.569 E59.39196
G1 X82.889 Y163.458 E59.42807
G1 X80.714 Y163.221 E59.47240
G1 X79.128 Y162.976 E59.50491
G1 X77.306 Y162.619 E59.54254
G1 X75.499 Y162.181 E59.58021
G1 X73.780 Y161.685 E59.61647
G1 X71.708 Y160.983 E59.66080
G1 X70.219 Y160.404 E59.69317
G1 X68.518 Y159.661 E59.73078
G1 X66.849 Y158.844 E59.76844
G1 X65.217 Y157.955 E59.80610
G1 X63.626 Y156.995 E59.84375
G1 X62.126 Y155.999 E59.88024
G1 X60.360 Y154.707 E59.92457
G1 X59.125 Y153.715 E59.95668
G1 X57.724 Y152.494 E59.99433
G1 X56.378 Y151.214 E60.03197
G1 X55.089 Y149.876 E60.06962
G1 X53.860 Y148.483 E60.10727
G1 X52.720 Y147.072 E60.14400
G1 X51.425 Y145.309 E60.18833
G1 X50.397 Y143.759 E60.22602
G1 X49.439 Y142.167 E60.26368
G1 X48.550 Y140.535 E60.30132
G1 X47.808 Y139.028 E60.33538
G1 X22.540 Y85.625 E61.53251
G1 X22.301 Y85.072 E61.54470
G1 X22.112 Y84.555 E61.55587
