; generated by Slic3r 1.2.9 on 2021-04-30 at 22:01:35

; external perimeters extrusion width = 0.40mm
; perimeters extrusion width = 0.67mm
; infill extrusion width = 0.67mm
; solid infill extrusion width = 0.67mm
; top infill extrusion width = 0.67mm

M190 S60 ; set bed temperature
M104 S200 ; set temperature
G28 ; home all axes
G1 Z5 F5000 ; lift nozzle

M109 S200 ; wait for temperature to be reached
G21 ; set units to millimeters
G90 ; use absolute coordinates
M82 ; use absolute distances for extrusion
G92 E0
G1 Z0.200 F1800.000
G1 E-3.00000 F2400.00000
G92 E0
G1 X36.565 Y50.633 F1800.000
G1 E3.00000 F2400.00000
G1 X39.952 Y49.527 E3.07220 F1800.000
G1 X56.530 Y47.321 E3.41107
G1 X57.818 Y47.236 E3.43723
G1 X60.340 Y47.250 E3.48833
G1 X137.052 Y51.352 E5.04499 F1800.000
G1 X139.787 Y51.897 E5.10150
G1 X142.257 Y53.192 E5.15800
G1 X143.439 Y54.200 E5.18948
G1 X143.939 Y54.700 E5.20381
G1 X145.609 Y56.933 E5.26031
G1 X146.631 Y59.798 E5.32195
G1 X152.921 Y93.148 E6.00964
G1 X153.090 Y94.959 E6.04649
G1 X153.090 Y122.494 E6.60445
G1 X152.692 Y125.254 E6.66096
G1 X151.531 Y127.789 E6.71746
G1 X150.229 Y129.403 E6.75947
G1 X149.729 Y129.903 E6.77380
G1 X147.496 Y131.573 E6.83030
G1 X144.882 Y132.544 E6.88681
G1 X142.820 Y132.764 E6.92882
G1 X50.396 Y132.764 E8.80163
G1 X49.686 Y132.738 E8.81603
G1 X44.832 Y132.385 E8.91463
G1 X42.108 Y131.787 E8.97114
G1 X38.634 Y129.549 E9.05489
G1 X37.926 Y128.842 E9.07516
G1 X36.256 Y126.609 E9.13166
G1 X35.316 Y124.136 E9.18527
G1 X27.161 Y88.888 E9.91836
G1 X26.910 Y86.686 E9.96328
G1 X26.910 Y85.979 E9.97760
G1 X26.941 Y85.200 E9.99339
G1 X28.002 Y71.933 E10.26310
G1 X28.221 Y70.514 E10.29218
G1 X31.221 Y57.514 E10.56252
G1 X32.229 Y54.915 E10.61903
G1 X33.832 Y52.803 E10.67275
G1 X34.332 Y52.303 E10.68708
G1 X36.517 Y50.669 E10.74237
G1 X36.895 Y51.179 F1800.000
G1 X36.944 Y51.142 E10.74360 F1800.000
G1 X40.035 Y50.150 E10.80939
G1 X56.612 Y47.944 E11.14826
G1 X57.818 Y47.864 E11.17274
G1 X60.306 Y47.877 E11.22316
G1 X137.019 Y51.980 E12.77982 F1800.000
G1 X139.661 Y52.519 E12.83447
G1 X142.995 Y54.644 E12.91457
G1 X143.495 Y55.144 E12.92890
G1 X145.099 Y57.312 E12.98355
G1 X146.014 Y59.914 E13.03944
G1 X152.303 Y93.264 E13.72714
G1 X152.462 Y94.959 E13.76162
G1 X152.462 Y122.494 E14.31958
G1 X152.064 Y125.162 E14.37423
G1 X150.905 Y127.597 E14.42887
G1 X149.784 Y128.958 E14.46461
G1 X149.284 Y129.458 E14.47894
G1 X147.117 Y131.063 E14.53358
G1 X144.575 Y131.966 E14.58823
G1 X142.820 Y132.136 E14.62397
G1 X50.396 Y132.136 E16.49678
G1 X49.731 Y132.112 E16.51025
G1 X44.878 Y131.758 E16.60886
G1 X42.246 Y131.168 E16.66351
G1 X39.078 Y129.105 E16.74012
G1 X38.371 Y128.398 E16.76038
G1 X36.766 Y126.230 E16.81503
G1 X35.929 Y123.994 E16.86341
G1 X27.773 Y88.747 E17.59650
G1 X27.538 Y86.686 E17.63853
G1 X27.538 Y85.979 E17.65286
G1 X27.567 Y85.251 E17.66763
G1 X28.628 Y71.983 E17.93733
G1 X28.833 Y70.656 E17.96454
G1 X31.833 Y57.656 E18.23489
G1 X32.820 Y55.146 E18.28954
G1 X34.276 Y53.247 E18.33802
G1 X34.776 Y52.747 E18.35235
G1 X36.847 Y51.214 E18.40455
G1 X37.222 Y51.727 F1800.000
G1 X37.320 Y51.654 E18.40702 F1800.000
G1 X40.118 Y50.772 E18.46646
G1 X56.695 Y48.567 E18.80533
G1 X57.818 Y48.493 E18.82813
G1 X60.273 Y48.505 E18.87787
G1 X136.985 Y52.607 E20.43453 F1800.000
G1 X139.532 Y53.142 E20.48726
G1 X142.550 Y55.088 E20.56004
G1 X143.050 Y55.588 E20.57437
G1 X144.587 Y57.688 E20.62710
G1 X145.396 Y60.030 E20.67732
G1 X151.686 Y93.381 E21.36501
G1 X151.833 Y94.959 E21.39712
G1 X151.833 Y122.494 E21.95508
G1 X151.436 Y125.066 E22.00781
G1 X150.280 Y127.397 E22.06053
G1 X149.340 Y128.514 E22.09012
G1 X148.840 Y129.014 E22.10444
G1 X146.740 Y130.551 E22.15717
G1 X144.275 Y131.382 E22.20989
G1 X142.820 Y131.507 E22.23948
G1 X50.396 Y131.507 E24.11230
G1 X49.777 Y131.485 E24.12484
G1 X44.923 Y131.131 E24.22345
G1 X42.388 Y130.548 E24.27617
G1 X39.522 Y128.660 E24.34570
G1 X38.815 Y127.953 E24.36596
G1 X37.278 Y125.854 E24.41869
G1 X36.541 Y123.853 E24.46191
G1 X28.386 Y88.605 E25.19500
G1 X28.167 Y86.686 E25.23413
G1 X28.167 Y85.979 E25.24846
G1 X28.194 Y85.301 E25.26222
G1 X29.254 Y72.033 E25.53193
G1 X29.445 Y70.797 E25.55727
G1 X32.445 Y57.797 E25.82761
G1 X33.411 Y55.381 E25.88034
G1 X34.721 Y53.691 E25.92365
G1 X35.221 Y53.191 E25.93798
G1 X37.173 Y51.762 E25.98701
G1 X37.545 Y52.277 F1800.000
G1 X37.694 Y52.169 E25.99073 F1800.000
G1 X40.201 Y51.395 E26.04389
G1 X56.778 Y49.190 E26.38276
G1 X57.818 Y49.121 E26.40388
G1 X60.239 Y49.132 E26.45294
G1 X136.952 Y53.235 E28.00960 F1800.000
G1 X139.399 Y53.763 E28.06033
G1 X142.106 Y55.533 E28.12586
G1 X142.606 Y56.033 E28.14019
G1 X144.073 Y58.062 E28.19092
G1 X144.779 Y60.147 E28.23553
G1 X151.069 Y93.497 E28.92323
G1 X151.205 Y94.959 E28.95297
G1 X151.205 Y122.494 E29.51093
G1 X150.808 Y124.966 E29.56166
G1 X148.896 Y128.070 E29.63553
G1 X148.396 Y128.570 E29.64986
G1 X146.367 Y130.037 E29.70059
G1 X142.820 Y130.879 E29.77445
G1 X50.396 Y130.879 E31.64727
G1 X49.823 Y130.858 E31.65888
G1 X44.969 Y130.505 E31.75749
G1 X42.533 Y129.929 E31.80822
G1 X39.966 Y128.216 E31.87074
G1 X39.259 Y127.509 E31.89100
G1 X37.793 Y125.480 E31.94173
G1 X37.153 Y123.711 E31.97986
G1 X28.998 Y88.464 E32.71295
G1 X28.795 Y86.686 E32.74920
G1 X28.795 Y85.979 E32.76352
G1 X28.820 Y85.351 E32.77627
G1 X29.881 Y72.083 E33.04597
G1 X30.057 Y70.938 E33.06944
G1 X33.057 Y57.938 E33.33979
G1 X34.001 Y55.619 E33.39052
G1 X35.165 Y54.136 E33.42873
G1 X35.665 Y53.636 E33.44306
G1 X37.496 Y52.312 E33.48885
G1 X37.865 Y52.829 F1800.000
G1 X38.065 Y52.687 E33.49382 F1800.000
G1 X40.283 Y52.018 E33.54078
G1 X56.861 Y49.813 E33.87965
G1 X57.818 Y49.749 E33.89908
G1 X60.205 Y49.760 E33.94746
G1 X136.918 Y53.862 E35.50412 F1800.000
G1 X139.261 Y54.385 E35.55278
G1 X141.662 Y55.977 E35.61114
G1 X142.162 Y56.477 E35.62547
G1 X143.555 Y58.432 E35.67412
G1 X144.161 Y60.263 E35.71320
G1 X150.451 Y93.614 E36.40090
G1 X150.577 Y94.959 E36.42827
G1 X150.577 Y122.494 E36.98623
G1 X150.180 Y124.862 E37.03488
G1 X148.451 Y127.625 E37.10092
G1 X147.951 Y128.125 E37.11525
G1 X145.996 Y129.519 E37.16391
G1 X142.820 Y130.251 E37.22995
G1 X50.396 Y130.251 E39.10276
G1 X49.868 Y130.232 E39.11345
G1 X45.015 Y129.878 E39.21206
G1 X42.682 Y129.310 E39.26072
G1 X40.411 Y127.772 E39.31630
G1 X39.704 Y127.065 E39.33656
G1 X38.310 Y125.109 E39.38521
G1 X37.765 Y123.569 E39.41832
G1 X29.610 Y88.322 E40.15141
G1 X29.423 Y86.686 E40.18477
G1 X29.423 Y85.979 E40.19910
G1 X29.446 Y85.401 E40.21082
G1 X30.507 Y72.133 E40.48053
G1 X30.670 Y71.080 E40.50213
G1 X33.670 Y58.080 E40.77247
G1 X34.589 Y55.861 E40.82113
G1 X35.609 Y54.580 E40.85432
G1 X36.109 Y54.080 E40.86864
G1 X37.816 Y52.864 E40.91111
G1 X38.181 Y53.384 F1800.000
G1 X38.432 Y53.207 E40.91733 F1800.000
G1 X40.366 Y52.641 E40.95818
G1 X56.944 Y50.435 E41.29705
G1 X57.818 Y50.377 E41.31480
G1 X60.172 Y50.387 E41.36250
G1 X136.884 Y54.489 E42.91916 F1800.000
G1 X139.119 Y55.006 E42.96564
G1 X141.217 Y56.421 E43.01692
G1 X141.717 Y56.921 E43.03125
G1 X143.034 Y58.800 E43.07773
G1 X143.544 Y60.380 E43.11138
G1 X149.834 Y93.730 E43.79907
G1 X149.949 Y94.959 E43.82407
G1 X149.949 Y122.494 E44.38203
G1 X149.552 Y124.754 E44.42852
G1 X148.007 Y127.181 E44.48682
G1 X147.507 Y127.681 E44.50114
G1 X145.629 Y128.998 E44.54763
G1 X142.820 Y129.623 E44.60593
G1 X50.396 Y129.623 E46.47875
G1 X49.914 Y129.605 E46.48851
G1 X45.060 Y129.251 E46.58712
G1 X42.836 Y128.691 E46.63360
G1 X40.855 Y127.328 E46.68233
G1 X40.148 Y126.620 E46.70260
G1 X38.831 Y124.742 E46.74908
G1 X38.377 Y123.428 E46.77726
G1 X30.222 Y88.180 E47.51035
G1 X30.051 Y86.686 E47.54082
G1 X30.073 Y85.451 E47.56586
G1 X31.133 Y72.183 E47.83556
G1 X31.282 Y71.221 E47.85529
G1 X34.282 Y58.221 E48.12564
G1 X35.177 Y56.109 E48.17212
G1 X36.054 Y55.024 E48.20037
G1 X36.554 Y54.524 E48.21470
G1 X38.132 Y53.418 E48.25375
G1 E45.25375 F2400.00000
G92 E0
G1 X88.462 Y105.943 F1800.000
G1 E3.00000 F2400.00000
G1 X88.844 Y105.561 E3.01095 F1800.000
G1 X89.453 Y104.090 E3.04321
G1 X89.757 Y104.150 E3.04948
G1 X89.757 Y107.673 E3.12086 F1800.000
G1 X86.731 Y107.673 E3.18217
G1 X88.419 Y105.985 E3.23054
G1 X87.975 Y105.541 F1800.000
G1 X88.311 Y105.205 E3.24018 F1800.000
G1 X88.770 Y104.096 E3.26448
G1 X88.770 Y95.151 E3.44574
G1 X90.385 Y95.151 E3.47846
G1 X90.385 Y122.302 E4.02860
G1 X89.770 Y122.302 E4.04106 F1800.000
G1 X89.770 Y108.302 E4.32474
G1 X86.385 Y108.302 E4.39334
G1 X86.385 Y120.707 E4.64472
G1 X85.078 Y122.015 E4.68218
G1 X84.643 Y121.580 E4.69464
G1 X85.770 Y120.453 E4.72694
G1 X85.770 Y108.096 E4.97732
G1 X86.018 Y107.498 E4.99046
G1 X87.933 Y105.583 E5.04531
G1 X87.584 Y105.235 F1800.000
G1 X87.894 Y104.926 E5.05035 F1800.000
G1 X88.278 Y103.998 E5.06191
G1 X88.278 Y95.042 E5.16505
G1 X88.660 Y94.659 E5.17129
G1 X90.495 Y94.659 E5.19241
G1 X90.878 Y95.042 E5.19864
G1 X90.878 Y122.411 E5.51383 F1800.000
G1 X90.495 Y122.794 E5.52006
G1 X89.660 Y122.794 E5.52967
G1 X89.278 Y122.411 E5.53591
G1 X89.278 Y108.794 E5.69272
G1 X86.878 Y108.794 E5.72036
G1 X86.878 Y120.911 E5.85989
G1 X85.348 Y122.441 E5.88480
G1 X84.807 Y122.441 E5.89104
G1 X84.217 Y121.851 E5.90064
G1 X84.217 Y121.309 E5.90688
G1 X85.278 Y120.249 E5.92415
G1 X85.278 Y107.998 E6.06522
G1 X85.601 Y107.218 E6.07494
G1 X87.542 Y105.277 E6.10656
G1 X87.971 Y105.338 F1800.000
G1 X87.887 Y107.006 F1800.000
G1 X88.174 Y107.292 E6.11767 F1800.000
G1 X89.356 Y107.272 E6.15007
G1 X88.488 Y106.405 E6.18370
G1 X89.089 Y105.804 E6.20700
G1 X89.376 Y106.090 E6.21810
G1 E3.21810 F2400.00000
G92 E0
G1 X89.578 Y103.794 F1800.000
G1 E3.00000 F2400.00000
G1 X89.578 Y95.466 E3.34906 F1800.000
G1 E0.34906 F2400.00000
G92 E0
G1 X84.095 Y107.770 F1800.000
G1 X77.716 Y90.243 F1800.000
G1 X72.590 Y92.104 F1800.000
G1 X70.926 Y92.852 F1800.000
G1 X69.944 Y94.760 F1800.000
G1 X68.528 Y107.191 F1800.000
G1 X71.034 Y107.770 F1800.000
G1 X76.008 Y107.673 F1800.000
G1 E3.00000 F2400.00000
G1 X73.670 Y107.673 E3.04736 F1800.000
G1 X75.783 Y105.561 E3.10790
G1 X76.392 Y104.090 E3.14016
G1 X76.696 Y104.150 E3.14643
G1 X76.696 Y107.673 E3.21782 F1800.000
G1 X76.068 Y107.673 E3.23054
G1 X76.068 Y108.302 F1800.000
G1 X73.324 Y108.302 E3.28614 F1800.000
G1 X73.324 Y120.707 E3.53752
G1 X72.017 Y122.015 E3.57498
G1 X71.582 Y121.580 E3.58744
G1 X72.710 Y120.453 E3.61974
G1 X72.710 Y108.096 E3.87012
G1 X72.958 Y107.498 E3.88326
G1 X75.251 Y105.205 E3.94896
G1 X75.710 Y104.096 E3.97327
G1 X75.710 Y95.151 E4.15452
G1 X77.324 Y95.151 E4.18724
G1 X77.324 Y122.302 E4.73739
G1 X76.710 Y122.302 E4.74984 F1800.000
G1 X76.710 Y108.302 E5.03353
G1 X76.128 Y108.302 E5.04531
G1 X76.128 Y108.794 F1800.000
G1 X73.817 Y108.794 E5.07193 F1800.000
G1 X73.817 Y120.911 E5.21146
G1 X72.288 Y122.441 E5.23637
G1 X71.746 Y122.441 E5.24261
G1 X71.156 Y121.851 E5.25221
G1 X71.156 Y121.309 E5.25845
G1 X72.217 Y120.249 E5.27572
G1 X72.217 Y107.998 E5.41679
G1 X72.540 Y107.218 E5.42651
G1 X74.833 Y104.926 E5.46386
G1 X75.217 Y103.998 E5.47541
G1 X75.217 Y95.042 E5.57856
G1 X75.600 Y94.659 E5.58479
G1 X77.434 Y94.659 E5.60592
G1 X77.817 Y95.042 E5.61215
G1 X77.817 Y122.411 E5.92734 F1800.000
G1 X77.434 Y122.794 E5.93357
G1 X76.600 Y122.794 E5.94318
G1 X76.217 Y122.411 E5.94941
G1 X76.217 Y108.794 E6.10623
G1 X76.188 Y108.794 E6.10656
G1 X75.928 Y108.448 F1800.000
G1 E3.10656 F2400.00000
G92 E0
G1 X74.827 Y107.006 F1800.000
G1 E3.00000 F2400.00000
G1 X75.113 Y107.292 E3.01111 F1800.000
G1 X76.295 Y107.272 E3.04351
G1 X75.428 Y106.405 E3.07714
G1 X76.028 Y105.804 E3.10044
G1 X76.315 Y106.090 E3.11155
G1 E0.11155 F2400.00000
G92 E0
G1 X76.517 Y103.794 F1800.000
G1 E3.00000 F2400.00000
G1 X76.517 Y95.466 E3.34906 F1800.000
G1 E0.34906 F2400.00000
G92 E0
G1 X71.034 Y107.770 F1800.000
G1 X67.391 Y91.887 F1800.000
G1 X60.017 Y90.324 F1800.000
G1 X56.935 Y92.015 F1800.000
G1 X56.934 Y93.655 F1800.000
G1 X55.467 Y107.191 F1800.000
G1 X57.974 Y107.770 F1800.000
G1 X62.108 Y107.673 F1800.000
G1 E3.00000 F2400.00000
G1 X60.610 Y107.673 E3.03035 F1800.000
G1 X62.723 Y105.561 E3.09090
G1 X63.332 Y104.090 E3.12315
G1 X63.635 Y104.150 E3.12942
G1 X63.635 Y107.673 E3.20081 F1800.000
G1 X62.168 Y107.673 E3.23054
G1 X62.168 Y108.302 F1800.000
G1 X60.263 Y108.302 E3.26913 F1800.000
G1 X60.263 Y120.707 E3.52051
G1 X58.956 Y122.015 E3.55798
G1 X58.522 Y121.580 E3.57043
G1 X59.649 Y120.453 E3.60273
G1 X59.649 Y108.096 E3.85311
G1 X59.897 Y107.498 E3.86625
G1 X62.190 Y105.205 E3.93195
G1 X62.649 Y104.096 E3.95626
G1 X62.649 Y95.151 E4.13751
G1 X64.263 Y95.151 E4.17023
G1 X64.263 Y122.302 E4.72038
G1 X63.649 Y122.302 E4.73283 F1800.000
G1 X63.649 Y108.302 E5.01652
G1 X62.228 Y108.302 E5.04531
G1 X62.228 Y108.794 F1800.000
G1 X60.756 Y108.794 E5.06226 F1800.000
G1 X60.756 Y120.911 E5.20180
G1 X59.227 Y122.441 E5.22670
G1 X58.685 Y122.441 E5.23294
G1 X58.096 Y121.851 E5.24255
G1 X58.096 Y121.309 E5.24878
G1 X59.156 Y120.249 E5.26606
G1 X59.156 Y107.998 E5.40713
G1 X59.479 Y107.218 E5.41685
G1 X61.772 Y104.926 E5.45419
G1 X62.156 Y103.998 E5.46575
G1 X62.156 Y95.042 E5.56889
G1 X62.539 Y94.659 E5.57513
G1 X64.373 Y94.659 E5.59625
G1 X64.756 Y95.042 E5.60248
G1 X64.756 Y122.411 E5.91767 F1800.000
G1 X64.373 Y122.794 E5.92390
G1 X63.539 Y122.794 E5.93351
G1 X63.156 Y122.411 E5.93975
G1 X63.156 Y108.794 E6.09656
G1 X62.288 Y108.794 E6.10656
G1 X62.028 Y108.448 F1800.000
G1 X61.766 Y107.006 F1800.000
G1 X62.052 Y107.292 E6.11767 F1800.000
G1 X63.234 Y107.272 E6.15007
G1 X62.367 Y106.405 E6.18370
G1 X62.968 Y105.804 E6.20700
G1 X63.254 Y106.090 E6.21810
G1 E3.21810 F2400.00000
G92 E0
G1 X63.456 Y103.794 F1800.000
G1 E3.00000 F2400.00000
G1 X63.456 Y95.466 E3.34906 F1800.000
G1 E0.34906 F2400.00000
G92 E0
G1 X57.974 Y107.770 F1800.000
G1 X56.072 Y91.064 F1800.000
G1 X46.319 Y91.101 F1800.000
G1 X43.299 Y93.523 F1800.000
G1 X41.749 Y94.742 F1800.000
G1 X39.369 Y106.490 F1800.000
G1 X44.913 Y107.770 F1800.000
G1 X48.572 Y106.651 F1800.000
G1 E3.00000 F2400.00000
G1 X49.662 Y105.561 E3.03124 F1800.000
G1 X50.271 Y104.090 E3.06350
G1 X50.574 Y104.150 E3.06977
G1 X50.574 Y107.673 E3.14116 F1800.000
G1 X47.549 Y107.673 E3.20246
G1 X48.529 Y106.693 E3.23054
G1 X48.085 Y106.249 F1800.000
G1 X49.129 Y105.205 E3.26047 F1800.000
G1 X49.588 Y104.096 E3.28477
G1 X49.588 Y95.151 E3.46603
G1 X51.203 Y95.151 E3.49875
G1 X51.203 Y122.302 E4.04890
G1 X50.588 Y122.302 E4.06135 F1800.000
G1 X50.588 Y108.302 E4.34503
G1 X47.203 Y108.302 E4.41363
G1 X47.203 Y120.707 E4.66501
G1 X45.896 Y122.015 E4.70248
G1 X45.461 Y121.580 E4.71493
G1 X46.588 Y120.453 E4.74723
G1 X46.588 Y108.096 E4.99761
G1 X46.836 Y107.498 E5.01075
G1 X48.042 Y106.291 E5.04531
G1 X47.694 Y105.943 F1800.000
G1 X48.711 Y104.926 E5.06188 F1800.000
G1 X49.095 Y103.998 E5.07344
G1 X49.095 Y95.042 E5.17658
G1 X49.478 Y94.659 E5.18282
G1 X51.313 Y94.659 E5.20394
G1 X51.696 Y95.042 E5.21018
G1 X51.696 Y122.411 E5.52536 F1800.000
G1 X51.313 Y122.794 E5.53160
G1 X50.478 Y122.794 E5.54120
G1 X50.095 Y122.411 E5.54744
G1 X50.095 Y108.794 E5.70425
G1 X47.696 Y108.794 E5.73189
G1 X47.696 Y120.911 E5.87143
G1 X46.166 Y122.441 E5.89633
G1 X45.625 Y122.441 E5.90257
G1 X45.035 Y121.851 E5.91218
G1 X45.035 Y121.309 E5.91841
G1 X46.095 Y120.249 E5.93568
G1 X46.095 Y107.998 E6.07675
G1 X46.419 Y107.218 E6.08648
G1 X47.652 Y105.985 E6.10656
G1 X48.080 Y106.046 F1800.000
G1 X48.705 Y107.006 F1800.000
G1 X48.992 Y107.292 E6.11767 F1800.000
G1 X50.174 Y107.272 E6.15007
G1 X49.306 Y106.405 E6.18370
G1 X49.907 Y105.804 E6.20700
G1 X50.194 Y106.090 E6.21810
G1 E3.21810 F2400.00000
G92 E0
G1 X50.396 Y103.794 F1800.000
G1 E3.00000 F2400.00000
G1 X50.396 Y95.466 E3.34906 F1800.000
G1 E0.34906 F2400.00000
G92 E0
G1 X49.197 Y93.459 F1800.000
G1 X47.741 Y89.944 F1800.000
G1 X48.772 Y89.116 F1800.000
G1 X44.740 Y87.446 F1800.000
G1 X41.424 Y70.395 F1800.000
G1 E3.00000 F2400.00000
G1 X41.507 Y70.313 E3.00236 F1800.000
G1 X42.116 Y68.842 E3.03462
G1 X42.419 Y68.903 E3.04089
G1 X42.419 Y72.426 E3.11228 F1800.000
G1 X39.394 Y72.426 E3.17358
G1 X41.382 Y70.438 E3.23054
G1 X40.938 Y69.994 F1800.000
G1 X40.974 Y69.957 E3.23159 F1800.000
G1 X41.433 Y68.849 E3.25589
G1 X41.433 Y59.904 E3.43715
