; generated by Slic3r 1.2.9 on 2021-04-30 at 21:44:24

; external perimeters extrusion width = 0.40mm
; perimeters extrusion width = 0.67mm
; infill extrusion width = 0.67mm
; solid infill extrusion width = 0.67mm
; top infill extrusion width = 0.67mm

M190 S60 ; set bed temperature
M104 S200 ; set temperature
G28 ; home all axes
G1 Z5 F5000 ; lift nozzle

M109 S200 ; wait for temperature to be reached
G21 ; set units to millimeters
G90 ; use absolute coordinates
M82 ; use absolute distances for extrusion
G92 E0
M106 S178.5
G1 Z0.200 F1800.000
G1 E-3.00000 F2400.00000
G92 E0
G1 X83.622 Y69.324 F1800.000
G1 E3.00000 F2400.00000
G1 X84.122 Y68.824 E3.01433 F1800.000
G1 X86.355 Y67.154 E3.07083
G1 X88.969 Y66.182 E3.12734
G1 X91.030 Y65.962 E3.16935
G1 X93.030 Y65.962 E3.20987
G1 X95.790 Y66.360 E3.26638
G1 X98.325 Y67.522 E3.32288 F1800.000
G1 X99.939 Y68.824 E3.36489
G1 X100.439 Y69.324 E3.37922
G1 X102.109 Y71.557 E3.43573
G1 X103.080 Y74.171 E3.49223
G1 X103.300 Y76.232 E3.53424
G1 X103.300 Y103.768 E4.09220
G1 X102.902 Y106.528 E4.14870
G1 X101.741 Y109.063 E4.20520
G1 X100.439 Y110.676 E4.24721
G1 X99.939 Y111.176 E4.26154
G1 X97.706 Y112.846 E4.31805
G1 X95.092 Y113.818 E4.37455
G1 X93.030 Y114.038 E4.41656
G1 X92.030 Y114.038 E4.43682
G1 X91.321 Y114.012 E4.45122
G1 X86.467 Y113.658 E4.54982
G1 X83.743 Y113.061 E4.60633
G1 X80.268 Y110.823 E4.69008
G1 X79.561 Y110.115 E4.71035
G1 X77.891 Y107.882 E4.76685
G1 X76.920 Y105.269 E4.82336
G1 X76.700 Y103.207 E4.86536
G1 X76.700 Y102.500 E4.87969
G1 X76.731 Y101.721 E4.89548
G1 X77.791 Y88.454 E5.16519
G1 X78.011 Y87.035 E5.19427
G1 X81.011 Y74.035 E5.46461
G1 X82.019 Y71.436 E5.52112
G1 X83.586 Y69.372 E5.57362
G1 X84.066 Y69.768 F1800.000
G1 X84.566 Y69.268 E5.58795 F1800.000
G1 X86.734 Y67.663 E5.64260
G1 X89.275 Y66.761 E5.69724
G1 X91.030 Y66.591 E5.73298
G1 X93.030 Y66.591 E5.77350
G1 X95.698 Y66.988 E5.82815
G1 X98.133 Y68.147 E5.88280 F1800.000
G1 X99.494 Y69.268 E5.91853
G1 X99.994 Y69.768 E5.93286
G1 X101.599 Y71.936 E5.98751
G1 X102.502 Y74.477 E6.04216
G1 X102.672 Y76.232 E6.07789
G1 X102.672 Y103.768 E6.63585
G1 X102.274 Y106.435 E6.69050
G1 X101.115 Y108.870 E6.74514
G1 X99.994 Y110.232 E6.78088
G1 X99.494 Y110.732 E6.79521
G1 X97.327 Y112.337 E6.84985
G1 X94.786 Y113.239 E6.90450
G1 X93.030 Y113.409 E6.94024
G1 X92.030 Y113.409 E6.96050
G1 X91.366 Y113.385 E6.97397
G1 X86.513 Y113.032 E7.07257
G1 X83.881 Y112.441 E7.12722
G1 X80.713 Y110.378 E7.20383
G1 X80.006 Y109.671 E7.22410
G1 X78.401 Y107.504 E7.27874
G1 X77.498 Y104.962 E7.33339
G1 X77.328 Y103.207 E7.36913
G1 X77.328 Y102.500 E7.38345
G1 X77.357 Y101.772 E7.39823
G1 X78.418 Y88.504 E7.66793
G1 X78.623 Y87.177 E7.69514
G1 X81.623 Y74.177 E7.96549
G1 X82.610 Y71.667 E8.02013
G1 X84.030 Y69.816 E8.06740
G1 X84.511 Y70.212 F1800.000
G1 X85.011 Y69.712 E8.08173 F1800.000
G1 X87.110 Y68.175 E8.13446
G1 X89.576 Y67.344 E8.18718
G1 X91.030 Y67.219 E8.21677
G1 X93.030 Y67.219 E8.25729
G1 X95.602 Y67.617 E8.31002
G1 X97.933 Y68.772 E8.36275 F1800.000
G1 X99.050 Y69.712 E8.39233
G1 X99.550 Y70.212 E8.40666
G1 X101.087 Y72.312 E8.45938
G1 X101.918 Y74.778 E8.51211
G1 X102.044 Y76.232 E8.54169
G1 X102.044 Y103.768 E9.09965
G1 X101.646 Y106.339 E9.15237
G1 X100.490 Y108.670 E9.20510
G1 X99.550 Y109.788 E9.23468
G1 X99.050 Y110.288 E9.24901
G1 X96.951 Y111.825 E9.30174
G1 X94.485 Y112.656 E9.35446
G1 X93.030 Y112.781 E9.38405
G1 X92.030 Y112.781 E9.40431
G1 X91.412 Y112.759 E9.41685
G1 X86.558 Y112.405 E9.51546
G1 X84.022 Y111.822 E9.56819
G1 X81.157 Y109.934 E9.63771
G1 X80.450 Y109.227 E9.65798
G1 X78.913 Y107.127 E9.71070
G1 X78.082 Y104.662 E9.76343
G1 X77.956 Y103.207 E9.79301
G1 X77.956 Y102.500 E9.80734
G1 X77.983 Y101.822 E9.82110
G1 X79.044 Y88.554 E10.09080
G1 X79.235 Y87.318 E10.11614
G1 X82.235 Y74.318 E10.38649
G1 X83.201 Y71.902 E10.43921
G1 X84.474 Y70.260 E10.48131
G1 X84.955 Y70.657 F1800.000
G1 X85.455 Y70.157 E10.49564 F1800.000
G1 X87.484 Y68.690 E10.54637
G1 X91.030 Y67.847 E10.62024
G1 X93.030 Y67.847 E10.66076
G1 X95.502 Y68.245 E10.71149
G1 X98.606 Y70.157 E10.78536 F1800.000
G1 X99.106 Y70.657 E10.79969
G1 X100.573 Y72.686 E10.85042
G1 X101.415 Y76.232 E10.92428
G1 X101.415 Y103.768 E11.48224
G1 X101.018 Y106.240 E11.53297
G1 X99.106 Y109.343 E11.60684
G1 X98.606 Y109.843 E11.62117
G1 X96.577 Y111.310 E11.67190
G1 X93.030 Y112.153 E11.74576
G1 X92.030 Y112.153 E11.76603
G1 X91.457 Y112.132 E11.77764
G1 X86.604 Y111.778 E11.87625
G1 X84.167 Y111.202 E11.92698
G1 X81.601 Y109.490 E11.98950
G1 X80.894 Y108.783 E12.00976
G1 X79.427 Y106.754 E12.06049
G1 X78.585 Y103.207 E12.13436
G1 X78.585 Y102.500 E12.14869
G1 X78.610 Y101.872 E12.16143
G1 X79.670 Y88.604 E12.43113
G1 X79.847 Y87.459 E12.45460
G1 X82.847 Y74.459 E12.72495
G1 X83.790 Y72.140 E12.77568
G1 X84.918 Y70.704 E12.81267
G1 X85.399 Y71.101 F1800.000
G1 X85.899 Y70.601 E12.82700 F1800.000
G1 X87.854 Y69.207 E12.87566
G1 X91.030 Y68.476 E12.94170
G1 X93.030 Y68.476 E12.98222
G1 X95.398 Y68.873 E13.03088
G1 X98.162 Y70.601 E13.09692 F1800.000
G1 X98.662 Y71.101 E13.11125
G1 X100.055 Y73.056 E13.15990
G1 X100.787 Y76.232 E13.22594
G1 X100.787 Y103.768 E13.78390
G1 X100.390 Y106.136 E13.83255
G1 X98.662 Y108.899 E13.89859
G1 X98.162 Y109.399 E13.91292
G1 X96.206 Y110.793 E13.96157
G1 X93.030 Y111.524 E14.02761
G1 X92.030 Y111.524 E14.04788
G1 X91.503 Y111.505 E14.05857
G1 X86.650 Y111.152 E14.15717
G1 X84.317 Y110.583 E14.20583
G1 X82.046 Y109.045 E14.26141
G1 X81.338 Y108.338 E14.28167
G1 X79.945 Y106.383 E14.33033
G1 X79.213 Y103.207 E14.39637
G1 X79.213 Y102.500 E14.41069
G1 X79.236 Y101.922 E14.42242
G1 X80.297 Y88.654 E14.69212
G1 X80.460 Y87.601 E14.71372
G1 X83.460 Y74.601 E14.98407
G1 X84.379 Y72.382 E15.03272
G1 X85.362 Y71.148 E15.06470
G1 X85.843 Y71.545 F1800.000
G1 X86.343 Y71.045 E15.07902 F1800.000
G1 X88.222 Y69.728 E15.12551
G1 X91.030 Y69.104 E15.18381
G1 X93.030 Y69.104 E15.22433
G1 X95.290 Y69.501 E15.27082
G1 X97.717 Y71.045 E15.32912 F1800.000
G1 X98.217 Y71.545 E15.34345
G1 X99.534 Y73.424 E15.38993
G1 X100.159 Y76.232 E15.44823
G1 X100.159 Y103.768 E16.00619
G1 X99.762 Y106.027 E16.05267
G1 X98.217 Y108.455 E16.11097
G1 X97.717 Y108.955 E16.12530
G1 X95.839 Y110.272 E16.17179
G1 X93.030 Y110.896 E16.23009
G1 X91.549 Y110.879 E16.26011
G1 X86.695 Y110.525 E16.35872
G1 X84.471 Y109.965 E16.40520
G1 X82.490 Y108.601 E16.45393
G1 X81.783 Y107.894 E16.47420
G1 X80.466 Y106.016 E16.52068
G1 X79.841 Y103.207 E16.57898
G1 X79.862 Y101.972 E16.60402
G1 X80.923 Y88.704 E16.87372
G1 X81.072 Y87.742 E16.89345
G1 X84.072 Y74.742 E17.16379
G1 X84.967 Y72.629 E17.21028
G1 X85.806 Y71.592 E17.23732
G1 E14.23732 F2400.00000
G92 E0
G1 X90.805 Y88.947 F1800.000
G1 E3.00000 F2400.00000
G1 X89.184 Y88.947 E3.03285 F1800.000
G1 X91.297 Y86.834 E3.09340
G1 X91.906 Y85.363 E3.12565
G1 X92.209 Y85.424 E3.13192
G1 X92.209 Y88.947 E3.20331 F1800.000
G1 X90.865 Y88.947 E3.23054
G1 X90.865 Y89.575 F1800.000
G1 X88.838 Y89.575 E3.27163 F1800.000
G1 X88.838 Y101.981 E3.52301
G1 X87.530 Y103.288 E3.56048
G1 X87.096 Y102.854 E3.57293
G1 X88.223 Y101.726 E3.60523
G1 X88.223 Y89.370 E3.85561
G1 X88.471 Y88.771 E3.86875
G1 X90.764 Y86.478 E3.93445
G1 X91.223 Y85.370 E3.95876
G1 X91.223 Y76.425 E4.14001
G1 X92.838 Y76.425 E4.17273
G1 X92.838 Y103.575 E4.72288
G1 X92.223 Y103.575 E4.73533 F1800.000
G1 X92.223 Y89.575 E5.01902
G1 X90.925 Y89.575 E5.04531
G1 X90.925 Y90.068 F1800.000
G1 X89.330 Y90.068 E5.06368 F1800.000
G1 X89.330 Y102.185 E5.20322
G1 X87.801 Y103.714 E5.22812
G1 X87.260 Y103.714 E5.23436
G1 X86.670 Y103.124 E5.24397
G1 X86.670 Y102.583 E5.25020
G1 X87.730 Y101.522 E5.26748
G1 X87.730 Y89.272 E5.40855
G1 X88.053 Y88.492 E5.41827
G1 X90.346 Y86.199 E5.45561
G1 X90.730 Y85.272 E5.46717
G1 X90.730 Y76.315 E5.57031
G1 X91.113 Y75.932 E5.57655
G1 X92.947 Y75.932 E5.59767
G1 X93.330 Y76.315 E5.60391
G1 X93.330 Y103.685 E5.91909 F1800.000
G1 X92.947 Y104.068 E5.92533
G1 X92.113 Y104.068 E5.93493
G1 X91.730 Y103.685 E5.94117
G1 X91.730 Y90.068 E6.09798
G1 X90.985 Y90.068 E6.10656
G1 X90.725 Y89.721 F1800.000
G1 X90.340 Y88.279 F1800.000
G1 X90.627 Y88.566 E6.11767 F1800.000
G1 X91.809 Y88.546 E6.15007
G1 X90.941 Y87.678 E6.18370
G1 X91.542 Y87.077 E6.20700
G1 X91.829 Y87.364 E6.21810
G1 E3.21810 F2400.00000
G92 E0
G1 X92.030 Y85.068 F1800.000
G1 E3.00000 F2400.00000
G1 X92.030 Y76.739 E3.34906 F1800.000
M106 S244.8
G1 Z0.400 F1800.000
G1 E0.34906 F2400.00000
G92 E0
G1 X90.745 Y88.947 F1800.000
G1 E3.00000 F2400.00000
G1 X89.184 Y88.947 E3.03164 F900.000
G1 X91.297 Y86.834 E3.09218
G1 X91.906 Y85.363 E3.12444
G1 X92.209 Y85.424 E3.13071
G1 X92.209 Y88.947 E3.20209 F900.000
G1 X90.805 Y88.947 E3.23054
G1 X90.805 Y89.575 F1800.000
G1 X88.838 Y89.575 E3.27042 F1800.000
G1 X88.838 Y101.981 E3.52180
G1 X87.530 Y103.288 E3.55926
G1 X87.096 Y102.854 E3.57171
G1 X88.223 Y101.726 E3.60402
G1 X88.223 Y89.370 E3.85439
G1 X88.471 Y88.771 E3.86753
G1 X90.764 Y86.478 E3.93324
G1 X91.223 Y85.370 E3.95754
G1 X91.223 Y76.425 E4.13880
G1 X92.838 Y76.425 E4.17151
G1 X92.838 Y103.575 E4.72166
G1 X92.223 Y103.575 E4.73412 F1800.000
G1 X92.223 Y89.575 E5.01780
G1 X90.865 Y89.575 E5.04531
G1 X90.865 Y90.068 F1800.000
G1 X89.330 Y90.068 E5.06299 F1350.000
G1 X89.330 Y102.185 E5.20253
G1 X87.801 Y103.714 E5.22743
G1 X87.260 Y103.714 E5.23367
G1 X86.670 Y103.124 E5.24328
G1 X86.670 Y102.583 E5.24951
G1 X87.730 Y101.522 E5.26678
G1 X87.730 Y89.272 E5.40785
G1 X88.053 Y88.492 E5.41758
G1 X90.346 Y86.199 E5.45492
G1 X90.730 Y85.272 E5.46647
G1 X90.730 Y76.315 E5.56962
G1 X91.113 Y75.932 E5.57586
G1 X92.947 Y75.932 E5.59698
G1 X93.185 Y76.170 E5.60085
G1 X93.330 Y76.315 E5.60321 F1350.000
G1 X93.330 Y103.685 E5.91840
G1 X92.947 Y104.068 E5.92463
G1 X92.113 Y104.068 E5.93424
G1 X91.730 Y103.685 E5.94048
G1 X91.730 Y90.068 E6.09729
G1 X90.925 Y90.068 E6.10656
G1 X90.665 Y89.721 F1800.000
G1 X91.522 Y88.566 F1800.000
G1 X91.829 Y88.259 E6.11844 F1800.000
G1 X91.809 Y87.077 E6.15085
G1 X90.340 Y88.546 E6.20777
G1 E3.20777 F2400.00000
G92 E0
G1 X92.030 Y85.068 F1800.000
G1 E3.00000 F2400.00000
G1 X92.030 Y76.739 E3.34906 F1800.000
G1 Z0.600 F1800.000
G1 E0.34906 F2400.00000
G92 E0
G1 X92.209 Y87.744 F1800.000
G1 E3.00000 F2400.00000
G1 X92.209 Y88.947 E3.02437 F900.000
G1 X89.184 Y88.947 E3.08567
G1 X91.297 Y86.834 E3.14621
G1 X91.906 Y85.363 E3.17847
G1 X92.209 Y85.424 E3.18474
G1 X92.209 Y87.684 E3.23054 F900.000
G1 X92.838 Y87.684 F1800.000
G1 X92.838 Y103.575 E3.55254 F1800.000
G1 X92.223 Y103.575 E3.56500 F1800.000
G1 X92.223 Y89.575 E3.84868
G1 X88.838 Y89.575 E3.91728
G1 X88.838 Y101.981 E4.16866
G1 X87.530 Y103.288 E4.20612
G1 X87.096 Y102.854 E4.21858
G1 X88.223 Y101.726 E4.25088
G1 X88.223 Y89.370 E4.50126
G1 X88.471 Y88.771 E4.51440
G1 X90.764 Y86.478 E4.58010
G1 X91.223 Y85.370 E4.60441
G1 X91.223 Y76.425 E4.78566
G1 X92.838 Y76.425 E4.81838
G1 X92.838 Y87.624 E5.04531
G1 X93.330 Y87.624 F1800.000
G1 X93.330 Y103.685 E5.23026 F1350.000
G1 X92.947 Y104.068 E5.23650
G1 X92.113 Y104.068 E5.24611
G1 X91.730 Y103.685 E5.25234
G1 X91.730 Y90.068 E5.40915
G1 X89.330 Y90.068 E5.43679
G1 X89.330 Y102.185 E5.57633
G1 X87.801 Y103.714 E5.60124
G1 X87.260 Y103.714 E5.60747
G1 X86.670 Y103.124 E5.61708
G1 X86.670 Y102.583 E5.62331
G1 X87.730 Y101.522 E5.64059
G1 X87.730 Y89.272 E5.78166
G1 X88.053 Y88.492 E5.79138
G1 X90.346 Y86.199 E5.82872
G1 X90.730 Y85.272 E5.84028
G1 X90.730 Y76.315 E5.94342
G1 X91.113 Y75.932 E5.94966
G1 X92.947 Y75.932 E5.97078
G1 X93.330 Y76.315 E5.97702
G1 X93.330 Y87.564 E6.10656 F1350.000
G1 X92.984 Y87.824 F1800.000
G1 X91.829 Y87.364 F1800.000
G1 X91.542 Y87.077 E6.11767 F1800.000
G1 X90.941 Y87.678 E6.14096
G1 X91.809 Y88.546 E6.17459
G1 X90.627 Y88.566 E6.20700
G1 X90.340 Y88.279 E6.21810
G1 E3.21810 F2400.00000
G92 E0
G1 X92.030 Y85.068 F1800.000
G1 E3.00000 F2400.00000
G1 X92.030 Y76.739 E3.34906 F1800.000
G1 Z0.800 F1800.000
G1 E0.34906 F2400.00000
G92 E0
G1 X90.340 Y87.791 F1800.000
G1 E3.00000 F2400.00000
G1 X91.297 Y86.834 E3.02742 F900.000
G1 X91.906 Y85.363 E3.05968
G1 X92.209 Y85.424 E3.06595
G1 X92.209 Y88.947 E3.13733 F900.000
G1 X89.184 Y88.947 E3.19864
G1 X90.297 Y87.833 E3.23054
G1 X89.853 Y87.389 F1800.000
G1 X90.764 Y86.478 E3.25665 F1800.000
G1 X91.223 Y85.370 E3.28095
G1 X91.223 Y76.425 E3.46221
G1 X92.838 Y76.425 E3.49492
G1 X92.838 Y103.575 E4.04507
G1 X92.223 Y103.575 E4.05753 F1800.000
G1 X92.223 Y89.575 E4.34121
G1 X88.838 Y89.575 E4.40981
G1 X88.838 Y101.981 E4.66119
G1 X87.530 Y103.288 E4.69865
G1 X87.096 Y102.854 E4.71111
G1 X88.223 Y101.726 E4.74341
G1 X88.223 Y89.370 E4.99379
G1 X88.471 Y88.771 E5.00692
G1 X89.811 Y87.431 E5.04531
G1 X89.462 Y87.083 F1800.000
G1 X90.346 Y86.199 E5.05971 F1350.000
G1 X90.730 Y85.272 E5.07126
G1 X90.730 Y76.315 E5.17441
G1 X91.113 Y75.932 E5.18065
G1 X92.947 Y75.932 E5.20177
G1 X93.330 Y76.315 E5.20800
G1 X93.330 Y103.685 E5.52319 F1350.000
G1 X92.947 Y104.068 E5.52942
G1 X92.113 Y104.068 E5.53903
G1 X91.730 Y103.685 E5.54527
G1 X91.730 Y90.068 E5.70208
G1 X89.330 Y90.068 E5.72972
G1 X89.330 Y102.185 E5.86925
G1 X87.801 Y103.714 E5.89416
G1 X87.260 Y103.714 E5.90040
G1 X86.670 Y103.124 E5.91000
G1 X86.670 Y102.583 E5.91624
G1 X87.730 Y101.522 E5.93351
G1 X87.730 Y89.272 E6.07458
G1 X88.053 Y88.492 E6.08430
G1 X89.420 Y87.125 E6.10656
G1 X89.849 Y87.187 F1800.000
G1 X90.340 Y88.546 F1800.000
G1 X91.809 Y87.077 E6.16348 F1800.000
G1 X91.829 Y88.259 E6.19588
G1 X91.522 Y88.566 E6.20777
G1 E3.20777 F2400.00000
G92 E0
G1 X92.030 Y85.068 F1800.000
G1 E3.00000 F2400.00000
G1 X92.030 Y76.739 E3.34906 F1800.000
G1 Z1.000 F1800.000
G1 E0.34906 F2400.00000
G92 E0
G1 X91.200 Y86.931 F1800.000
G1 E3.00000 F2400.00000
G1 X91.297 Y86.834 E3.00278 F900.000
G1 X91.906 Y85.363 E3.03504
G1 X92.209 Y85.424 E3.04131
G1 X92.209 Y88.947 E3.11270 F900.000
G1 X89.184 Y88.947 E3.17400
G1 X91.157 Y86.974 E3.23054
G1 X90.713 Y86.529 F1800.000
G1 X90.764 Y86.478 E3.23201 F1800.000
G1 X91.223 Y85.370 E3.25631
G1 X91.223 Y76.425 E3.43757
G1 X92.838 Y76.425 E3.47029
G1 X92.838 Y103.575 E4.02043
G1 X92.223 Y103.575 E4.03289 F1800.000
G1 X92.223 Y89.575 E4.31657
G1 X88.838 Y89.575 E4.38517
G1 X88.838 Y101.981 E4.63655
G1 X87.530 Y103.288 E4.67401
G1 X87.096 Y102.854 E4.68647
G1 X88.223 Y101.726 E4.71877
G1 X88.223 Y89.370 E4.96915
G1 X88.471 Y88.771 E4.98229
G1 X90.671 Y86.572 E5.04531
G1 X90.322 Y86.223 F1800.000
G1 X90.346 Y86.199 E5.04571 F1350.000
G1 X90.730 Y85.272 E5.05726
G1 X90.730 Y76.315 E5.16041
G1 X91.113 Y75.932 E5.16664
G1 X92.947 Y75.932 E5.18777
G1 X93.330 Y76.315 E5.19400
G1 X93.330 Y103.685 E5.50919 F1350.000
G1 X92.947 Y104.068 E5.51542
G1 X92.113 Y104.068 E5.52503
G1 X91.730 Y103.685 E5.53126
G1 X91.730 Y90.068 E5.68808
G1 X89.330 Y90.068 E5.71571
G1 X89.330 Y102.185 E5.85525
G1 X87.801 Y103.714 E5.88016
G1 X87.260 Y103.714 E5.88639
G1 X86.670 Y103.124 E5.89600
G1 X86.670 Y102.583 E5.90224
G1 X87.730 Y101.522 E5.91951
G1 X87.730 Y89.272 E6.06058
G1 X88.053 Y88.492 E6.07030
G1 X90.280 Y86.266 E6.10656
G1 X90.355 Y86.232 F1800.000
G1 X91.829 Y87.364 F1800.000
G1 X91.542 Y87.077 E6.11767 F1800.000
G1 X90.941 Y87.678 E6.14096
G1 X91.809 Y88.546 E6.17459
G1 X90.627 Y88.566 E6.20699
G1 X90.340 Y88.279 E6.21810
G1 E3.21810 F2400.00000
G92 E0
G1 X92.030 Y85.068 F1800.000
G1 E3.00000 F2400.00000
G1 X92.030 Y76.739 E3.34906 F1800.000
G1 Z1.200 F1800.000
G1 E0.34906 F2400.00000
G92 E0
G1 X90.683 Y88.947 F1800.000
G1 E3.00000 F2400.00000
G1 X89.184 Y88.947 E3.03038 F900.000
G1 X91.297 Y86.834 E3.09092
G1 X91.906 Y85.363 E3.12318
G1 X92.209 Y85.424 E3.12944
G1 X92.209 Y88.947 E3.20083 F900.000
G1 X90.743 Y88.947 E3.23054
G1 X90.743 Y89.575 F1800.000
G1 X88.838 Y89.575 E3.26915 F1800.000
G1 X88.838 Y101.981 E3.52053
G1 X87.530 Y103.288 E3.55800
G1 X87.096 Y102.854 E3.57045
G1 X88.223 Y101.726 E3.60276
G1 X88.223 Y89.370 E3.85313
G1 X88.471 Y88.771 E3.86627
G1 X90.764 Y86.478 E3.93198
G1 X91.223 Y85.370 E3.95628
G1 X91.223 Y76.425 E4.13754
G1 X92.838 Y76.425 E4.17025
G1 X92.838 Y103.575 E4.72040
G1 X92.223 Y103.575 E4.73286 F1800.000
G1 X92.223 Y89.575 E5.01654
G1 X90.803 Y89.575 E5.04531
