; generated by Slic3r 1.2.9 on 2021-03-24 at 20:14:50

; external perimeters extrusion width = 0.40mm
; perimeters extrusion width = 0.67mm
; infill extrusion width = 0.67mm
; solid infill extrusion width = 0.67mm
; top infill extrusion width = 0.67mm

M190 S60 ; set bed temperature
M104 S200 ; set temperature
G28 ; home all axes
G1 Z5 F5000 ; lift nozzle

M109 S200 ; wait for temperature to be reached
G21 ; set units to millimeters
G90 ; use absolute coordinates
M82 ; use absolute distances for extrusion
G92 E0
G1 Z0.300 F1800.000
G1 E-3.00000 F2400.00000
G92 E0
G1 X56.846 Y57.789 F1800.000
G1 E3.00000 F2400.00000
G1 X59.134 Y56.549 E3.05198 F1800.000
G1 X62.000 Y56.052 E3.11010
G1 X118.000 Y56.052 E4.22886
G1 X120.571 Y56.449 E4.28084
G1 X122.903 Y57.605 E4.33282 F1800.000
G1 X124.776 Y59.411 E4.38481
G1 X126.016 Y61.699 E4.43679
G1 X126.513 Y64.565 E4.49491
G1 X126.513 Y115.435 E5.51118
G1 X126.116 Y118.006 E5.56316
G1 X124.960 Y120.338 E5.61514
G1 X123.154 Y122.211 E5.66713
G1 X120.866 Y123.451 E5.71911
G1 X118.000 Y123.948 E5.77723
G1 X62.000 Y123.948 E6.89598
G1 X59.429 Y123.551 E6.94797
G1 X57.097 Y122.395 E6.99995
G1 X55.224 Y120.589 E7.05193
G1 X53.984 Y118.301 E7.10391
G1 X53.487 Y115.435 E7.16203
G1 X53.487 Y64.565 E8.17830
G1 X53.884 Y61.994 E8.23028
G1 X55.040 Y59.662 E8.28227
G1 X56.805 Y57.832 E8.33305
G1 X57.116 Y58.145 F1800.000
G1 X57.253 Y58.009 E8.33690 F1800.000
G1 X59.515 Y56.861 E8.38758
G1 X62.000 Y56.471 E8.43783
G1 X118.000 Y56.471 E9.55659
G1 X120.505 Y56.868 E9.60727
G1 X122.765 Y58.022 E9.65795 F1800.000
G1 X124.556 Y59.818 E9.70863
G1 X125.704 Y62.080 E9.75931
G1 X126.094 Y64.565 E9.80955
G1 X126.094 Y115.435 E10.82582
G1 X125.697 Y117.940 E10.87650
G1 X124.543 Y120.200 E10.92718
G1 X122.747 Y121.991 E10.97786
G1 X120.485 Y123.139 E11.02854
G1 X118.000 Y123.529 E11.07879
G1 X62.000 Y123.529 E12.19754
G1 X59.495 Y123.132 E12.24822
G1 X57.235 Y121.978 E12.29890
G1 X55.444 Y120.182 E12.34958
G1 X54.296 Y117.920 E12.40026
G1 X53.906 Y115.435 E12.45051
G1 X53.906 Y64.565 E13.46678
G1 X54.303 Y62.060 E13.51746
G1 X55.457 Y59.800 E13.56814
G1 X57.074 Y58.187 E13.61377
G1 X57.377 Y58.504 F1800.000
G1 X57.658 Y58.235 E13.62155 F1800.000
G1 X59.893 Y57.184 E13.67089
G1 X62.000 Y56.890 E13.71338
G1 X118.000 Y56.890 E14.83214
G1 X120.438 Y57.287 E14.88148
G1 X122.623 Y58.438 E14.93082 F1800.000
G1 X124.330 Y60.223 E14.98017
G1 X125.381 Y62.458 E15.02951
G1 X125.676 Y64.565 E15.07201
G1 X125.676 Y115.435 E16.08827
G1 X125.278 Y117.873 E16.13762
G1 X124.127 Y120.058 E16.18696
G1 X122.342 Y121.765 E16.23630
G1 X120.107 Y122.816 E16.28565
G1 X118.000 Y123.110 E16.32814
G1 X62.000 Y123.110 E17.44690
G1 X59.562 Y122.713 E17.49624
G1 X57.377 Y121.562 E17.54558
G1 X55.670 Y119.777 E17.59493
G1 X54.619 Y117.542 E17.64427
G1 X54.324 Y115.435 E17.68676
G1 X54.324 Y64.565 E18.70303
G1 X54.722 Y62.127 E18.75237
G1 X55.873 Y59.942 E18.80172
G1 X57.334 Y58.546 E18.84208
G1 X57.627 Y58.867 F1800.000
G1 X58.062 Y58.470 E18.85386 F1800.000
G1 X60.267 Y57.518 E18.90183
G1 X62.000 Y57.308 E18.93671
G1 X118.000 Y57.308 E20.05546
G1 X120.368 Y57.706 E20.10343
G1 X122.477 Y58.854 E20.15140 F1800.000
G1 X124.095 Y60.627 E20.19937
G1 X125.047 Y62.832 E20.24734
G1 X125.257 Y64.565 E20.28221
G1 X125.257 Y115.435 E21.29848
G1 X124.859 Y117.803 E21.34645
G1 X123.711 Y119.912 E21.39442
G1 X121.938 Y121.530 E21.44239
G1 X119.733 Y122.482 E21.49036
G1 X118.000 Y122.692 E21.52523
G1 X62.000 Y122.692 E22.64399
G1 X59.632 Y122.294 E22.69196
G1 X57.523 Y121.146 E22.73992
G1 X55.905 Y119.373 E22.78789
G1 X54.953 Y117.168 E22.83586
G1 X54.743 Y115.435 E22.87074
G1 X54.743 Y64.565 E23.88700
G1 X55.141 Y62.197 E23.93497
G1 X56.289 Y60.088 E23.98294
G1 X57.582 Y58.908 E24.01793
G1 X57.865 Y59.233 F1800.000
G1 X58.465 Y58.712 E24.03380 F1800.000
G1 X60.635 Y57.865 E24.08035
G1 X62.000 Y57.727 E24.10776
G1 X118.000 Y57.727 E25.22651
G1 X120.296 Y58.124 E25.27306
G1 X122.326 Y59.269 E25.31962 F1800.000
G1 X123.853 Y61.030 E25.36617
G1 X124.700 Y63.200 E25.41273
G1 X124.838 Y64.565 E25.44013
G1 X124.838 Y115.435 E26.45640
G1 X124.441 Y117.731 E26.50295
G1 X123.296 Y119.761 E26.54950
G1 X121.535 Y121.288 E26.59606
G1 X119.365 Y122.135 E26.64261
G1 X118.000 Y122.273 E26.67001
G1 X62.000 Y122.273 E27.78877
G1 X59.704 Y121.876 E27.83532
G1 X57.674 Y120.731 E27.88188
G1 X56.147 Y118.970 E27.92843
G1 X55.300 Y116.800 E27.97498
G1 X55.162 Y115.435 E28.00238
G1 X55.162 Y64.565 E29.01865
G1 X55.559 Y62.269 E29.06521
G1 X56.704 Y60.239 E29.11176
G1 X57.819 Y59.272 E29.14125
G1 X58.089 Y59.601 F1800.000
G1 X58.865 Y58.964 E29.16130 F1800.000
G1 X62.000 Y58.146 E29.22603
G1 X118.000 Y58.146 E30.34478
G1 X120.222 Y58.543 E30.38988
G1 X122.169 Y59.685 E30.43497 F1800.000
G1 X123.601 Y61.430 E30.48007
G1 X124.419 Y64.565 E30.54480
G1 X124.419 Y115.435 E31.56107
G1 X124.022 Y117.657 E31.60616
G1 X122.880 Y119.604 E31.65126
G1 X121.135 Y121.036 E31.69635
G1 X118.000 Y121.854 E31.76109
G1 X62.000 Y121.854 E32.87984
G1 X59.778 Y121.457 E32.92494
G1 X57.831 Y120.315 E32.97003
G1 X56.399 Y118.570 E33.01512
G1 X55.581 Y115.435 E33.07986
G1 X55.581 Y64.565 E34.09613
G1 X55.978 Y62.343 E34.14122
G1 X57.120 Y60.396 E34.18631
G1 X58.042 Y59.639 E34.21016
G1 E31.21016 F2400.00000
G92 E0
G1 X63.834 Y76.908 F1800.000
G1 E3.00000 F2400.00000
G1 X63.834 Y66.399 E3.20994 F1800.000
G1 X85.166 Y66.399 E3.63611
G1 X85.166 Y67.101 E3.65014
G1 X70.166 Y67.101 E3.94980 F1800.000
G1 X70.166 Y112.899 E4.86474
G1 X85.166 Y112.899 E5.16441
G1 X85.166 Y113.601 E5.17844
G1 X63.834 Y113.601 E5.60461
G1 X63.834 Y101.834 E5.83969
G1 X68.834 Y101.834 E5.93958
G1 X68.834 Y78.166 E6.41241
G1 X63.834 Y78.166 E6.51230
G1 X63.834 Y76.968 E6.53624
G1 X63.415 Y76.968 F1800.000
G1 X63.415 Y65.980 E6.75575 F1800.000
G1 X85.585 Y65.980 E7.19866
G1 X85.585 Y67.520 E7.22942
G1 X70.585 Y67.520 E7.52909 F1800.000
G1 X70.585 Y112.480 E8.42729
G1 X85.585 Y112.480 E8.72696
G1 X85.585 Y114.020 E8.75772
G1 X63.415 Y114.020 E9.20063
G1 X63.415 Y101.415 E9.45245
G1 X68.415 Y101.415 E9.55234
G1 X68.415 Y78.585 E10.00843
G1 X63.415 Y78.585 E10.10832
G1 X63.415 Y77.028 E10.13943
G1 X62.996 Y77.028 F1800.000
G1 X62.996 Y65.561 E10.36850 F1800.000
G1 X86.004 Y65.561 E10.82815
G1 X86.004 Y67.939 E10.87565
G1 X71.004 Y67.939 E11.17532 F1800.000
G1 X71.004 Y112.061 E12.05678
G1 X86.004 Y112.061 E12.35645
G1 X86.004 Y114.439 E12.40395
G1 X62.996 Y114.439 E12.86359
G1 X62.996 Y100.996 E13.13215
G1 X67.996 Y100.996 E13.23204
G1 X67.996 Y79.004 E13.67139
G1 X62.996 Y79.004 E13.77128
G1 X62.996 Y77.088 E13.80956
G1 X62.577 Y77.088 F1800.000
G1 X62.577 Y65.142 E14.04821 F1800.000
G1 X86.423 Y65.142 E14.52459
G1 X86.423 Y68.358 E14.58882
G1 X71.423 Y68.358 E14.88849 F1800.000
G1 X71.423 Y111.642 E15.75322
G1 X86.423 Y111.642 E16.05289
G1 X86.423 Y114.858 E16.11712
G1 X62.577 Y114.858 E16.59350
G1 X62.577 Y100.577 E16.87879
G1 X67.577 Y100.577 E16.97868
G1 X67.577 Y79.423 E17.40130
G1 X62.577 Y79.423 E17.50119
G1 X62.577 Y77.148 E17.54665
G1 X62.200 Y77.148 F1800.000
G1 X62.200 Y64.765 E17.74485 F1800.000
G1 X86.800 Y64.765 E18.13862
G1 X86.800 Y68.735 E18.20217
G1 X71.800 Y68.735 E18.44227 F1800.000
G1 X71.800 Y111.265 E19.12304
G1 X86.800 Y111.265 E19.36314
G1 X86.800 Y115.235 E19.42669
G1 X62.200 Y115.235 E19.82046
G1 X62.200 Y100.200 E20.06112
G1 X67.200 Y100.200 E20.14115
G1 X67.200 Y79.800 E20.46769
G1 X62.200 Y79.800 E20.54773
G1 X62.200 Y77.208 E20.58922
G1 X62.546 Y76.948 F1800.000
G1 E17.58922 F2400.00000
G92 E0
G1 X64.657 Y77.919 F1800.000
G1 E3.00000 F2400.00000
G1 X64.081 Y77.343 E3.01640 F1800.000
G1 X64.081 Y76.746 E3.02840
G1 X65.254 Y77.919 E3.06178
G1 X65.851 Y77.919 E3.07378
G1 X64.081 Y76.149 E3.12413
G1 X64.081 Y75.553 E3.13613
G1 X66.447 Y77.919 E3.20345
G1 X67.044 Y77.919 E3.21545
G1 X64.081 Y74.956 E3.29975
G1 X64.081 Y74.360 E3.31175
G1 X67.640 Y77.919 E3.41302
G1 X68.237 Y77.919 E3.42502
G1 X64.081 Y73.763 E3.54326
G1 X64.081 Y73.167 E3.55526
G1 X68.833 Y77.919 E3.69048
G1 X69.081 Y78.167 F1800.000
G1 X69.919 Y79.004 E3.71432 F1800.000
G1 X69.919 Y78.408 E3.72632
G1 X64.081 Y72.570 E3.89242
G1 X64.081 Y71.973 E3.90442
G1 X69.919 Y77.811 E4.07052
G1 X69.919 Y77.215 E4.08252
G1 X64.081 Y71.377 E4.24862
G1 X64.081 Y70.780 E4.26062
G1 X69.919 Y76.618 E4.42672
G1 X69.919 Y76.022 E4.43873
G1 X64.081 Y70.184 E4.60483
G1 X64.081 Y69.587 E4.61683
G1 X69.919 Y75.425 E4.78293
G1 X69.919 Y74.829 E4.79493
G1 X64.081 Y68.991 E4.96103
G1 X64.081 Y68.394 E4.97303
G1 X69.919 Y74.232 E5.13913
G1 X69.919 Y73.635 E5.15114
G1 X64.081 Y67.798 E5.31724
G1 X64.081 Y67.201 E5.32924
G1 X69.919 Y73.039 E5.49534
G1 X69.919 Y72.442 E5.50734
G1 X64.123 Y66.646 E5.67225
G1 X64.719 Y66.646 E5.68426
G1 X69.919 Y71.846 E5.83220
G1 X69.919 Y71.249 E5.84420
G1 X65.316 Y66.646 E5.97516
G1 X65.912 Y66.646 E5.98717
G1 X69.919 Y70.653 E6.10116
G1 X69.919 Y70.056 E6.11316
G1 X66.509 Y66.646 E6.21018
G1 X67.106 Y66.646 E6.22218
G1 X69.919 Y69.459 E6.30223
G1 X69.919 Y68.863 E6.31423
G1 X67.702 Y66.646 E6.37731
G1 X68.299 Y66.646 E6.38931
G1 X69.919 Y68.266 E6.43541
G1 X69.919 Y67.670 E6.44741
G1 X68.895 Y66.646 E6.47654
G1 X69.492 Y66.646 E6.48854
G1 X69.710 Y66.864 E6.49473
G1 E3.49473 F2400.00000
G92 E0
G1 X69.081 Y78.763 F1800.000
G1 E3.00000 F2400.00000
G1 X69.919 Y79.601 E3.02384 F1800.000
G1 X69.919 Y80.198 E3.03584
G1 X69.081 Y79.360 E3.05968
G1 X69.081 Y79.956 E3.07168
G1 X69.919 Y80.794 E3.09552
G1 X69.919 Y81.391 E3.10753
G1 X69.081 Y80.553 E3.13136
G1 X69.081 Y81.149 E3.14337
G1 X69.919 Y81.987 E3.16721
G1 X69.919 Y82.584 E3.17921
G1 X69.081 Y81.746 E3.20305
G1 X69.081 Y82.343 E3.21505
G1 X69.919 Y83.180 E3.23889
G1 X69.919 Y83.777 E3.25089
G1 X69.081 Y82.939 E3.27473
G1 X69.081 Y83.536 E3.28673
G1 X69.919 Y84.374 E3.31057
G1 X69.919 Y84.970 E3.32258
G1 X69.081 Y84.132 E3.34641
G1 X69.081 Y84.729 E3.35842
G1 X69.919 Y85.567 E3.38226
G1 X69.919 Y86.163 E3.39426
G1 X69.081 Y85.325 E3.41810
G1 X69.081 Y85.922 E3.43010
G1 X69.919 Y86.760 E3.45394
G1 X69.919 Y87.356 E3.46594
G1 X69.081 Y86.518 E3.48978
G1 X69.081 Y87.115 E3.50178
G1 X69.919 Y87.953 E3.52562
G1 X69.919 Y88.549 E3.53763
G1 X69.081 Y87.712 E3.56147
G1 X69.081 Y88.308 E3.57347
G1 X69.919 Y89.146 E3.59731
G1 X69.919 Y89.743 E3.60931
G1 X69.081 Y88.905 E3.63315
G1 X69.081 Y89.501 E3.64515
G1 X69.919 Y90.339 E3.66899
G1 X69.919 Y90.936 E3.68099
G1 X69.081 Y90.098 E3.70483
G1 X69.081 Y90.694 E3.71683
G1 X69.919 Y91.532 E3.74067
G1 X69.919 Y92.129 E3.75268
G1 X69.081 Y91.291 E3.77652
G1 X69.081 Y91.887 E3.78852
G1 X69.919 Y92.725 E3.81236
G1 X69.919 Y93.322 E3.82436
G1 X69.081 Y92.484 E3.84820
G1 X69.081 Y93.081 E3.86020
G1 X69.919 Y93.919 E3.88404
G1 X69.919 Y94.515 E3.89604
G1 X69.081 Y93.677 E3.91988
G1 X69.081 Y94.274 E3.93188
G1 X69.919 Y95.112 E3.95572
G1 X69.919 Y95.708 E3.96773
G1 X69.081 Y94.870 E3.99157
G1 X69.081 Y95.467 E4.00357
G1 X69.919 Y96.305 E4.02741
G1 X69.919 Y96.901 E4.03941
G1 X69.081 Y96.063 E4.06325
G1 X69.081 Y96.660 E4.07525
G1 X69.919 Y97.498 E4.09909
G1 X69.919 Y98.094 E4.11109
G1 X69.081 Y97.257 E4.13493
G1 X69.081 Y97.853 E4.14693
G1 X69.919 Y98.691 E4.17077
G1 X69.919 Y99.288 E4.18278
G1 X69.081 Y98.450 E4.20662
G1 X69.081 Y99.046 E4.21862
G1 X69.919 Y99.884 E4.24246
G1 X69.919 Y100.481 E4.25446
G1 X69.081 Y99.643 E4.27830
G1 X69.081 Y100.239 E4.29030
G1 X69.919 Y101.077 E4.31414
G1 X69.919 Y101.674 E4.32614
G1 X69.081 Y100.836 E4.34998
G1 X69.081 Y101.432 E4.36198
G1 X69.919 Y102.270 E4.38582
G1 X69.919 Y102.867 E4.39783
G1 X69.081 Y102.029 E4.42167
G1 X68.537 Y102.081 E4.43267
G1 X69.919 Y103.463 E4.47200
G1 X69.919 Y104.060 E4.48401
G1 X67.940 Y102.081 E4.54031
G1 X67.343 Y102.081 E4.55231
G1 X69.919 Y104.657 E4.62559
G1 X69.919 Y105.253 E4.63760
G1 X66.747 Y102.081 E4.72785
G1 X66.150 Y102.081 E4.73985
G1 X69.919 Y105.850 E4.84708
G1 X69.919 Y106.446 E4.85908
G1 X65.554 Y102.081 E4.98328
G1 X64.957 Y102.081 E4.99528
G1 X69.919 Y107.043 E5.13646
G1 X69.919 Y107.639 E5.14846
G1 X64.361 Y102.081 E5.30661
G1 X64.081 Y102.398 E5.31511
G1 X69.919 Y108.236 E5.48121
G1 X69.919 Y108.833 E5.49321
G1 X64.081 Y102.995 E5.65931
G1 X64.081 Y103.591 E5.67131
G1 X69.919 Y109.429 E5.83741
G1 X69.919 Y110.026 E5.84942
G1 X64.081 Y104.188 E6.01552
G1 X64.081 Y104.784 E6.02752
G1 X69.919 Y110.622 E6.19362
G1 X69.919 Y111.219 E6.20562
G1 X64.081 Y105.381 E6.37172
G1 X64.081 Y105.977 E6.38372
G1 X69.919 Y111.815 E6.54982
G1 X69.919 Y112.412 E6.56182
G1 X64.081 Y106.574 E6.72792
G1 X64.081 Y107.171 E6.73993
G1 X69.710 Y112.799 E6.90007
G1 X69.668 Y113.354 E6.91126
G1 X64.081 Y107.767 E7.07022
G1 X64.081 Y108.364 E7.08222
G1 X69.071 Y113.354 E7.22420
G1 X68.475 Y113.354 E7.23620
G1 X64.081 Y108.960 E7.36121
G1 X64.081 Y109.557 E7.37321
G1 X67.878 Y113.354 E7.48125
G1 X67.282 Y113.354 E7.49325
G1 X64.081 Y110.153 E7.58431
G1 X64.081 Y110.750 E7.59631
G1 X66.685 Y113.354 E7.67040
G1 X66.088 Y113.354 E7.68240
G1 X64.081 Y111.347 E7.73952
G1 X64.081 Y111.943 E7.75152
G1 X65.492 Y113.354 E7.79166
G1 X64.895 Y113.354 E7.80366
G1 X64.081 Y112.540 E7.82683
G1 X64.081 Y113.136 E7.83883
G1 X64.299 Y113.354 E7.84503
G1 E4.84503 F2400.00000
G92 E0
G1 X69.957 Y113.250 F1800.000
G1 E3.00000 F2400.00000
G1 X84.957 Y113.250 E3.29967 F1800.000
G1 E0.29967 F2400.00000
G92 E0
G1 X68.630 Y112.065 F1800.000
G1 X68.000 Y76.000 F1800.000
G1 X68.630 Y67.935 F1800.000
G1 X71.000 Y66.750 F1800.000
G1 X84.815 Y66.750 F1800.000
G1 X84.957 Y66.750 F1800.000
G1 E3.00000 F2400.00000
G1 X69.957 Y66.750 E3.29967 F1800.000
G1 E0.29967 F2400.00000
G92 E0
G1 X88.000 Y62.086 F1800.000
G1 X88.000 Y62.086 F1800.000
G1 X90.000 Y62.086 F1800.000
G1 X92.000 Y62.086 F1800.000
G1 X94.834 Y103.397 F1800.000
G1 E3.00000 F2400.00000
G1 X94.834 Y101.834 E3.03123 F1800.000
G1 X99.834 Y101.834 E3.13112
G1 X99.834 Y78.166 E3.60395
G1 X94.834 Y78.166 E3.70384
G1 X94.834 Y66.399 E3.93892
G1 X116.166 Y66.399 E4.36509
G1 X116.166 Y67.101 E4.37912
G1 X101.166 Y67.101 E4.67878 F1800.000
G1 X101.166 Y112.899 E5.59372
G1 X116.166 Y112.899 E5.89339
G1 X116.166 Y113.601 E5.90742
G1 X94.834 Y113.601 E6.33359
G1 X94.834 Y103.457 E6.53624
G1 X94.415 Y103.457 F1800.000
G1 X94.415 Y101.415 E6.57704 F1800.000
G1 X99.415 Y101.415 E6.67693
G1 X99.415 Y78.585 E7.13302
G1 X94.415 Y78.585 E7.23291
G1 X94.415 Y65.980 E7.48473
G1 X116.585 Y65.980 E7.92763
G1 X116.585 Y67.520 E7.95840
G1 X101.585 Y67.520 E8.25806 F1800.000
G1 X101.585 Y112.480 E9.15627
G1 X116.585 Y112.480 E9.45593
G1 X116.585 Y114.020 E9.48670
G1 X94.415 Y114.020 E9.92961
G1 X94.415 Y103.517 E10.13943
G1 X93.996 Y103.517 F1800.000
G1 X93.996 Y100.996 E10.18979 F1800.000
G1 X98.996 Y100.996 E10.28968
G1 X98.996 Y79.004 E10.72904
G1 X93.996 Y79.004 E10.82893
G1 X93.996 Y65.561 E11.09748
G1 X117.004 Y65.561 E11.55713
G1 X117.004 Y67.939 E11.60463
G1 X102.004 Y67.939 E11.90429 F1800.000
G1 X102.004 Y112.061 E12.78576
G1 X117.004 Y112.061 E13.08543
G1 X117.004 Y114.439 E13.13293
G1 X93.996 Y114.439 E13.59257
G1 X93.996 Y103.577 E13.80956
G1 X93.577 Y103.577 F1800.000
G1 X93.577 Y100.577 E13.86949 F1800.000
G1 X98.577 Y100.577 E13.96938
G1 X98.577 Y79.423 E14.39200
G1 X93.577 Y79.423 E14.49189
G1 X93.577 Y65.142 E14.77718
G1 X117.423 Y65.142 E15.25356
G1 X117.423 Y68.358 E15.31780
G1 X102.423 Y68.358 E15.61747 F1800.000
G1 X102.423 Y111.642 E16.48220
G1 X117.423 Y111.642 E16.78186
G1 X117.423 Y114.858 E16.84610
G1 X93.577 Y114.858 E17.32248
G1 X93.577 Y103.637 E17.54665
G1 X93.200 Y103.637 F1800.000
G1 X93.200 Y100.200 E17.60166 F1800.000
G1 X98.200 Y100.200 E17.68170
G1 X98.200 Y79.800 E18.00823
G1 X93.200 Y79.800 E18.08827
G1 X93.200 Y64.765 E18.32893
G1 X117.800 Y64.765 E18.72270
G1 X117.800 Y68.735 E18.78625
G1 X102.800 Y68.735 E19.02635 F1800.000
G1 X102.800 Y111.265 E19.70712
G1 X117.800 Y111.265 E19.94722
G1 X117.800 Y115.235 E20.01077
G1 X93.200 Y115.235 E20.40454
G1 X93.200 Y103.697 E20.58922
G1 X93.546 Y103.437 F1800.000
G1 E17.58922 F2400.00000
G92 E0
G1 X95.299 Y113.354 F1800.000
G1 E3.00000 F2400.00000
G1 X95.081 Y113.136 E3.00619 F1800.000
G1 X95.081 Y112.540 E3.01820
G1 X95.895 Y113.354 E3.04136
G1 X96.492 Y113.354 E3.05337
