; generated by Slic3r 1.2.9 on 2021-03-25 at 22:15:39

; external perimeters extrusion width = 0.40mm
; perimeters extrusion width = 0.67mm
; infill extrusion width = 0.67mm
; solid infill extrusion width = 0.67mm
; top infill extrusion width = 0.67mm

M190 S60 ; set bed temperature
M104 S200 ; set temperature
G28 ; home all axes
G1 Z5 F5000 ; lift nozzle

M109 S200 ; wait for temperature to be reached
G21 ; set units to millimeters
G90 ; use absolute coordinates
M82 ; use absolute distances for extrusion
G92 E0
G1 Z0.300 F1800.000
G1 E-3.00000 F2400.00000
G92 E0
G1 X58.395 Y58.395 F1800.000
G1 E3.00000 F2400.00000
G1 X59.137 Y57.654 E3.02096 F1800.000
G1 X120.863 Y57.654 E4.25410
G1 X124.912 Y61.702 E4.36849
G1 X124.912 Y71.798 E4.57017 F1800.000
G1 X120.863 Y75.846 E4.68456
G1 X110.157 Y75.846 E4.89844
G1 X109.912 Y76.092 E4.90537
G1 X109.912 Y103.908 E5.46108
G1 X110.157 Y104.154 E5.46801
G1 X120.863 Y104.154 E5.68190
G1 X124.912 Y108.202 E5.79628
G1 X124.912 Y118.298 E5.99797
G1 X120.863 Y122.346 E6.11236
G1 X59.137 Y122.346 E7.34550
G1 X55.088 Y118.298 E7.45988
G1 X55.088 Y97.137 E7.88263
G1 X59.137 Y93.088 E7.99701
G1 X59.843 Y93.088 E8.01112
G1 X60.088 Y92.843 E8.01805
G1 X60.088 Y87.157 E8.13165
G1 X59.843 Y86.912 E8.13858
G1 X59.137 Y86.912 E8.15268
G1 X55.088 Y82.863 E8.26707
G1 X55.088 Y61.702 E8.68981
G1 X58.353 Y58.438 E8.78204
G1 X58.649 Y58.734 F1800.000
G1 X59.311 Y58.072 E8.80073 F1800.000
G1 X89.689 Y58.072 E9.40763
G1 X89.826 Y58.210 E9.41151 F1800.000
G1 X90.174 Y58.210 E9.41844
G1 X90.311 Y58.072 E9.42231
G1 X120.689 Y58.072 E10.02921
G1 X124.493 Y61.876 E10.13667
G1 X124.493 Y71.624 E10.33142
G1 X120.689 Y75.428 E10.43888
G1 X109.738 Y75.428 E10.65766
G1 X109.493 Y75.673 E10.66459
G1 X109.493 Y104.327 E11.23704
G1 X109.738 Y104.572 E11.24397
G1 X120.689 Y104.572 E11.46275
G1 X124.493 Y108.376 E11.57021
G1 X124.493 Y118.124 E11.76496
G1 X120.689 Y121.928 E11.87241
G1 X90.311 Y121.928 E12.47931
G1 X90.174 Y121.790 E12.48319
G1 X89.826 Y121.790 E12.49012
G1 X89.689 Y121.928 E12.49400
G1 X59.311 Y121.928 E13.10089
G1 X55.507 Y118.124 E13.20835
G1 X55.507 Y97.311 E13.62416
G1 X59.311 Y93.507 E13.73161
G1 X60.262 Y93.507 E13.75062
G1 X60.507 Y93.262 E13.75755
G1 X60.507 Y86.738 E13.88788
G1 X60.262 Y86.493 E13.89482
G1 X59.311 Y86.493 E13.91382
G1 X55.507 Y82.689 E14.02128
G1 X55.507 Y61.876 E14.43709
G1 X58.607 Y58.776 E14.52465
G1 X58.903 Y59.073 F1800.000
G1 X59.484 Y58.491 E14.54107 F1800.000
G1 X89.516 Y58.491 E15.14104
G1 X89.826 Y58.802 E15.14982
G1 X90.174 Y58.802 E15.15675 F1800.000
G1 X90.484 Y58.491 E15.16553
G1 X120.516 Y58.491 E15.76549
G1 X124.074 Y62.049 E15.86601
G1 X124.074 Y71.451 E16.05384
G1 X120.516 Y75.009 E16.15436
G1 X109.319 Y75.009 E16.37804
G1 X109.074 Y75.254 E16.38498
G1 X109.074 Y104.746 E16.97416
G1 X109.319 Y104.991 E16.98109
G1 X120.516 Y104.991 E17.20478
G1 X124.074 Y108.549 E17.30530
G1 X124.074 Y117.951 E17.49312
G1 X120.516 Y121.509 E17.59364
G1 X90.484 Y121.509 E18.19361
G1 X90.174 Y121.198 E18.20238
G1 X89.826 Y121.198 E18.20932
G1 X89.516 Y121.509 E18.21809
G1 X59.484 Y121.509 E18.81806
G1 X55.926 Y117.951 E18.91858
G1 X55.926 Y97.484 E19.32746
G1 X59.484 Y93.926 E19.42798
G1 X60.681 Y93.926 E19.45189
G1 X60.926 Y93.681 E19.45882
G1 X60.926 Y86.319 E19.60589
G1 X60.681 Y86.074 E19.61282
G1 X59.484 Y86.074 E19.63673
G1 X55.926 Y82.516 E19.73725
G1 X55.926 Y62.049 E20.14613
G1 X58.860 Y59.115 E20.22903
G1 X59.157 Y59.411 F1800.000
G1 X59.658 Y58.910 E20.24318 F1800.000
G1 X89.342 Y58.910 E20.83622
G1 X89.826 Y59.394 E20.84990 F1800.000
G1 X90.174 Y59.394 E20.85683
G1 X90.658 Y58.910 E20.87051
G1 X120.342 Y58.910 E21.46354
G1 X123.655 Y62.223 E21.55713
G1 X123.655 Y71.277 E21.73802
G1 X120.342 Y74.590 E21.83161
G1 X108.900 Y74.590 E22.06020
G1 X108.655 Y74.835 E22.06713
G1 X108.655 Y105.165 E22.67305
G1 X108.900 Y105.410 E22.67998
G1 X120.342 Y105.410 E22.90857
G1 X123.655 Y108.723 E23.00216
G1 X123.655 Y117.777 E23.18305
G1 X120.342 Y121.090 E23.27664
G1 X90.658 Y121.090 E23.86967
G1 X90.174 Y120.606 E23.88335
G1 X89.826 Y120.606 E23.89028
G1 X89.342 Y121.090 E23.90396
G1 X59.658 Y121.090 E24.49699
G1 X56.345 Y117.777 E24.59058
G1 X56.345 Y97.658 E24.99253
G1 X59.658 Y94.345 E25.08612
G1 X61.100 Y94.345 E25.11493
G1 X61.345 Y94.100 E25.12186
G1 X61.345 Y85.900 E25.28567
G1 X61.100 Y85.655 E25.29260
G1 X59.658 Y85.655 E25.32141
G1 X56.345 Y82.342 E25.41500
G1 X56.345 Y62.223 E25.81694
G1 X59.114 Y59.454 E25.89518
G1 X59.410 Y59.750 F1800.000
G1 X59.831 Y59.329 E25.90706 F1800.000
G1 X89.169 Y59.329 E26.49316
G1 X89.826 Y59.987 E26.51175
G1 X90.174 Y59.987 E26.51868 F1800.000
G1 X90.831 Y59.329 E26.53726
G1 X120.169 Y59.329 E27.12336
G1 X123.236 Y62.396 E27.21002
G1 X123.236 Y71.104 E27.38397
G1 X120.169 Y74.171 E27.47063
G1 X108.481 Y74.171 E27.70412
G1 X108.236 Y74.416 E27.71105
G1 X108.236 Y105.584 E28.33371
G1 X108.481 Y105.829 E28.34064
G1 X120.169 Y105.829 E28.57413
G1 X123.236 Y108.896 E28.66079
G1 X123.236 Y117.604 E28.83474
G1 X120.169 Y120.671 E28.92140
G1 X90.831 Y120.671 E29.50750
G1 X90.174 Y120.013 E29.52608
G1 X89.826 Y120.013 E29.53301
G1 X89.169 Y120.671 E29.55160
G1 X59.831 Y120.671 E30.13770
G1 X56.764 Y117.604 E30.22435
G1 X56.764 Y97.831 E30.61936
G1 X59.831 Y94.764 E30.70602
G1 X61.519 Y94.764 E30.73973
G1 X61.764 Y94.519 E30.74667
G1 X61.764 Y85.481 E30.92721
G1 X61.519 Y85.236 E30.93414
G1 X59.831 Y85.236 E30.96785
G1 X56.764 Y82.169 E31.05451
G1 X56.764 Y62.396 E31.44952
G1 X59.368 Y59.792 E31.52309
G1 X59.664 Y60.088 F1800.000
G1 X60.005 Y59.748 E31.53271 F1800.000
G1 X88.995 Y59.748 E32.11188
G1 X89.826 Y60.579 E32.13536 F1800.000
G1 X90.174 Y60.579 E32.14230
G1 X91.005 Y59.748 E32.16578
G1 X119.995 Y59.748 E32.74495
G1 X122.817 Y62.570 E32.82467
G1 X122.817 Y70.930 E32.99170
G1 X119.995 Y73.752 E33.07142
G1 X108.062 Y73.752 E33.30981
G1 X107.817 Y73.997 E33.31675
G1 X107.817 Y106.003 E33.95614
G1 X108.062 Y106.248 E33.96307
G1 X119.995 Y106.248 E34.20146
G1 X122.817 Y109.070 E34.28118
G1 X122.817 Y117.430 E34.44821
G1 X119.995 Y120.252 E34.52793
G1 X91.005 Y120.252 E35.10710
G1 X90.174 Y119.421 E35.13058
G1 X89.826 Y119.421 E35.13752
G1 X88.995 Y120.252 E35.16100
G1 X60.005 Y120.252 E35.74017
G1 X57.183 Y117.430 E35.81989
G1 X57.183 Y98.005 E36.20797
G1 X60.005 Y95.183 E36.28770
G1 X61.938 Y95.183 E36.32631
G1 X62.183 Y94.938 E36.33324
G1 X62.183 Y85.062 E36.53052
G1 X61.938 Y84.817 E36.53746
G1 X60.005 Y84.817 E36.57607
G1 X57.183 Y81.995 E36.65579
G1 X57.183 Y62.570 E37.04387
G1 X59.622 Y60.131 E37.11278
G1 X59.918 Y60.427 F1800.000
G1 X60.178 Y60.167 E37.12013 F1800.000
G1 X88.822 Y60.167 E37.69237
G1 X89.826 Y61.171 E37.72075
G1 X90.174 Y61.171 E37.72768 F1800.000
G1 X91.178 Y60.167 E37.75607
G1 X119.822 Y60.167 E38.32831
G1 X122.398 Y62.743 E38.40110
G1 X122.398 Y70.757 E38.56119
G1 X119.822 Y73.333 E38.63398
G1 X107.644 Y73.333 E38.87727
G1 X107.398 Y73.579 E38.88421
G1 X107.398 Y106.421 E39.54033
G1 X107.644 Y106.667 E39.54727
G1 X119.822 Y106.667 E39.79056
G1 X122.398 Y109.243 E39.86335
G1 X122.398 Y117.257 E40.02344
G1 X119.822 Y119.833 E40.09624
G1 X91.178 Y119.833 E40.66847
G1 X90.174 Y118.829 E40.69686
G1 X89.826 Y118.829 E40.70379
G1 X88.822 Y119.833 E40.73217
G1 X60.178 Y119.833 E41.30441
G1 X57.602 Y117.257 E41.37720
G1 X57.602 Y98.178 E41.75835
G1 X60.178 Y95.602 E41.83114
G1 X62.356 Y95.602 E41.87466
G1 X62.602 Y95.356 E41.88159
G1 X62.602 Y84.644 E42.09561
G1 X62.356 Y84.398 E42.10254
G1 X60.178 Y84.398 E42.14605
G1 X57.602 Y81.822 E42.21885
G1 X57.602 Y62.743 E42.59999
G1 X59.876 Y60.469 E42.66423
G1 X60.172 Y60.766 F1800.000
G1 X60.352 Y60.586 E42.66932 F1800.000
G1 X88.648 Y60.586 E43.23462
G1 X89.826 Y61.764 E43.26791 F1800.000
G1 X90.174 Y61.764 E43.27484
G1 X91.352 Y60.586 E43.30813
G1 X119.648 Y60.586 E43.87343
G1 X121.979 Y62.917 E43.93929
G1 X121.979 Y70.583 E44.09245
G1 X119.648 Y72.914 E44.15831
G1 X107.225 Y72.914 E44.40650
G1 X106.979 Y73.160 E44.41344
G1 X106.979 Y106.840 E45.08630
G1 X107.225 Y107.086 E45.09323
G1 X119.648 Y107.086 E45.34143
G1 X121.979 Y109.417 E45.40729
G1 X121.979 Y117.083 E45.56045
G1 X119.648 Y119.414 E45.62631
G1 X91.352 Y119.414 E46.19161
G1 X90.174 Y118.236 E46.22490
G1 X89.826 Y118.236 E46.23183
G1 X88.648 Y119.414 E46.26512
G1 X60.352 Y119.414 E46.83042
G1 X58.021 Y117.083 E46.89628
G1 X58.021 Y98.352 E47.27049
G1 X60.352 Y96.021 E47.33635
G1 X62.775 Y96.021 E47.38477
G1 X63.021 Y95.775 E47.39170
G1 X63.021 Y84.225 E47.62246
G1 X62.775 Y83.979 E47.62939
G1 X60.352 Y83.979 E47.67781
G1 X58.021 Y81.648 E47.74367
G1 X58.021 Y62.917 E48.11788
G1 X60.129 Y60.808 E48.17746
G1 X60.425 Y61.104 F1800.000
G1 X60.525 Y61.005 E48.18027 F1800.000
G1 X88.475 Y61.005 E48.73864
G1 X89.826 Y62.356 E48.77683
G1 X90.174 Y62.356 E48.78377 F1800.000
G1 X91.525 Y61.005 E48.82196
G1 X119.475 Y61.005 E49.38033
G1 X121.560 Y63.090 E49.43925
G1 X121.560 Y70.410 E49.58548
G1 X119.475 Y72.495 E49.64441
G1 X106.806 Y72.495 E49.89750
G1 X106.560 Y72.741 E49.90444
G1 X106.560 Y107.259 E50.59404
G1 X106.806 Y107.505 E50.60097
G1 X119.475 Y107.505 E50.85407
G1 X121.560 Y109.590 E50.91299
G1 X121.560 Y116.910 E51.05922
G1 X119.475 Y118.995 E51.11815
G1 X91.525 Y118.995 E51.67652
G1 X90.174 Y117.644 E51.71471
G1 X89.826 Y117.644 E51.72164
G1 X88.475 Y118.995 E51.75983
G1 X60.525 Y118.995 E52.31820
G1 X58.440 Y116.910 E52.37713
G1 X58.440 Y98.525 E52.74441
G1 X60.525 Y96.440 E52.80334
G1 X63.194 Y96.440 E52.85666
G1 X63.440 Y96.194 E52.86359
G1 X63.440 Y83.806 E53.11108
G1 X63.194 Y83.560 E53.11801
G1 X60.525 Y83.560 E53.17133
G1 X58.440 Y81.475 E53.23026
G1 X58.440 Y63.090 E53.59754
G1 X60.383 Y61.147 E53.65245
G1 X60.679 Y61.443 F1800.000
G1 X60.699 Y61.423 E53.65300 F1800.000
G1 X88.301 Y61.423 E54.20444
G1 X89.826 Y62.949 E54.24753 F1800.000
G1 X90.174 Y62.949 E54.25446
G1 X91.699 Y61.423 E54.29755
G1 X119.301 Y61.423 E54.84899
G1 X121.142 Y63.264 E54.90099
G1 X121.142 Y70.236 E55.04028
G1 X119.301 Y72.077 E55.09227
G1 X106.387 Y72.077 E55.35027
G1 X106.142 Y72.322 E55.35721
G1 X106.142 Y107.678 E56.06354
G1 X106.387 Y107.923 E56.07048
G1 X119.301 Y107.923 E56.32848
G1 X121.142 Y109.764 E56.38047
G1 X121.142 Y116.736 E56.51976
G1 X119.301 Y118.577 E56.57176
G1 X91.699 Y118.577 E57.12320
G1 X90.174 Y117.051 E57.16629
G1 X89.826 Y117.051 E57.17322
G1 X88.301 Y118.577 E57.21631
G1 X60.699 Y118.577 E57.76775
G1 X58.858 Y116.736 E57.81974
G1 X58.858 Y98.699 E58.18009
G1 X60.699 Y96.858 E58.23209
G1 X63.613 Y96.858 E58.29031
G1 X63.858 Y96.613 E58.29724
G1 X63.858 Y83.387 E58.56147
G1 X63.613 Y83.142 E58.56840
G1 X60.699 Y83.142 E58.62662
G1 X58.858 Y81.301 E58.67862
G1 X58.858 Y63.264 E59.03897
G1 X60.637 Y61.485 E59.08921
G1 X60.872 Y61.842 F1800.000
G1 X88.128 Y61.842 E59.63372 F1800.000
G1 X89.826 Y63.541 E59.68171
G1 X90.174 Y63.541 E59.68864 F1800.000
G1 X91.872 Y61.842 E59.73664
G1 X119.128 Y61.842 E60.28114
G1 X120.723 Y63.437 E60.32620
G1 X120.723 Y70.063 E60.45857
G1 X119.128 Y71.658 E60.50363
G1 X105.968 Y71.658 E60.76653
G1 X105.723 Y71.903 E60.77346
G1 X105.723 Y108.097 E61.49654
G1 X105.968 Y108.342 E61.50347
G1 X119.128 Y108.342 E61.76637
G1 X120.723 Y109.937 E61.81143
G1 X120.723 Y116.563 E61.94379
G1 X119.128 Y118.158 E61.98885
G1 X91.872 Y118.158 E62.53336
G1 X90.174 Y116.459 E62.58135
G1 X89.826 Y116.459 E62.58829
G1 X88.128 Y118.158 E62.63628
G1 X60.872 Y118.158 E63.18079
G1 X59.277 Y116.563 E63.22585
G1 X59.277 Y98.872 E63.57926
G1 X60.872 Y97.277 E63.62433
G1 X64.032 Y97.277 E63.68745
G1 X64.277 Y97.032 E63.69438
G1 X64.277 Y82.968 E63.97535
G1 X64.032 Y82.723 E63.98228
G1 X60.872 Y82.723 E64.04540
G1 X59.277 Y81.128 E64.09046
G1 X59.277 Y63.437 E64.44388
G1 X60.830 Y61.885 E64.48774
G1 E61.48774 F2400.00000
G92 E0
G1 X61.586 Y60.500 F1800.000
G1 X89.071 Y61.015 F1800.000
G1 X90.000 Y61.566 F1800.000
G1 X90.000 Y62.086 F1800.000
G1 X90.696 Y63.611 F1800.000
G1 E3.00000 F2400.00000
G1 X92.046 Y62.261 E3.03813 F1800.000
G1 X118.954 Y62.261 E3.57570
G1 X120.304 Y63.611 E3.61383 F1800.000
G1 X120.304 Y69.889 E3.73926
G1 X118.954 Y71.239 E3.77739
G1 X105.549 Y71.239 E4.04519
G1 X105.304 Y71.484 E4.05213
G1 X105.304 Y108.516 E4.79194
G1 X105.549 Y108.761 E4.79887
G1 X118.954 Y108.761 E5.06667
G1 X120.304 Y110.111 E5.10480
G1 X120.304 Y116.389 E5.23023
G1 X118.954 Y117.739 E5.26836
G1 X92.046 Y117.739 E5.80593
G1 X90.696 Y116.389 E5.84406
G1 X90.696 Y99.046 E6.19055
G1 X92.046 Y97.696 E6.22868
G1 X95.451 Y97.696 E6.29670
G1 X95.696 Y97.451 E6.30363
G1 X95.696 Y82.549 E6.60133
G1 X95.451 Y82.304 E6.60827
G1 X92.046 Y82.304 E6.67629
G1 X90.696 Y80.954 E6.71442
G1 X90.696 Y63.671 E7.05971
G1 X91.115 Y63.784 F1800.000
G1 X92.219 Y62.680 E7.09090 F1800.000
G1 X118.781 Y62.680 E7.62154
G1 X119.885 Y63.784 E7.65274
G1 X119.885 Y69.716 E7.77124 F1800.000
G1 X118.781 Y70.820 E7.80243
G1 X105.130 Y70.820 E8.07514
G1 X104.885 Y71.065 E8.08207
G1 X104.885 Y108.935 E8.83862
G1 X105.130 Y109.180 E8.84555
G1 X118.781 Y109.180 E9.11826
G1 X119.885 Y110.284 E9.14945
G1 X119.885 Y116.216 E9.26795
G1 X118.781 Y117.320 E9.29915
G1 X92.219 Y117.320 E9.82979
G1 X91.115 Y116.216 E9.86098
G1 X91.115 Y99.219 E10.20054
G1 X92.219 Y98.115 E10.23173
G1 X95.870 Y98.115 E10.30466
G1 X96.115 Y97.870 E10.31159
G1 X96.115 Y82.130 E10.62603
G1 X95.870 Y81.885 E10.63296
G1 X92.219 Y81.885 E10.70589
G1 X91.115 Y80.781 E10.73709
G1 X91.115 Y63.844 E11.07544
G1 X91.534 Y63.958 F1800.000
G1 X92.393 Y63.099 E11.09971 F1800.000
G1 X118.607 Y63.099 E11.62341
G1 X119.466 Y63.958 E11.64768 F1800.000
G1 X119.466 Y69.542 E11.75924
G1 X118.607 Y70.401 E11.78351
G1 X104.711 Y70.401 E12.06111
G1 X104.466 Y70.646 E12.06805
G1 X104.466 Y109.354 E12.84133
G1 X104.711 Y109.599 E12.84826
G1 X118.607 Y109.599 E13.12587
G1 X119.466 Y110.458 E13.15013
G1 X119.466 Y116.042 E13.26170
G1 X118.607 Y116.901 E13.28596
G1 X92.393 Y116.901 E13.80967
G1 X91.534 Y116.042 E13.83393
G1 X91.534 Y99.393 E14.16655
G1 X92.393 Y98.534 E14.19082
G1 X96.289 Y98.534 E14.26865
G1 X96.534 Y98.289 E14.27558
G1 X96.534 Y81.711 E14.60675
G1 X96.289 Y81.466 E14.61369
G1 X92.393 Y81.466 E14.69152
G1 X91.534 Y80.607 E14.71578
G1 X91.534 Y64.018 E15.04720
G1 X91.953 Y64.131 F1800.000
G1 X92.566 Y63.518 E15.06453 F1800.000
G1 X118.434 Y63.518 E15.58131
G1 X119.047 Y64.131 E15.59864
G1 X119.047 Y69.369 E15.70327 F1800.000
G1 X118.434 Y69.982 E15.72060
G1 X104.293 Y69.982 E16.00311
G1 X104.047 Y70.228 E16.01005
G1 X104.047 Y109.772 E16.80007
G1 X104.293 Y110.018 E16.80700
G1 X118.434 Y110.018 E17.08951
G1 X119.047 Y110.631 E17.10684
G1 X119.047 Y115.869 E17.21147
G1 X118.434 Y116.482 E17.22880
G1 X92.566 Y116.482 E17.74558
G1 X91.953 Y115.869 E17.76291
G1 X91.953 Y99.566 E18.08860
G1 X92.566 Y98.953 E18.10593
G1 X96.707 Y98.953 E18.18866
G1 X96.953 Y98.707 E18.19559
G1 X96.953 Y81.293 E18.54350
G1 X96.707 Y81.047 E18.55044
G1 X92.566 Y81.047 E18.63317
G1 X91.953 Y80.434 E18.65050
G1 X91.953 Y64.191 E18.97499
G1 X92.372 Y64.305 F1800.000
G1 X92.740 Y63.937 E18.98539 F1800.000
G1 X118.260 Y63.937 E19.49523
G1 X118.628 Y64.305 E19.50563 F1800.000
G1 X118.628 Y69.195 E19.60333
G1 X118.260 Y69.563 E19.61373
G1 X103.874 Y69.563 E19.90114
G1 X103.628 Y69.809 E19.90807
G1 X103.628 Y110.191 E20.71483
G1 X103.874 Y110.437 E20.72176
G1 X118.260 Y110.437 E21.00917
G1 X118.628 Y110.805 E21.01957
G1 X118.628 Y115.695 E21.11727
G1 X118.260 Y116.063 E21.12767
G1 X92.740 Y116.063 E21.63751
G1 X92.372 Y115.695 E21.64791
G1 X92.372 Y99.740 E21.96667
G1 X92.740 Y99.372 E21.97707
G1 X97.126 Y99.372 E22.06470
G1 X97.372 Y99.126 E22.07163
G1 X97.372 Y80.874 E22.43628
G1 X97.126 Y80.628 E22.44321
G1 X92.740 Y80.628 E22.53084
G1 X92.372 Y80.260 E22.54124
G1 X92.372 Y64.365 E22.85880
G1 X92.791 Y64.478 F1800.000
G1 X92.913 Y64.356 E22.86227 F1800.000
G1 X118.087 Y64.356 E23.36518
G1 X118.209 Y64.478 E23.36864
G1 X118.209 Y69.022 E23.45941 F1800.000
G1 X118.087 Y69.144 E23.46288
G1 X103.455 Y69.144 E23.75519
G1 X103.209 Y69.390 E23.76212
G1 X103.209 Y110.610 E24.58562
G1 X103.455 Y110.856 E24.59255
G1 X118.087 Y110.856 E24.88486
G1 X118.209 Y110.978 E24.88833
G1 X118.209 Y115.522 E24.97910
