; generated by Slic3r 1.2.9 on 2021-05-09 at 21:35:58

; external perimeters extrusion width = 0.40mm
; perimeters extrusion width = 0.67mm
; infill extrusion width = 0.67mm
; solid infill extrusion width = 0.67mm
; top infill extrusion width = 0.67mm

M190 S60 ; set bed temperature
M104 S205 ; set temperature
G28 ; home all axes
G1 Z5 F5000 ; lift nozzle

M109 S205 ; wait for temperature to be reached
G21 ; set units to millimeters
G90 ; use absolute coordinates
M82 ; use absolute distances for extrusion
G92 E0
M106 S89.25
G1 Z0.200 F1800.000
G1 E-3.00000 F2400.00000
G92 E0
G1 X68.484 Y51.976 F1800.000
G1 E3.00000 F2400.00000
G1 X69.270 Y50.980 E3.02535 F1800.000
G1 X70.168 Y50.090 E3.05061
G1 X71.172 Y49.311 E3.07599
G1 X71.825 Y48.896 E3.09145
G1 X73.100 Y48.266 E3.11986
G1 X73.770 Y48.015 E3.13416
G1 X74.918 Y47.699 E3.15794
G1 X75.813 Y47.550 E3.17607
G1 X76.087 Y47.518 E3.18157
G1 X77.121 Y47.463 E3.20226
G1 X105.779 Y47.463 E3.77479
G1 X108.539 Y47.861 E3.83050 F1800.000
G1 X111.074 Y49.022 E3.88621
G1 X113.178 Y50.853 E3.94192
G1 X114.679 Y53.203 E3.99763
G1 X115.205 Y54.666 E4.02870
G1 X115.377 Y55.381 E4.04338
G1 X115.504 Y56.084 E4.05766
G1 X115.613 Y57.049 E4.07706
G1 X115.646 Y57.779 E4.09166
G1 X115.649 Y122.000 E5.37465
G1 X115.635 Y122.578 E5.38619
G1 X115.583 Y123.290 E5.40046
G1 X115.430 Y124.351 E5.42187
G1 X115.206 Y125.333 E5.44201
G1 X114.097 Y127.892 E5.49772
G1 X112.310 Y130.033 E5.55342
G1 X109.991 Y131.582 E5.60913
G1 X107.330 Y132.413 E5.66484
G1 X105.779 Y132.537 E5.69592
G1 X77.121 Y132.537 E6.26845
G1 X76.086 Y132.482 E6.28915
G1 X75.693 Y132.435 E6.29706
G1 X74.919 Y132.302 E6.31274
G1 X73.841 Y132.009 E6.33507
G1 X73.177 Y131.766 E6.34918
G1 X71.870 Y131.130 E6.37823
G1 X71.172 Y130.689 E6.39472
G1 X70.168 Y129.910 E6.42011
G1 X69.217 Y128.959 E6.44697
G1 X68.403 Y127.905 E6.47359
G1 X67.602 Y126.509 E6.50573
G1 X67.153 Y125.393 E6.52976
G1 X66.709 Y123.571 E6.56723
G1 X66.677 Y123.343 E6.57183
G1 X66.584 Y122.000 E6.59872
G1 X66.584 Y58.000 E7.87730
G1 X66.677 Y56.657 E7.90419
G1 X66.709 Y56.429 E7.90880
G1 X67.153 Y54.607 E7.94627
G1 X67.602 Y53.491 E7.97029
G1 X68.450 Y52.026 E8.00412
G1 X68.968 Y52.382 F1800.000
G1 X69.741 Y51.397 E8.02913 F1800.000
G1 X70.581 Y50.564 E8.05277
G1 X71.524 Y49.831 E8.07663
G1 X72.141 Y49.439 E8.09123
G1 X73.337 Y48.847 E8.11789
G1 X74.040 Y48.587 E8.13287
G1 X75.048 Y48.313 E8.15373
G1 X76.113 Y48.147 E8.17527
G1 X77.121 Y48.091 E8.19543
G1 X105.779 Y48.091 E8.76796
G1 X108.446 Y48.489 E8.82184 F1800.000
G1 X110.882 Y49.648 E8.87572
G1 X112.873 Y51.467 E8.92960
G1 X114.599 Y54.831 E9.00514
G1 X114.778 Y55.588 E9.02068
G1 X114.919 Y56.434 E9.03780
G1 X114.993 Y57.193 E9.05305
G1 X115.020 Y58.000 E9.06918
G1 X115.020 Y122.000 E10.34775
G1 X114.993 Y122.807 E10.36388
G1 X114.929 Y123.483 E10.37745
G1 X114.806 Y124.269 E10.39333
G1 X114.599 Y125.168 E10.41178
G1 X113.515 Y127.638 E10.46566
G1 X111.757 Y129.683 E10.51954
G1 X109.479 Y131.126 E10.57342
G1 X105.779 Y131.909 E10.64897
G1 X77.121 Y131.909 E11.22150
G1 X76.153 Y131.858 E11.24086
G1 X75.774 Y131.812 E11.24848
G1 X75.049 Y131.687 E11.26318
G1 X74.040 Y131.413 E11.28407
G1 X73.414 Y131.184 E11.29737
G1 X72.186 Y130.587 E11.32467
G1 X71.525 Y130.169 E11.34030
G1 X70.581 Y129.436 E11.36417
G1 X69.687 Y128.543 E11.38941
G1 X68.920 Y127.548 E11.41450
G1 X68.151 Y126.200 E11.44550
G1 X67.747 Y125.187 E11.46730
G1 X67.331 Y123.482 E11.50236
G1 X67.299 Y123.257 E11.50691
G1 X67.212 Y122.000 E11.53207
G1 X67.212 Y58.000 E12.81065
G1 X67.299 Y56.744 E12.83581
G1 X67.331 Y56.518 E12.84035
G1 X67.747 Y54.813 E12.87541
G1 X68.171 Y53.758 E12.89814
G1 X68.934 Y52.432 E12.92870
G1 X69.451 Y52.788 F1800.000
G1 X70.158 Y51.874 E12.95178 F1800.000
G1 X70.993 Y51.038 E12.97540
G1 X71.877 Y50.352 E12.99775
G1 X72.457 Y49.982 E13.01149
G1 X73.574 Y49.429 E13.03638
G1 X74.239 Y49.183 E13.05056
G1 X75.177 Y48.928 E13.06998
G1 X76.180 Y48.772 E13.09024
G1 X77.121 Y48.719 E13.10908
G1 X105.779 Y48.719 E13.68160
G1 X108.350 Y49.117 E13.73359 F1800.000
G1 X110.682 Y50.273 E13.78557
G1 X112.555 Y52.079 E13.83755
G1 X113.993 Y54.996 E13.90253
G1 X114.163 Y55.714 E13.91726
G1 X114.295 Y56.513 E13.93343
G1 X114.366 Y57.237 E13.94798
G1 X114.392 Y58.000 E13.96323
G1 X114.392 Y122.000 E15.24181
G1 X114.366 Y122.763 E15.25706
G1 X114.306 Y123.404 E15.26992
G1 X114.189 Y124.153 E15.28506
G1 X113.993 Y125.003 E15.30250
G1 X112.934 Y127.380 E15.35448
G1 X111.206 Y129.326 E15.40646
G1 X108.972 Y130.659 E15.45845
G1 X105.779 Y131.281 E15.52343
G1 X77.121 Y131.281 E16.09596
G1 X76.219 Y131.233 E16.11399
G1 X75.856 Y131.189 E16.12130
G1 X75.179 Y131.072 E16.13504
G1 X74.239 Y130.817 E16.15449
G1 X73.651 Y130.602 E16.16698
G1 X72.502 Y130.044 E16.19251
G1 X71.877 Y129.648 E16.20729
G1 X70.993 Y128.962 E16.22965
G1 X70.158 Y128.126 E16.25326
G1 X69.437 Y127.192 E16.27682
G1 X68.720 Y125.934 E16.30575
G1 X68.340 Y124.980 E16.32626
G1 X67.953 Y123.392 E16.35891
G1 X67.921 Y123.170 E16.36339
G1 X67.841 Y122.000 E16.38683
G1 X67.841 Y58.000 E17.66540
G1 X67.921 Y56.830 E17.68884
G1 X67.953 Y56.608 E17.69332
G1 X68.340 Y55.020 E17.72597
G1 X68.740 Y54.024 E17.74740
G1 X69.420 Y52.839 E17.77470
G1 X69.955 Y53.165 F1800.000
G1 X70.628 Y52.291 E17.79674 F1800.000
G1 X71.406 Y51.512 E17.81873
G1 X72.229 Y50.872 E17.83956
G1 X72.773 Y50.525 E17.85245
G1 X73.811 Y50.011 E17.87558
G1 X74.438 Y49.779 E17.88894
G1 X75.307 Y49.543 E17.90693
G1 X76.246 Y49.396 E17.92592
G1 X77.121 Y49.348 E17.94342
G1 X105.779 Y49.348 E18.51595
G1 X108.251 Y49.745 E18.56597 F1800.000
G1 X110.473 Y50.898 E18.61598
G1 X112.223 Y52.689 E18.66600
G1 X113.387 Y55.161 E18.72060
G1 X113.547 Y55.839 E18.73452
G1 X113.672 Y56.591 E18.74975
G1 X113.740 Y57.281 E18.76359
G1 X113.764 Y58.000 E18.77796
G1 X113.764 Y122.000 E20.05654
G1 X113.752 Y122.499 E20.06650
G1 X113.707 Y123.106 E20.07867
G1 X113.576 Y124.010 E20.09692
G1 X113.387 Y124.838 E20.11389
G1 X112.354 Y127.119 E20.16391
G1 X110.658 Y128.961 E20.21392
G1 X108.471 Y130.178 E20.26394
G1 X105.779 Y130.652 E20.31854
G1 X77.121 Y130.652 E20.89107
G1 X76.286 Y130.608 E20.90777
G1 X75.937 Y130.566 E20.91478
G1 X75.308 Y130.457 E20.92754
G1 X74.438 Y130.221 E20.94556
G1 X73.888 Y130.020 E20.95724
G1 X72.818 Y129.501 E20.98101
G1 X72.229 Y129.128 E20.99493
G1 X71.406 Y128.488 E21.01577
G1 X70.628 Y127.709 E21.03776
G1 X69.955 Y126.835 E21.05980
G1 X69.289 Y125.667 E21.08666
G1 X68.933 Y124.774 E21.10587
G1 X68.575 Y123.303 E21.13611
G1 X68.544 Y123.084 E21.14053
G1 X68.469 Y122.000 E21.16224
G1 X68.469 Y58.000 E22.44081
G1 X68.544 Y56.916 E22.46252
G1 X68.575 Y56.697 E22.46694
G1 X68.933 Y55.227 E22.49718
G1 X69.309 Y54.291 E22.51731
G1 X69.925 Y53.217 E22.54205
G1 X70.468 Y53.528 F1800.000
G1 X71.098 Y52.707 E22.56274 F1800.000
G1 X71.819 Y51.986 E22.58310
G1 X72.581 Y51.392 E22.60241
G1 X73.089 Y51.068 E22.61445
G1 X74.048 Y50.593 E22.63582
G1 X74.637 Y50.375 E22.64837
G1 X75.463 Y50.152 E22.66546
G1 X76.353 Y50.017 E22.68344
G1 X77.121 Y49.976 E22.69881
G1 X105.779 Y49.976 E23.27133
G1 X108.147 Y50.373 E23.31930 F1800.000
G1 X110.256 Y51.522 E23.36727
G1 X111.874 Y53.295 E23.41524
G1 X112.780 Y55.326 E23.45967
G1 X112.931 Y55.965 E23.47278
G1 X113.049 Y56.670 E23.48707
G1 X113.113 Y57.325 E23.50021
G1 X113.135 Y58.000 E23.51370
G1 X113.135 Y122.000 E24.79228
G1 X113.124 Y122.472 E24.80171
G1 X113.082 Y123.045 E24.81318
G1 X112.958 Y123.896 E24.83037
G1 X112.781 Y124.673 E24.84630
G1 X111.775 Y126.854 E24.89427
G1 X110.113 Y128.587 E24.94223
G1 X107.977 Y129.683 E24.99020
G1 X105.779 Y130.024 E25.03464
G1 X77.121 Y130.024 E25.60717
G1 X76.140 Y129.958 E25.62681
G1 X75.438 Y129.842 E25.64103
G1 X74.637 Y129.625 E25.65761
G1 X74.125 Y129.438 E25.66848
G1 X73.134 Y128.958 E25.69049
G1 X72.581 Y128.608 E25.70356
G1 X71.818 Y128.014 E25.72288
G1 X71.098 Y127.293 E25.74324
G1 X70.472 Y126.479 E25.76375
G1 X69.858 Y125.400 E25.78855
G1 X69.527 Y124.567 E25.80646
G1 X69.197 Y123.214 E25.83429
G1 X69.166 Y122.997 E25.83865
G1 X69.097 Y122.000 E25.85863
G1 X69.097 Y58.000 E27.13720
G1 X69.166 Y57.003 E27.15718
G1 X69.197 Y56.786 E27.16154
G1 X69.527 Y55.433 E27.18937
G1 X69.878 Y54.558 E27.20820
G1 X70.438 Y53.581 E27.23071
G1 X70.981 Y53.892 F1800.000
G1 X71.569 Y53.124 E27.25003 F1800.000
G1 X72.231 Y52.460 E27.26877
G1 X72.934 Y51.912 E27.28657
G1 X73.405 Y51.612 E27.29774
G1 X74.285 Y51.175 E27.31736
G1 X74.836 Y50.971 E27.32909
G1 X75.593 Y50.767 E27.34475
G1 X76.419 Y50.642 E27.36146
G1 X77.121 Y50.604 E27.37549
G1 X105.779 Y50.604 E27.94802
G1 X108.038 Y51.001 E27.99385 F1800.000
G1 X110.027 Y52.145 E28.03968
G1 X111.507 Y53.898 E28.08551
G1 X112.174 Y55.492 E28.12002
G1 X112.226 Y55.691 E28.12414
G1 X112.355 Y56.299 E28.13657
G1 X112.436 Y56.833 E28.14734
G1 X112.486 Y57.369 E28.15810
G1 X112.507 Y58.000 E28.17072
G1 X112.507 Y122.000 E29.44929
G1 X112.465 Y122.900 E29.46729
G1 X112.355 Y123.700 E29.48343
G1 X112.174 Y124.508 E29.49997
G1 X111.198 Y126.584 E29.54580
G1 X109.572 Y128.203 E29.59163
G1 X107.492 Y129.170 E29.63746
G1 X105.779 Y129.396 E29.67198
G1 X77.121 Y129.396 E30.24451
G1 X76.221 Y129.335 E30.26252
G1 X75.567 Y129.228 E30.27576
G1 X74.835 Y129.029 E30.29091
G1 X74.362 Y128.857 E30.30097
G1 X73.450 Y128.415 E30.32122
G1 X72.934 Y128.088 E30.33343
G1 X72.231 Y127.540 E30.35123
G1 X71.568 Y126.876 E30.36997
G1 X70.990 Y126.122 E30.38895
G1 X70.427 Y125.134 E30.41168
G1 X70.120 Y124.360 E30.42830
G1 X69.819 Y123.124 E30.45372
G1 X69.789 Y122.911 E30.45802
G1 X69.726 Y122.000 E30.47626
G1 X69.726 Y58.000 E31.75484
G1 X69.789 Y57.089 E31.77309
G1 X69.819 Y56.876 E31.77739
G1 X70.120 Y55.640 E31.80280
G1 X70.446 Y54.825 E31.82034
G1 X70.951 Y53.944 E31.84062
G1 E28.84062 F2400.00000
G92 E0
G1 X77.675 Y87.142 F1800.000
G1 E3.00000 F2400.00000
G1 X77.675 Y58.554 E3.57113 F1800.000
G1 X104.558 Y58.554 E4.10819
G1 X104.558 Y121.446 E5.36464 F1800.000
G1 X77.675 Y121.446 E5.90170
G1 X77.675 Y87.202 E6.58582
G1 X77.047 Y87.202 F1800.000
G1 X77.047 Y57.925 E7.17071 F1800.000
G1 X105.186 Y57.925 E7.73287
G1 X105.186 Y122.075 E9.01443 F1800.000
G1 X77.047 Y122.075 E9.57659
G1 X77.047 Y87.262 E10.27207
G1 X76.554 Y87.262 F1800.000
G1 X76.554 Y58.014 E10.60413 F1800.000
G1 X76.608 Y57.772 E10.60695
G1 X76.729 Y57.600 E10.60934
G1 X76.841 Y57.515 E10.61094
G1 X76.987 Y57.453 E10.61274
G1 X77.135 Y57.433 E10.61443
G1 X105.615 Y57.433 E10.93779
G1 X105.651 Y57.609 E10.93982 F1800.000
G1 X105.679 Y58.007 E10.94436
G1 X105.679 Y121.993 E11.67083
G1 X105.651 Y122.391 E11.67536
G1 X105.615 Y122.567 E11.67740
G1 X77.135 Y122.567 E12.00075
G1 X76.983 Y122.547 E12.00249
G1 X76.880 Y122.508 E12.00374
G1 X76.724 Y122.396 E12.00592
G1 X76.625 Y122.264 E12.00779
G1 X76.575 Y122.131 E12.00941
G1 X76.554 Y121.986 E12.01107
G1 X76.554 Y87.322 E12.40463
G1 X76.900 Y87.062 F1800.000
G1 E9.40463 F2400.00000
G92 E0
G1 X78.056 Y120.759 F1800.000
G1 E3.00000 F2400.00000
G1 X78.362 Y121.066 E3.00871 F1800.000
G1 X79.256 Y121.066 E3.02669
G1 X78.056 Y119.865 E3.06084
G1 X78.056 Y118.971 E3.07882
G1 X80.151 Y121.066 E3.13839
G1 X81.045 Y121.066 E3.15637
G1 X78.056 Y118.076 E3.24137
G1 X78.056 Y117.182 E3.25935
G1 X81.939 Y121.066 E3.36977
G1 X82.834 Y121.066 E3.38775
G1 X78.056 Y116.288 E3.52361
G1 X78.056 Y115.393 E3.54159
G1 X83.728 Y121.066 E3.70287
G1 X84.622 Y121.066 E3.72085
G1 X78.056 Y114.499 E3.90756
G1 X78.056 Y113.605 E3.92554
G1 X85.516 Y121.066 E4.13768
G1 X86.411 Y121.066 E4.15566
G1 X78.056 Y112.711 E4.39322
G1 X78.056 Y111.816 E4.41120
G1 X87.305 Y121.066 E4.67420
G1 X88.199 Y121.066 E4.69218
G1 X78.056 Y110.922 E4.98060
G1 X78.056 Y110.028 E4.99858
G1 X89.094 Y121.066 E5.31243
G1 X89.988 Y121.066 E5.33041
G1 X78.056 Y109.133 E5.66969
G1 X78.056 Y108.239 E5.68767
G1 X90.882 Y121.066 E6.05237
G1 X91.776 Y121.066 E6.07035
G1 X78.056 Y107.345 E6.46048
G1 X78.056 Y106.451 E6.47846
G1 X92.671 Y121.066 E6.89403
G1 X93.565 Y121.066 E6.91201
G1 X78.056 Y105.556 E7.35299
G1 X78.056 Y104.662 E7.37097
G1 X94.459 Y121.066 E7.83739
G1 X95.353 Y121.066 E7.85537
G1 X78.056 Y103.768 E8.34722
G1 X78.056 Y102.874 E8.36520
G1 X96.248 Y121.066 E8.88247
G1 X97.142 Y121.066 E8.90045
G1 X78.056 Y101.979 E9.44315
G1 X78.056 Y101.085 E9.46113
G1 X98.036 Y121.066 E10.02926
G1 X98.931 Y121.066 E10.04724
G1 X78.056 Y100.191 E10.64079
G1 X78.056 Y99.296 E10.65877
G1 X99.825 Y121.066 E11.27776
G1 X100.719 Y121.065 E11.29574
G1 X78.056 Y98.402 E11.94015
G1 X78.056 Y97.508 E11.95813
G1 X101.613 Y121.065 E12.62797
G1 X102.508 Y121.065 E12.64595
G1 X78.056 Y96.614 E13.34121
G1 X78.056 Y95.719 E13.35920
G1 X103.402 Y121.065 E14.07989
G1 X104.177 Y120.946 E14.09566
G1 X78.056 Y94.825 E14.83839
G1 X78.056 Y93.931 E14.85637
G1 X104.177 Y120.052 E15.59910
G1 X104.177 Y119.158 E15.61708
G1 X78.056 Y93.036 E16.35981
G1 X78.056 Y92.142 E16.37779
G1 X104.177 Y118.263 E17.12052
G1 X104.177 Y117.369 E17.13851
G1 X78.056 Y91.248 E17.88124
G1 X78.056 Y90.354 E17.89922
G1 X104.177 Y116.475 E18.64195
G1 X104.177 Y115.581 E18.65993
G1 X78.056 Y89.459 E19.40266
G1 X78.056 Y88.565 E19.42064
G1 X104.177 Y114.686 E20.16337
G1 X104.177 Y113.792 E20.18135
G1 X78.056 Y87.671 E20.92409
G1 X78.056 Y86.777 E20.94207
G1 X104.177 Y112.898 E21.68480
G1 X104.177 Y112.003 E21.70278
G1 X78.056 Y85.882 E22.44551
G1 X78.056 Y84.988 E22.46349
G1 X104.177 Y111.109 E23.20622
G1 X104.177 Y110.215 E23.22420
G1 X78.056 Y84.094 E23.96694
G1 X78.056 Y83.199 E23.98492
G1 X104.177 Y109.321 E24.72765
G1 X104.177 Y108.426 E24.74563
G1 X78.056 Y82.305 E25.48836
G1 X78.056 Y81.411 E25.50634
G1 X104.177 Y107.532 E26.24907
G1 X104.177 Y106.638 E26.26705
G1 X78.056 Y80.517 E27.00978
G1 X78.056 Y79.622 E27.02776
G1 X104.177 Y105.744 E27.77050
G1 X104.177 Y104.849 E27.78848
G1 X78.056 Y78.728 E28.53121
G1 X78.056 Y77.834 E28.54919
G1 X104.177 Y103.955 E29.29192
G1 X104.177 Y103.061 E29.30990
G1 X78.056 Y76.940 E30.05263
G1 X78.056 Y76.045 E30.07061
G1 X104.177 Y102.166 E30.81335
G1 X104.177 Y101.272 E30.83133
G1 X78.056 Y75.151 E31.57406
G1 X78.056 Y74.257 E31.59204
G1 X104.177 Y100.378 E32.33477
G1 X104.177 Y99.484 E32.35275
G1 X78.056 Y73.362 E33.09548
G1 X78.056 Y72.468 E33.11346
G1 X104.177 Y98.589 E33.85619
G1 X104.177 Y97.695 E33.87417
G1 X78.056 Y71.574 E34.61691
G1 X78.056 Y70.680 E34.63489
G1 X104.177 Y96.801 E35.37762
G1 X104.177 Y95.906 E35.39560
G1 X78.056 Y69.785 E36.13833
G1 X78.056 Y68.891 E36.15631
G1 X104.177 Y95.012 E36.89904
G1 X104.177 Y94.118 E36.91702
G1 X78.056 Y67.997 E37.65976
G1 X78.056 Y67.102 E37.67774
G1 X104.177 Y93.224 E38.42047
G1 X104.177 Y92.329 E38.43845
G1 X78.056 Y66.208 E39.18118
G1 X78.056 Y65.314 E39.19916
G1 X104.177 Y91.435 E39.94189
G1 X104.177 Y90.541 E39.95987
G1 X78.056 Y64.420 E40.70260
G1 X78.056 Y63.525 E40.72059
G1 X104.177 Y89.647 E41.46332
G1 X104.177 Y88.752 E41.48130
G1 X78.056 Y62.631 E42.22403
G1 X78.056 Y61.737 E42.24201
G1 X104.177 Y87.858 E42.98474
G1 X104.177 Y86.964 E43.00272
G1 X78.056 Y60.843 E43.74545
G1 X78.056 Y59.948 E43.76343
G1 X104.177 Y86.069 E44.50617
G1 X104.177 Y85.175 E44.52415
G1 X78.056 Y59.054 E45.26688
G1 X78.830 Y58.934 E45.28264
G1 X104.177 Y84.281 E46.00334
G1 X104.177 Y83.387 E46.02132
G1 X79.725 Y58.934 E46.71660
G1 X80.619 Y58.934 E46.73458
G1 X104.177 Y82.492 E47.40443
G1 X104.177 Y81.598 E47.42241
G1 X81.513 Y58.934 E48.06682
G1 X82.408 Y58.934 E48.08481
G1 X104.177 Y80.704 E48.70380
G1 X104.177 Y79.809 E48.72178
G1 X83.302 Y58.934 E49.31534
G1 X84.196 Y58.934 E49.33332
G1 X104.177 Y78.915 E49.90145
G1 X104.177 Y78.021 E49.91943
G1 X85.090 Y58.934 E50.46214
G1 X85.985 Y58.934 E50.48012
G1 X104.177 Y77.127 E50.99740
G1 X104.177 Y76.232 E51.01538
G1 X86.879 Y58.934 E51.50723
G1 X87.773 Y58.934 E51.52521
G1 X104.177 Y75.338 E51.99163
G1 X104.177 Y74.444 E52.00961
G1 X88.668 Y58.934 E52.45061
G1 X89.562 Y58.934 E52.46859
G1 X104.177 Y73.550 E52.88415
G1 X104.177 Y72.655 E52.90214
G1 X90.456 Y58.934 E53.29227
G1 X91.350 Y58.934 E53.31025
G1 X104.177 Y71.761 E53.67496
G1 X104.177 Y70.867 E53.69294
G1 X92.245 Y58.934 E54.03223
G1 X93.139 Y58.934 E54.05021
G1 X104.177 Y69.972 E54.36406
G1 X104.177 Y69.078 E54.38204
