; generated by Slic3r 1.2.9 on 2021-05-05 at 11:17:30

; external perimeters extrusion width = 0.40mm
; perimeters extrusion width = 0.67mm
; infill extrusion width = 0.67mm
; solid infill extrusion width = 0.67mm
; top infill extrusion width = 0.67mm
; support material extrusion width = 0.40mm

M190 S60 ; set bed temperature
M104 S200 ; set temperature
G28 ; home all axes
G1 Z5 F5000 ; lift nozzle

M109 S200 ; wait for temperature to be reached
G21 ; set units to millimeters
G90 ; use absolute coordinates
M82 ; use absolute distances for extrusion
G92 E0
G1 Z0.200 F1800.000
G1 E-3.00000 F2400.00000
G92 E0
G1 X63.782 Y52.108 F1800.000
G1 E3.00000 F2400.00000
G1 X65.569 Y49.967 E3.05650 F1800.000
G1 X67.887 Y48.418 E3.11301
G1 X70.549 Y47.587 E3.16951
G1 X72.100 Y47.463 E3.20104
G1 X107.900 Y47.463 E3.92646
G1 X110.660 Y47.861 E3.98296
G1 X113.195 Y49.022 E4.03947 F1800.000
G1 X115.299 Y50.853 E4.09597
G1 X116.800 Y53.203 E4.15248
G1 X117.327 Y54.666 E4.18399
G1 X117.376 Y54.855 E4.18795
G1 X117.567 Y55.732 E4.20613
G1 X117.713 Y56.793 E4.22784
G1 X117.757 Y57.423 E4.24063
G1 X117.770 Y58.000 E4.25233
G1 X117.768 Y122.220 E5.55363
G1 X117.735 Y122.935 E5.56813
G1 X117.630 Y123.884 E5.58747
G1 X117.498 Y124.619 E5.60262
G1 X117.327 Y125.334 E5.61750
G1 X116.218 Y127.892 E5.67401
G1 X114.431 Y130.033 E5.73051
G1 X112.113 Y131.582 E5.78702
G1 X109.451 Y132.413 E5.84352
G1 X107.900 Y132.537 E5.87505
G1 X72.100 Y132.537 E6.60047
G1 X69.340 Y132.139 E6.65697
G1 X66.805 Y130.978 E6.71348
G1 X64.701 Y129.147 E6.76998
G1 X63.200 Y126.797 E6.82649
G1 X62.673 Y125.334 E6.85800
G1 X62.502 Y124.619 E6.87290
G1 X62.388 Y123.999 E6.88568
G1 X62.309 Y123.414 E6.89763
G1 X62.257 Y122.822 E6.90968
G1 X62.232 Y122.220 E6.92188
G1 X62.231 Y57.863 E8.22596
G1 X62.265 Y57.066 E8.24213
G1 X62.337 Y56.354 E8.25662
G1 X62.477 Y55.500 E8.27416
G1 X62.668 Y54.686 E8.29110
G1 X63.758 Y52.163 E8.34680
G1 X64.339 Y52.418 F1800.000
G1 X64.364 Y52.362 E8.34804 F1800.000
G1 X66.122 Y50.317 E8.40269
G1 X68.400 Y48.873 E8.45734
G1 X72.100 Y48.091 E8.53397
G1 X107.900 Y48.091 E9.25939
G1 X110.567 Y48.489 E9.31404
G1 X113.003 Y49.648 E9.36869 F1800.000
G1 X114.994 Y51.467 E9.42333
G1 X116.720 Y54.831 E9.49996
G1 X116.949 Y55.845 E9.52103
G1 X117.087 Y56.855 E9.54167
G1 X117.129 Y57.449 E9.55375
G1 X117.142 Y58.000 E9.56491
G1 X117.132 Y122.468 E10.87123
G1 X117.087 Y123.145 E10.88499
G1 X117.009 Y123.790 E10.89816
G1 X116.884 Y124.488 E10.91253
G1 X116.721 Y125.169 E10.92670
G1 X115.636 Y127.638 E10.98135
G1 X113.878 Y129.683 E11.03600
G1 X111.600 Y131.127 E11.09065
G1 X107.900 Y131.909 E11.16728
G1 X72.100 Y131.909 E11.89270
G1 X69.433 Y131.511 E11.94735
G1 X66.997 Y130.352 E12.00200
G1 X65.006 Y128.533 E12.05664
G1 X63.280 Y125.169 E12.13327
G1 X63.090 Y124.359 E12.15013
G1 X62.960 Y123.567 E12.16640
G1 X62.891 Y122.890 E12.18017
G1 X62.859 Y122.128 E12.19564
G1 X62.862 Y57.713 E13.50088
G1 X62.913 Y56.855 E13.51831
G1 X62.996 Y56.181 E13.53207
G1 X63.116 Y55.512 E13.54584
G1 X63.279 Y54.831 E13.56002
G1 X64.315 Y52.473 E13.61221
G1 X64.895 Y52.731 F1800.000
G1 X64.945 Y52.620 E13.61469 F1800.000
G1 X66.672 Y50.674 E13.66742
G1 X68.907 Y49.341 E13.72014
G1 X72.100 Y48.719 E13.78605
G1 X107.900 Y48.719 E14.51148
G1 X110.471 Y49.117 E14.56420
G1 X112.803 Y50.273 E14.61693 F1800.000
G1 X114.676 Y52.079 E14.66965
G1 X116.114 Y54.996 E14.73556
G1 X116.331 Y55.959 E14.75556
G1 X116.427 Y56.595 E14.76859
G1 X116.482 Y57.153 E14.77996
G1 X116.513 Y58.000 E14.79713
G1 X116.510 Y122.269 E16.09942
G1 X116.462 Y123.084 E16.11596
G1 X116.388 Y123.695 E16.12844
G1 X116.269 Y124.358 E16.14208
G1 X116.114 Y125.003 E16.15553
G1 X115.055 Y127.380 E16.20826
G1 X113.328 Y129.326 E16.26098
G1 X111.093 Y130.659 E16.31371
G1 X107.900 Y131.281 E16.37962
G1 X72.100 Y131.281 E17.10505
G1 X69.529 Y130.883 E17.15777
G1 X67.197 Y129.727 E17.21050
G1 X65.324 Y127.921 E17.26322
G1 X63.886 Y125.004 E17.32913
G1 X63.706 Y124.237 E17.34509
G1 X63.583 Y123.488 E17.36047
G1 X63.511 Y122.738 E17.37574
G1 X63.487 Y122.000 E17.39070
G1 X63.490 Y57.727 E18.69307
G1 X63.538 Y56.916 E18.70953
G1 X63.617 Y56.277 E18.72258
G1 X63.731 Y55.643 E18.73564
G1 X63.886 Y54.996 E18.74911
G1 X64.871 Y52.786 E18.79814
G1 X65.449 Y53.048 F1800.000
G1 X65.525 Y52.881 E18.80186 F1800.000
G1 X67.220 Y51.039 E18.85259
G1 X69.408 Y49.822 E18.90332
G1 X72.100 Y49.348 E18.95871
G1 X107.900 Y49.348 E19.68413
G1 X110.372 Y49.745 E19.73486
G1 X112.594 Y50.898 E19.78559 F1800.000
G1 X114.344 Y52.689 E19.83632
G1 X115.508 Y55.161 E19.89170
G1 X115.713 Y56.073 E19.91063
G1 X115.804 Y56.674 E19.92295
G1 X115.855 Y57.197 E19.93360
G1 X115.885 Y58.000 E19.94988
G1 X115.882 Y122.255 E21.25190
G1 X115.837 Y123.022 E21.26747
G1 X115.766 Y123.601 E21.27928
G1 X115.655 Y124.227 E21.29216
G1 X115.508 Y124.838 E21.30491
G1 X114.475 Y127.119 E21.35564
G1 X112.780 Y128.961 E21.40637
G1 X110.592 Y130.178 E21.45710
G1 X107.900 Y130.652 E21.51248
G1 X72.100 Y130.652 E22.23790
G1 X69.628 Y130.255 E22.28864
G1 X67.406 Y129.102 E22.33937
G1 X65.656 Y127.311 E22.39010
G1 X64.492 Y124.839 E22.44548
G1 X64.322 Y124.115 E22.46054
G1 X64.207 Y123.409 E22.47504
G1 X64.137 Y122.696 E22.48956
G1 X64.115 Y122.000 E22.50366
G1 X64.118 Y57.741 E23.80575
G1 X64.163 Y56.978 E23.82125
G1 X64.237 Y56.373 E23.83358
G1 X64.345 Y55.773 E23.84594
G1 X64.492 Y55.161 E23.85869
G1 X65.424 Y53.103 E23.90448
G1 X66.001 Y53.369 F1800.000
G1 X66.104 Y53.146 E23.90945 F1800.000
G1 X67.765 Y51.413 E23.95810
G1 X69.902 Y50.317 E24.00676
G1 X72.100 Y49.976 E24.05183
G1 X107.900 Y49.976 E24.77725
G1 X110.268 Y50.373 E24.82591
G1 X112.377 Y51.522 E24.87456 F1800.000
G1 X113.995 Y53.295 E24.92321
G1 X114.902 Y55.326 E24.96828
G1 X115.023 Y55.822 E24.97863
G1 X115.129 Y56.386 E24.99026
G1 X115.234 Y57.324 E25.00938
G1 X115.257 Y58.000 E25.02308
G1 X115.254 Y122.242 E26.32483
G1 X115.211 Y122.961 E26.33942
G1 X115.145 Y123.507 E26.35056
G1 X115.040 Y124.096 E26.36269
G1 X114.902 Y124.673 E26.37472
G1 X113.897 Y126.854 E26.42338
G1 X112.235 Y128.587 E26.47203
G1 X110.098 Y129.683 E26.52069
G1 X107.900 Y130.024 E26.56576
G1 X72.100 Y130.024 E27.29118
G1 X69.732 Y129.627 E27.33984
G1 X67.623 Y128.478 E27.38849
G1 X66.005 Y126.705 E27.43715
G1 X65.093 Y124.654 E27.48263
G1 X64.939 Y123.993 E27.49638
G1 X64.830 Y123.330 E27.51000
G1 X64.764 Y122.654 E27.52376
G1 X64.743 Y122.000 E27.53701
G1 X64.745 Y57.815 E28.83761
G1 X64.772 Y57.241 E28.84924
G1 X64.858 Y56.470 E28.86498
G1 X64.960 Y55.904 E28.87662
G1 X65.098 Y55.327 E28.88865
G1 X65.976 Y53.423 E28.93112
G1 X66.550 Y53.693 F1800.000
G1 X66.681 Y53.416 E28.93734 F1800.000
G1 X68.307 Y51.797 E28.98383
G1 X70.387 Y50.830 E29.03031
G1 X72.100 Y50.604 E29.06533
G1 X107.900 Y50.604 E29.79075
G1 X110.159 Y51.001 E29.83723
G1 X112.148 Y52.145 E29.88372 F1800.000
G1 X113.628 Y53.898 E29.93020
G1 X114.295 Y55.491 E29.96521
G1 X114.408 Y55.953 E29.97485
G1 X114.508 Y56.483 E29.98576
G1 X114.610 Y57.405 E30.00457
G1 X114.628 Y58.000 E30.01663
G1 X114.626 Y122.228 E31.31809
G1 X114.586 Y122.900 E31.33172
G1 X114.524 Y123.412 E31.34219
G1 X114.425 Y123.965 E31.35356
G1 X114.296 Y124.508 E31.36488
G1 X113.319 Y126.584 E31.41137
G1 X111.693 Y128.203 E31.45785
G1 X109.613 Y129.170 E31.50434
G1 X107.900 Y129.396 E31.53936
G1 X72.100 Y129.396 E32.26478
G1 X69.841 Y128.999 E32.31126
G1 X67.852 Y127.855 E32.35775
G1 X66.372 Y126.102 E32.40423
G1 X65.705 Y124.509 E32.43924
G1 X65.653 Y124.309 E32.44342
G1 X65.538 Y123.783 E32.45433
G1 X65.453 Y123.251 E32.46525
G1 X65.398 Y122.715 E32.47617
G1 X65.373 Y122.176 E32.48709
G1 X65.372 Y58.000 E33.78751
G1 X65.391 Y57.390 E33.79986
G1 X65.453 Y56.749 E33.81292
G1 X65.558 Y56.116 E33.82591
G1 X65.699 Y55.511 E33.83850
G1 X66.525 Y53.748 E33.87796
G1 E30.87796 F2400.00000
G92 E0
G1 X79.979 Y105.525 F1800.000
G1 E3.00000 F2400.00000
G1 X80.800 Y105.417 E3.01678 F1800.000
G1 X81.627 Y105.453 E3.03356
G1 X82.571 Y105.684 E3.05325
G1 X83.442 Y106.114 E3.07293
G1 X84.122 Y106.635 E3.09029
G1 X84.744 Y107.344 E3.10940
G1 X85.158 Y108.061 E3.12618
G1 X85.441 Y108.839 E3.14296
G1 X85.589 Y109.800 E3.16264
G1 X85.525 Y110.769 E3.18233
G1 X85.311 Y111.569 E3.19911
G1 X84.961 Y112.319 E3.21589
G1 X84.403 Y113.080 E3.23500
G1 X83.772 Y113.659 E3.25235
G1 X82.941 Y114.163 E3.27204
G1 X82.021 Y114.475 E3.29173
G1 X81.200 Y114.583 E3.30851
G1 X80.373 Y114.547 E3.32529
G1 X79.429 Y114.316 E3.34498
G1 X78.558 Y113.886 E3.36466
G1 X77.878 Y113.365 E3.38202
G1 X77.256 Y112.656 E3.40113
G1 X76.842 Y111.939 E3.41791
G1 X76.559 Y111.161 E3.43468
G1 X76.411 Y110.200 E3.45437
G1 X76.475 Y109.231 E3.47406
G1 X76.689 Y108.431 E3.49084
G1 X77.039 Y107.681 E3.50762
G1 X77.614 Y106.897 E3.52730
G1 X78.343 Y106.257 E3.54696
G1 X79.085 Y105.828 E3.56434
G1 X79.922 Y105.544 E3.58224
G1 X80.122 Y106.140 F1800.000
G1 X80.827 Y106.047 E3.59666 F1800.000
G1 X81.538 Y106.078 E3.61107
G1 X82.355 Y106.278 E3.62811
G1 X83.109 Y106.650 E3.64515
G1 X83.690 Y107.096 E3.65999
G1 X84.230 Y107.712 E3.67660
G1 X84.586 Y108.328 E3.69101
G1 X84.829 Y108.996 E3.70542
G1 X84.957 Y109.827 E3.72246
G1 X84.902 Y110.666 E3.73950
G1 X84.718 Y111.353 E3.75391
G1 X84.418 Y111.998 E3.76832
G1 X83.933 Y112.659 E3.78492
G1 X83.393 Y113.154 E3.79977
G1 X82.674 Y113.590 E3.81681
G1 X81.878 Y113.860 E3.83385
G1 X81.173 Y113.953 E3.84826
G1 X80.462 Y113.922 E3.86267
G1 X79.645 Y113.722 E3.87971
G1 X78.891 Y113.350 E3.89675
G1 X78.310 Y112.904 E3.91159
G1 X77.770 Y112.288 E3.92820
G1 X77.414 Y111.672 E3.94261
G1 X77.171 Y111.004 E3.95702
G1 X77.043 Y110.173 E3.97406
G1 X77.098 Y109.334 E3.99110
G1 X77.282 Y108.647 E4.00551
G1 X77.582 Y108.002 E4.01992
G1 X78.080 Y107.324 E4.03695
G1 X78.711 Y106.770 E4.05397
G1 X79.346 Y106.403 E4.06884
G1 X80.065 Y106.159 E4.08423
G1 X80.266 Y106.755 F1800.000
G1 X80.855 Y106.677 E4.09627 F1800.000
G1 X81.449 Y106.703 E4.10832
G1 X82.139 Y106.872 E4.12271
G1 X82.776 Y107.186 E4.13710
G1 X83.259 Y107.557 E4.14944
G1 X83.717 Y108.080 E4.16353
G1 X84.014 Y108.594 E4.17558
G1 X84.218 Y109.153 E4.18762
G1 X84.326 Y109.855 E4.20201
G1 X84.279 Y110.564 E4.21640
G1 X84.125 Y111.138 E4.22844
G1 X83.874 Y111.676 E4.24049
G1 X83.463 Y112.237 E4.25458
G1 X83.014 Y112.649 E4.26692
G1 X82.407 Y113.017 E4.28131
G1 X81.734 Y113.245 E4.29570
G1 X81.145 Y113.323 E4.30775
G1 X80.551 Y113.297 E4.31979
G1 X79.861 Y113.128 E4.33418
G1 X79.224 Y112.814 E4.34857
G1 X78.741 Y112.443 E4.36091
G1 X78.283 Y111.920 E4.37501
G1 X77.986 Y111.406 E4.38705
G1 X77.782 Y110.847 E4.39909
G1 X77.674 Y110.145 E4.41348
G1 X77.721 Y109.436 E4.42787
G1 X77.875 Y108.862 E4.43992
G1 X78.126 Y108.324 E4.45196
G1 X78.546 Y107.751 E4.46635
G1 X79.079 Y107.284 E4.48071
G1 X79.607 Y106.978 E4.49308
G1 X80.209 Y106.774 E4.50596
G1 X80.409 Y107.370 F1800.000
G1 X80.882 Y107.307 E4.51564 F1800.000
G1 X81.359 Y107.328 E4.52531
G1 X81.922 Y107.466 E4.53705
G1 X82.442 Y107.722 E4.54880
G1 X82.827 Y108.017 E4.55863
G1 X83.204 Y108.447 E4.57021
G1 X83.443 Y108.861 E4.57989
G1 X83.606 Y109.310 E4.58956
G1 X83.694 Y109.882 E4.60131
G1 X83.656 Y110.461 E4.61305
G1 X83.533 Y110.922 E4.62273
G1 X83.331 Y111.355 E4.63240
G1 X82.993 Y111.816 E4.64399
G1 X82.635 Y112.143 E4.65382
G1 X82.140 Y112.444 E4.66556
G1 X81.591 Y112.630 E4.67730
G1 X81.118 Y112.693 E4.68698
G1 X80.641 Y112.672 E4.69665
G1 X80.078 Y112.534 E4.70840
G1 X79.558 Y112.278 E4.72014
G1 X79.173 Y111.983 E4.72997
G1 X78.796 Y111.553 E4.74156
G1 X78.557 Y111.139 E4.75123
G1 X78.394 Y110.690 E4.76091
G1 X78.306 Y110.118 E4.77265
G1 X78.344 Y109.539 E4.78439
G1 X78.467 Y109.078 E4.79407
G1 X78.669 Y108.645 E4.80374
G1 X79.012 Y108.178 E4.81549
G1 X79.446 Y107.797 E4.82720
G1 X79.867 Y107.553 E4.83706
G1 X80.352 Y107.389 E4.84743
G1 X80.511 Y107.855 F1800.000
G1 X80.521 Y107.852 E4.84756 F1800.000
G1 X80.904 Y107.801 E4.85201 F1800.000
G1 X81.289 Y107.818 E4.85645
G1 X81.753 Y107.932 E4.86194
G1 X82.181 Y108.143 E4.86744
G1 X82.489 Y108.379 E4.87191
G1 X82.802 Y108.736 E4.87737
G1 X82.995 Y109.070 E4.88182
G1 X83.126 Y109.432 E4.88626
G1 X83.199 Y109.904 E4.89175
G1 X83.168 Y110.380 E4.89725
G1 X83.068 Y110.753 E4.90169
G1 X82.905 Y111.102 E4.90613
G1 X82.624 Y111.485 E4.91160
G1 X82.338 Y111.747 E4.91607
G1 X81.930 Y111.995 E4.92156
G1 X81.478 Y112.148 E4.92706
G1 X81.096 Y112.199 E4.93150
G1 X80.711 Y112.182 E4.93594
G1 X80.247 Y112.068 E4.94144
G1 X79.819 Y111.857 E4.94693
G1 X79.511 Y111.621 E4.95140
G1 X79.198 Y111.264 E4.95687
G1 X79.005 Y110.930 E4.96131
G1 X78.874 Y110.568 E4.96575
G1 X78.801 Y110.096 E4.97125
G1 X78.832 Y109.620 E4.97674
G1 X78.932 Y109.247 E4.98118
G1 X79.095 Y108.898 E4.98563
G1 X79.377 Y108.513 E4.99112
G1 X79.735 Y108.199 E4.99660
G1 X80.072 Y108.004 E5.00108
G1 X80.454 Y107.875 E5.00573
G1 X80.513 Y107.844 F1800.000
G1 E2.00573 F2400.00000
G92 E0
G1 X81.200 Y74.589 F1800.000
G1 E3.00000 F2400.00000
G1 X80.231 Y74.525 E3.01969 F1800.000
G1 X79.404 Y74.303 E3.03704
G1 X78.558 Y73.886 E3.05615
G1 X77.901 Y73.382 E3.07293
G1 X77.341 Y72.772 E3.08971
G1 X76.852 Y71.965 E3.10882
G1 X76.559 Y71.161 E3.12617
G1 X76.411 Y70.200 E3.14586
G1 X76.475 Y69.231 E3.16555
G1 X76.689 Y68.431 E3.18234
G1 X77.040 Y67.679 E3.19914
G1 X77.597 Y66.920 E3.21823
G1 X78.228 Y66.341 E3.23557
G1 X79.059 Y65.837 E3.25526
G1 X79.979 Y65.525 E3.27495
G1 X80.828 Y65.413 E3.29230 F1800.000
G1 X81.769 Y65.475 E3.31142
G1 X82.569 Y65.689 E3.32819
G1 X83.319 Y66.039 E3.34497
G1 X84.080 Y66.597 E3.36408
G1 X84.659 Y67.228 E3.38144
G1 X85.148 Y68.035 E3.40055
G1 X85.441 Y68.839 E3.41790
G1 X85.589 Y69.800 E3.43759
G1 X85.525 Y70.769 E3.45728
G1 X85.311 Y71.569 E3.47406
G1 X84.961 Y72.319 E3.49084
G1 X84.386 Y73.103 E3.51052
G1 X83.656 Y73.744 E3.53021
G1 X82.939 Y74.158 E3.54699
G1 X82.161 Y74.441 E3.56377
G1 X81.260 Y74.580 E3.58224
G1 X81.173 Y73.957 F1800.000
G1 X80.334 Y73.902 E3.59928 F1800.000
G1 X79.626 Y73.713 E3.61413
G1 X78.891 Y73.350 E3.63073
G1 X78.327 Y72.917 E3.64514
G1 X77.846 Y72.393 E3.65955
G1 X77.421 Y71.692 E3.67616
G1 X77.171 Y71.004 E3.69100
G1 X77.043 Y70.173 E3.70804
G1 X77.098 Y69.334 E3.72508
G1 X77.282 Y68.646 E3.73950
G1 X77.583 Y68.001 E3.75393
G1 X78.067 Y67.341 E3.77051
G1 X78.607 Y66.846 E3.78535
G1 X79.326 Y66.410 E3.80239
G1 X80.122 Y66.140 E3.81943
G1 X80.849 Y66.044 E3.83428 F1800.000
G1 X81.666 Y66.098 E3.85088
G1 X82.353 Y66.282 E3.86529
G1 X82.998 Y66.582 E3.87970
G1 X83.659 Y67.067 E3.89631
G1 X84.154 Y67.607 E3.91115
G1 X84.579 Y68.308 E3.92776
G1 X84.829 Y68.996 E3.94260
G1 X84.957 Y69.827 E3.95964
G1 X84.902 Y70.666 E3.97668
G1 X84.718 Y71.353 E3.99109
G1 X84.418 Y71.998 E4.00550
G1 X83.920 Y72.676 E4.02254
G1 X83.288 Y73.230 E4.03958
G1 X82.672 Y73.586 E4.05399
G1 X82.004 Y73.829 E4.06840
G1 X81.232 Y73.948 E4.08423
G1 X81.145 Y73.326 F1800.000
G1 X80.436 Y73.279 E4.09862 F1800.000
G1 X79.848 Y73.122 E4.11095
G1 X79.224 Y72.814 E4.12505
G1 X78.753 Y72.452 E4.13709
G1 X78.351 Y72.014 E4.14914
G1 X77.991 Y71.419 E4.16323
G1 X77.782 Y70.847 E4.17557
G1 X77.674 Y70.145 E4.18996
G1 X77.721 Y69.436 E4.20435
G1 X77.875 Y68.862 E4.21640
G1 X78.126 Y68.323 E4.22847
G1 X78.537 Y67.763 E4.24254
G1 X78.986 Y67.351 E4.25487
G1 X79.593 Y66.983 E4.26926
G1 X80.266 Y66.755 E4.28366
G1 X80.869 Y66.675 E4.29599 F1800.000
G1 X81.564 Y66.721 E4.31009
G1 X82.138 Y66.875 E4.32213
G1 X82.676 Y67.126 E4.33417
G1 X83.237 Y67.537 E4.34827
G1 X83.649 Y67.986 E4.36061
G1 X84.009 Y68.581 E4.37470
G1 X84.218 Y69.153 E4.38704
G1 X84.326 Y69.855 E4.40143
G1 X84.279 Y70.564 E4.41583
G1 X84.125 Y71.138 E4.42787
G1 X83.874 Y71.676 E4.43991
G1 X83.454 Y72.249 E4.45430
G1 X82.920 Y72.717 E4.46869
G1 X82.406 Y73.014 E4.48074
G1 X81.847 Y73.218 E4.49278
G1 X81.204 Y73.317 E4.50595
G1 X81.118 Y72.694 F1800.000
G1 X80.539 Y72.656 E4.51770 F1800.000
G1 X80.071 Y72.531 E4.52753
G1 X79.558 Y72.278 E4.53912
G1 X79.179 Y71.987 E4.54879
G1 X78.857 Y71.635 E4.55846
G1 X78.560 Y71.146 E4.57005
G1 X78.394 Y70.690 E4.57988
G1 X78.306 Y70.118 E4.59163
G1 X78.344 Y69.539 E4.60337
G1 X78.467 Y69.078 E4.61305
G1 X78.670 Y68.644 E4.62274
G1 X79.007 Y68.184 E4.63431
G1 X79.365 Y67.857 E4.64414
G1 X79.860 Y67.556 E4.65588
