; generated by Slic3r 1.2.9 on 2021-05-05 at 14:48:26

; external perimeters extrusion width = 0.40mm
; perimeters extrusion width = 0.67mm
; infill extrusion width = 0.67mm
; solid infill extrusion width = 0.67mm
; top infill extrusion width = 0.67mm
; support material extrusion width = 0.40mm

M190 S60 ; set bed temperature
M104 S205 ; set temperature
G28 ; home all axes
G1 Z5 F5000 ; lift nozzle

M109 S205 ; wait for temperature to be reached
G21 ; set units to millimeters
G90 ; use absolute coordinates
M82 ; use absolute distances for extrusion
G92 E0
M106 S89.25
G1 Z0.200 F1800.000
G1 E-3.00000 F2400.00000
G92 E0
G1 X63.782 Y52.108 F1800.000
G1 E3.00000 F2400.00000
G1 X65.569 Y49.967 E3.04957 F1800.000
G1 X67.887 Y48.418 E3.09915
G1 X70.549 Y47.587 E3.14872
G1 X72.100 Y47.463 E3.17638
G1 X107.900 Y47.463 E3.81282
G1 X110.660 Y47.861 E3.86240
G1 X113.195 Y49.022 E3.91197 F1800.000
G1 X115.299 Y50.853 E3.96154
G1 X116.800 Y53.203 E4.01112
G1 X117.327 Y54.666 E4.03877
G1 X117.376 Y54.855 E4.04224
G1 X117.567 Y55.732 E4.05819
G1 X117.713 Y56.793 E4.07724
G1 X117.757 Y57.423 E4.08846
G1 X117.770 Y58.000 E4.09872
G1 X117.768 Y122.220 E5.24041
G1 X117.735 Y122.935 E5.25313
G1 X117.630 Y123.884 E5.27011
G1 X117.498 Y124.619 E5.28339
G1 X117.327 Y125.334 E5.29645
G1 X116.218 Y127.892 E5.34603
G1 X114.431 Y130.033 E5.39560
G1 X112.113 Y131.582 E5.44517
G1 X109.451 Y132.413 E5.49475
G1 X107.900 Y132.537 E5.52241
G1 X72.100 Y132.537 E6.15885
G1 X69.340 Y132.139 E6.20842
G1 X66.805 Y130.978 E6.25800
G1 X64.701 Y129.147 E6.30757
G1 X63.200 Y126.797 E6.35715
G1 X62.673 Y125.334 E6.38480
G1 X62.502 Y124.619 E6.39786
G1 X62.388 Y123.999 E6.40908
G1 X62.309 Y123.414 E6.41957
G1 X62.257 Y122.822 E6.43013
G1 X62.232 Y122.220 E6.44084
G1 X62.231 Y57.863 E7.58496
G1 X62.265 Y57.066 E7.59916
G1 X62.337 Y56.354 E7.61187
G1 X62.477 Y55.500 E7.62726
G1 X62.668 Y54.686 E7.64212
G1 X63.758 Y52.163 E7.69099
G1 X64.339 Y52.418 F1800.000
G1 X64.364 Y52.362 E7.69207 F1800.000
G1 X66.122 Y50.317 E7.74002
G1 X68.400 Y48.873 E7.78796
G1 X72.100 Y48.091 E7.85520
G1 X107.900 Y48.091 E8.49164
G1 X110.567 Y48.489 E8.53959
G1 X113.003 Y49.648 E8.58753 F1800.000
G1 X114.994 Y51.467 E8.63548
G1 X116.720 Y54.831 E8.70270
G1 X116.949 Y55.845 E8.72119
G1 X117.087 Y56.855 E8.73930
G1 X117.129 Y57.449 E8.74989
G1 X117.142 Y58.000 E8.75969
G1 X117.132 Y122.468 E9.90578
G1 X117.087 Y123.145 E9.91785
G1 X117.009 Y123.790 E9.92941
G1 X116.884 Y124.488 E9.94202
G1 X116.721 Y125.169 E9.95445
G1 X115.636 Y127.638 E10.00239
G1 X113.878 Y129.683 E10.05034
G1 X111.600 Y131.127 E10.09828
G1 X107.900 Y131.909 E10.16552
G1 X72.100 Y131.909 E10.80196
G1 X69.433 Y131.511 E10.84991
G1 X66.997 Y130.352 E10.89785
G1 X65.006 Y128.533 E10.94580
G1 X63.280 Y125.169 E11.01302
G1 X63.090 Y124.359 E11.02782
G1 X62.960 Y123.567 E11.04209
G1 X62.891 Y122.890 E11.05417
G1 X62.859 Y122.128 E11.06774
G1 X62.862 Y57.713 E12.21289
G1 X62.913 Y56.855 E12.22818
G1 X62.996 Y56.181 E12.24025
G1 X63.116 Y55.512 E12.25234
G1 X63.279 Y54.831 E12.26477
G1 X64.315 Y52.473 E12.31057
G1 X64.895 Y52.731 F1800.000
G1 X64.945 Y52.620 E12.31274 F1800.000
G1 X66.672 Y50.674 E12.35900
G1 X68.907 Y49.341 E12.40526
G1 X72.100 Y48.719 E12.46308
G1 X107.900 Y48.719 E13.09953
G1 X110.471 Y49.117 E13.14579
G1 X112.803 Y50.273 E13.19205 F1800.000
G1 X114.676 Y52.079 E13.23830
G1 X116.114 Y54.996 E13.29612
G1 X116.331 Y55.959 E13.31367
G1 X116.427 Y56.595 E13.32510
G1 X116.482 Y57.153 E13.33508
G1 X116.513 Y58.000 E13.35014
G1 X116.510 Y122.269 E14.49270
G1 X116.462 Y123.084 E14.50721
G1 X116.388 Y123.695 E14.51816
G1 X116.269 Y124.358 E14.53013
G1 X116.114 Y125.003 E14.54193
G1 X115.055 Y127.380 E14.58819
G1 X113.328 Y129.326 E14.63445
G1 X111.093 Y130.659 E14.68071
G1 X107.900 Y131.281 E14.73854
G1 X72.100 Y131.281 E15.37498
G1 X69.529 Y130.883 E15.42124
G1 X67.197 Y129.727 E15.46750
G1 X65.324 Y127.921 E15.51376
G1 X63.886 Y125.004 E15.57158
G1 X63.706 Y124.237 E15.58559
G1 X63.583 Y123.488 E15.59908
G1 X63.511 Y122.738 E15.61247
G1 X63.487 Y122.000 E15.62560
G1 X63.490 Y57.727 E16.76823
G1 X63.538 Y56.916 E16.78267
G1 X63.617 Y56.277 E16.79412
G1 X63.731 Y55.643 E16.80558
G1 X63.886 Y54.996 E16.81739
G1 X64.871 Y52.786 E16.86041
G1 X65.449 Y53.048 F1800.000
G1 X65.525 Y52.881 E16.86367 F1800.000
G1 X67.220 Y51.039 E16.90818
G1 X69.408 Y49.822 E16.95269
G1 X72.100 Y49.348 E17.00128
G1 X107.900 Y49.348 E17.63773
G1 X110.372 Y49.745 E17.68223
G1 X112.594 Y50.898 E17.72674 F1800.000
G1 X114.344 Y52.689 E17.77125
G1 X115.508 Y55.161 E17.81984
G1 X115.713 Y56.073 E17.83644
G1 X115.804 Y56.674 E17.84725
G1 X115.855 Y57.197 E17.85660
G1 X115.885 Y58.000 E17.87088
G1 X115.882 Y122.255 E19.01320
G1 X115.837 Y123.022 E19.02686
G1 X115.766 Y123.601 E19.03722
G1 X115.655 Y124.227 E19.04852
G1 X115.508 Y124.838 E19.05971
G1 X114.475 Y127.119 E19.10422
G1 X112.780 Y128.961 E19.14872
G1 X110.592 Y130.178 E19.19323
G1 X107.900 Y130.652 E19.24182
G1 X72.100 Y130.652 E19.87827
G1 X69.628 Y130.255 E19.92278
G1 X67.406 Y129.102 E19.96729
G1 X65.656 Y127.311 E20.01179
G1 X64.492 Y124.839 E20.06038
G1 X64.322 Y124.115 E20.07360
G1 X64.207 Y123.409 E20.08632
G1 X64.137 Y122.696 E20.09905
G1 X64.115 Y122.000 E20.11143
G1 X64.118 Y57.741 E21.25381
G1 X64.163 Y56.978 E21.26741
G1 X64.237 Y56.373 E21.27823
G1 X64.345 Y55.773 E21.28907
G1 X64.492 Y55.161 E21.30025
G1 X65.424 Y53.103 E21.34043
G1 X66.001 Y53.369 F1800.000
G1 X66.104 Y53.146 E21.34479 F1800.000
G1 X67.765 Y51.413 E21.38747
G1 X69.902 Y50.317 E21.43016
G1 X72.100 Y49.976 E21.46971
G1 X107.900 Y49.976 E22.10615
G1 X110.268 Y50.373 E22.14884
G1 X112.377 Y51.522 E22.19152 F1800.000
G1 X113.995 Y53.295 E22.23421
G1 X114.902 Y55.326 E22.27375
G1 X115.023 Y55.822 E22.28283
G1 X115.129 Y56.386 E22.29303
G1 X115.234 Y57.324 E22.30980
G1 X115.257 Y58.000 E22.32183
G1 X115.254 Y122.242 E23.46391
G1 X115.211 Y122.961 E23.47671
G1 X115.145 Y123.507 E23.48649
G1 X115.040 Y124.096 E23.49713
G1 X114.902 Y124.673 E23.50768
G1 X113.897 Y126.854 E23.55037
G1 X112.235 Y128.587 E23.59306
G1 X110.098 Y129.683 E23.63574
G1 X107.900 Y130.024 E23.67529
G1 X72.100 Y130.024 E24.31173
G1 X69.732 Y129.627 E24.35442
G1 X67.623 Y128.478 E24.39711
G1 X66.005 Y126.705 E24.43979
G1 X65.093 Y124.654 E24.47970
G1 X64.939 Y123.993 E24.49176
G1 X64.830 Y123.330 E24.50371
G1 X64.764 Y122.654 E24.51578
G1 X64.743 Y122.000 E24.52741
G1 X64.745 Y57.815 E25.66848
G1 X64.772 Y57.241 E25.67869
G1 X64.858 Y56.470 E25.69249
G1 X64.960 Y55.904 E25.70270
G1 X65.098 Y55.327 E25.71327
G1 X65.976 Y53.423 E25.75053
G1 X66.550 Y53.693 F1800.000
G1 X66.681 Y53.416 E25.75598 F1800.000
G1 X68.307 Y51.797 E25.79677
G1 X70.387 Y50.830 E25.83755
G1 X72.100 Y50.604 E25.86827
G1 X107.900 Y50.604 E26.50471
G1 X110.159 Y51.001 E26.54550
G1 X112.148 Y52.145 E26.58628 F1800.000
G1 X113.628 Y53.898 E26.62706
G1 X114.295 Y55.491 E26.65778
G1 X114.408 Y55.953 E26.66623
G1 X114.508 Y56.483 E26.67581
G1 X114.610 Y57.405 E26.69231
G1 X114.628 Y58.000 E26.70289
G1 X114.626 Y122.228 E27.84472
G1 X114.586 Y122.900 E27.85668
G1 X114.524 Y123.412 E27.86586
G1 X114.425 Y123.965 E27.87584
G1 X114.296 Y124.508 E27.88577
G1 X113.319 Y126.584 E27.92656
G1 X111.693 Y128.203 E27.96734
G1 X109.613 Y129.170 E28.00812
G1 X107.900 Y129.396 E28.03884
G1 X72.100 Y129.396 E28.67529
G1 X69.841 Y128.999 E28.71607
G1 X67.852 Y127.855 E28.75686
G1 X66.372 Y126.102 E28.79764
G1 X65.705 Y124.509 E28.82835
G1 X65.653 Y124.309 E28.83202
G1 X65.538 Y123.783 E28.84159
G1 X65.453 Y123.251 E28.85117
G1 X65.398 Y122.715 E28.86075
G1 X65.373 Y122.176 E28.87033
G1 X65.372 Y58.000 E30.01125
G1 X65.391 Y57.390 E30.02209
G1 X65.453 Y56.749 E30.03354
G1 X65.558 Y56.116 E30.04494
G1 X65.699 Y55.511 E30.05599
G1 X66.525 Y53.748 E30.09061
G1 E27.09061 F2400.00000
G92 E0
G1 X79.979 Y105.525 F1800.000
G1 E3.00000 F2400.00000
G1 X80.800 Y105.417 E3.01472 F1800.000
G1 X81.627 Y105.453 E3.02944
G1 X82.571 Y105.684 E3.04672
G1 X83.442 Y106.114 E3.06399
G1 X84.122 Y106.635 E3.07921
G1 X84.744 Y107.344 E3.09598
G1 X85.158 Y108.061 E3.11070
G1 X85.441 Y108.839 E3.12542
G1 X85.589 Y109.800 E3.14270
G1 X85.525 Y110.769 E3.15997
G1 X85.311 Y111.569 E3.17469
G1 X84.961 Y112.319 E3.18941
G1 X84.403 Y113.080 E3.20618
G1 X83.772 Y113.659 E3.22140
G1 X82.941 Y114.163 E3.23867
G1 X82.021 Y114.475 E3.25595
G1 X81.200 Y114.583 E3.27067
G1 X80.373 Y114.547 E3.28539
G1 X79.429 Y114.316 E3.30266
G1 X78.558 Y113.886 E3.31994
G1 X77.878 Y113.365 E3.33516
G1 X77.256 Y112.656 E3.35193
G1 X76.842 Y111.939 E3.36665
G1 X76.559 Y111.161 E3.38137
G1 X76.411 Y110.200 E3.39864
G1 X76.475 Y109.231 E3.41592
G1 X76.689 Y108.431 E3.43064
G1 X77.039 Y107.681 E3.44536
G1 X77.614 Y106.897 E3.46263
G1 X78.343 Y106.257 E3.47987
G1 X79.085 Y105.828 E3.49512
G1 X79.922 Y105.544 E3.51083
G1 X80.122 Y106.140 F1800.000
G1 X80.827 Y106.047 E3.52347 F1800.000
G1 X81.538 Y106.078 E3.53612
G1 X82.355 Y106.278 E3.55107
G1 X83.109 Y106.650 E3.56602
G1 X83.690 Y107.096 E3.57904
G1 X84.230 Y107.712 E3.59361
G1 X84.586 Y108.328 E3.60625
G1 X84.829 Y108.996 E3.61889
G1 X84.957 Y109.827 E3.63384
G1 X84.902 Y110.666 E3.64879
G1 X84.718 Y111.353 E3.66144
G1 X84.418 Y111.998 E3.67408
G1 X83.933 Y112.659 E3.68865
G1 X83.393 Y113.154 E3.70167
G1 X82.674 Y113.590 E3.71662
G1 X81.878 Y113.860 E3.73157
G1 X81.173 Y113.953 E3.74421
G1 X80.462 Y113.922 E3.75686
G1 X79.645 Y113.722 E3.77181
G1 X78.891 Y113.350 E3.78676
G1 X78.310 Y112.904 E3.79978
G1 X77.770 Y112.288 E3.81435
G1 X77.414 Y111.672 E3.82699
G1 X77.171 Y111.004 E3.83963
G1 X77.043 Y110.173 E3.85458
G1 X77.098 Y109.334 E3.86953
G1 X77.282 Y108.647 E3.88218
G1 X77.582 Y108.002 E3.89482
G1 X78.080 Y107.324 E3.90977
G1 X78.711 Y106.770 E3.92469
G1 X79.346 Y106.403 E3.93774
G1 X80.065 Y106.159 E3.95124
G1 X80.266 Y106.755 F1800.000
G1 X80.855 Y106.677 E3.96181 F1800.000
G1 X81.449 Y106.703 E3.97238
G1 X82.139 Y106.872 E3.98500
G1 X82.776 Y107.186 E3.99763
G1 X83.259 Y107.557 E4.00845
G1 X83.717 Y108.080 E4.02082
G1 X84.014 Y108.594 E4.03139
G1 X84.218 Y109.153 E4.04195
G1 X84.326 Y109.855 E4.05458
G1 X84.279 Y110.564 E4.06720
G1 X84.125 Y111.138 E4.07777
G1 X83.874 Y111.676 E4.08833
G1 X83.463 Y112.237 E4.10070
G1 X83.014 Y112.649 E4.11153
G1 X82.407 Y113.017 E4.12415
G1 X81.734 Y113.245 E4.13678
G1 X81.145 Y113.323 E4.14734
G1 X80.551 Y113.297 E4.15791
G1 X79.861 Y113.128 E4.17054
G1 X79.224 Y112.814 E4.18316
G1 X78.741 Y112.443 E4.19399
G1 X78.283 Y111.920 E4.20635
G1 X77.986 Y111.406 E4.21692
G1 X77.782 Y110.847 E4.22748
G1 X77.674 Y110.145 E4.24011
G1 X77.721 Y109.436 E4.25274
G1 X77.875 Y108.862 E4.26330
G1 X78.126 Y108.324 E4.27387
G1 X78.546 Y107.751 E4.28649
G1 X79.079 Y107.284 E4.29910
G1 X79.607 Y106.978 E4.30994
G1 X80.209 Y106.774 E4.32125
G1 X80.409 Y107.370 F1800.000
G1 X80.882 Y107.307 E4.32973 F1800.000
G1 X81.359 Y107.328 E4.33822
G1 X81.922 Y107.466 E4.34853
G1 X82.442 Y107.722 E4.35883
G1 X82.827 Y108.017 E4.36745
G1 X83.204 Y108.447 E4.37762
G1 X83.443 Y108.861 E4.38611
G1 X83.606 Y109.310 E4.39459
G1 X83.694 Y109.882 E4.40490
G1 X83.656 Y110.461 E4.41520
G1 X83.533 Y110.922 E4.42369
G1 X83.331 Y111.355 E4.43218
G1 X82.993 Y111.816 E4.44234
G1 X82.635 Y112.143 E4.45097
G1 X82.140 Y112.444 E4.46127
G1 X81.591 Y112.630 E4.47157
G1 X81.118 Y112.693 E4.48006
G1 X80.641 Y112.672 E4.48855
G1 X80.078 Y112.534 E4.49885
G1 X79.558 Y112.278 E4.50916
G1 X79.173 Y111.983 E4.51778
G1 X78.796 Y111.553 E4.52795
G1 X78.557 Y111.139 E4.53643
G1 X78.394 Y110.690 E4.54492
G1 X78.306 Y110.118 E4.55523
G1 X78.344 Y109.539 E4.56553
G1 X78.467 Y109.078 E4.57402
G1 X78.669 Y108.645 E4.58251
G1 X79.012 Y108.178 E4.59281
G1 X79.446 Y107.797 E4.60309
G1 X79.867 Y107.553 E4.61173
G1 X80.352 Y107.389 E4.62083
G1 X80.511 Y107.855 F1800.000
G1 X80.521 Y107.852 E4.62095 F1800.000
G1 X80.904 Y107.801 E4.62485 F1800.000
G1 X81.289 Y107.818 E4.62875
G1 X81.753 Y107.932 E4.63357
G1 X82.181 Y108.143 E4.63839
G1 X82.489 Y108.379 E4.64231
G1 X82.802 Y108.736 E4.64710
G1 X82.995 Y109.070 E4.65100
G1 X83.126 Y109.432 E4.65490
G1 X83.199 Y109.904 E4.65972
G1 X83.168 Y110.380 E4.66454
G1 X83.068 Y110.753 E4.66844
G1 X82.905 Y111.102 E4.67234
G1 X82.624 Y111.485 E4.67713
G1 X82.338 Y111.747 E4.68105
G1 X81.930 Y111.995 E4.68587
G1 X81.478 Y112.148 E4.69069
G1 X81.096 Y112.199 E4.69459
G1 X80.711 Y112.182 E4.69849
G1 X80.247 Y112.068 E4.70331
G1 X79.819 Y111.857 E4.70813
G1 X79.511 Y111.621 E4.71205
G1 X79.198 Y111.264 E4.71685
G1 X79.005 Y110.930 E4.72074
G1 X78.874 Y110.568 E4.72464
G1 X78.801 Y110.096 E4.72946
G1 X78.832 Y109.620 E4.73428
G1 X78.932 Y109.247 E4.73818
G1 X79.095 Y108.898 E4.74208
G1 X79.377 Y108.513 E4.74690
G1 X79.735 Y108.199 E4.75171
G1 X80.072 Y108.004 E4.75564
G1 X80.454 Y107.875 E4.75971
G1 X80.513 Y107.844 F1800.000
G1 E1.75971 F2400.00000
G92 E0
G1 X81.200 Y74.589 F1800.000
G1 E3.00000 F2400.00000
G1 X80.231 Y74.525 E3.01727 F1800.000
G1 X79.404 Y74.303 E3.03250
G1 X78.558 Y73.886 E3.04927
G1 X77.901 Y73.382 E3.06399
G1 X77.341 Y72.772 E3.07871
G1 X76.852 Y71.965 E3.09547
G1 X76.559 Y71.161 E3.11070
G1 X76.411 Y70.200 E3.12797
G1 X76.475 Y69.231 E3.14525
G1 X76.689 Y68.431 E3.15997
G1 X77.040 Y67.679 E3.17472
G1 X77.597 Y66.920 E3.19146
G1 X78.228 Y66.341 E3.20668
G1 X79.059 Y65.837 E3.22395
G1 X79.979 Y65.525 E3.24123
G1 X80.828 Y65.413 E3.25645 F1800.000
G1 X81.769 Y65.475 E3.27322
G1 X82.569 Y65.689 E3.28794
G1 X83.319 Y66.039 E3.30266
G1 X84.080 Y66.597 E3.31943
G1 X84.659 Y67.228 E3.33465
G1 X85.148 Y68.035 E3.35142
G1 X85.441 Y68.839 E3.36664
G1 X85.589 Y69.800 E3.38392
G1 X85.525 Y70.769 E3.40119
G1 X85.311 Y71.569 E3.41591
G1 X84.961 Y72.319 E3.43063
G1 X84.386 Y73.103 E3.44791
G1 X83.656 Y73.744 E3.46518
G1 X82.939 Y74.158 E3.47990
G1 X82.161 Y74.441 E3.49462
G1 X81.260 Y74.580 E3.51083
G1 X81.173 Y73.957 F1800.000
G1 X80.334 Y73.902 E3.52578 F1800.000
G1 X79.626 Y73.713 E3.53880
G1 X78.891 Y73.350 E3.55337
G1 X78.327 Y72.917 E3.56601
G1 X77.846 Y72.393 E3.57865
G1 X77.421 Y71.692 E3.59322
G1 X77.171 Y71.004 E3.60624
G1 X77.043 Y70.173 E3.62120
G1 X77.098 Y69.334 E3.63615
G1 X77.282 Y68.646 E3.64879
G1 X77.583 Y68.001 E3.66146
G1 X78.067 Y67.341 E3.67600
G1 X78.607 Y66.846 E3.68902
G1 X79.326 Y66.410 E3.70397
G1 X80.122 Y66.140 E3.71892
G1 X80.849 Y66.044 E3.73195 F1800.000
G1 X81.666 Y66.098 E3.74652
G1 X82.353 Y66.282 E3.75916
G1 X82.998 Y66.582 E3.77180
G1 X83.659 Y67.067 E3.78637
G1 X84.154 Y67.607 E3.79939
G1 X84.579 Y68.308 E3.81396
G1 X84.829 Y68.996 E3.82698
G1 X84.957 Y69.827 E3.84194
G1 X84.902 Y70.666 E3.85689
G1 X84.718 Y71.353 E3.86953
G1 X84.418 Y71.998 E3.88217
G1 X83.920 Y72.676 E3.89712
G1 X83.288 Y73.230 E3.91207
G1 X82.672 Y73.586 E3.92471
G1 X82.004 Y73.829 E3.93736
G1 X81.232 Y73.948 E3.95124
G1 X81.145 Y73.326 F1800.000
G1 X80.436 Y73.279 E3.96387 F1800.000
G1 X79.848 Y73.122 E3.97469
G1 X79.224 Y72.814 E3.98706
G1 X78.753 Y72.452 E3.99762
G1 X78.351 Y72.014 E4.00819
G1 X77.991 Y71.419 E4.02056
G1 X77.782 Y70.847 E4.03138
G1 X77.674 Y70.145 E4.04401
G1 X77.721 Y69.436 E4.05663
G1 X77.875 Y68.862 E4.06720
G1 X78.126 Y68.323 E4.07779
G1 X78.537 Y67.763 E4.09013
G1 X78.986 Y67.351 E4.10095
G1 X79.593 Y66.983 E4.11358
G1 X80.266 Y66.755 E4.12621
G1 X80.869 Y66.675 E4.13703 F1800.000
G1 X81.564 Y66.721 E4.14940
G1 X82.138 Y66.875 E4.15996
G1 X82.676 Y67.126 E4.17053
G1 X83.237 Y67.537 E4.18290
G1 X83.649 Y67.986 E4.19372
G1 X84.009 Y68.581 E4.20609
G1 X84.218 Y69.153 E4.21691
G1 X84.326 Y69.855 E4.22954
G1 X84.279 Y70.564 E4.24217
G1 X84.125 Y71.138 E4.25273
G1 X83.874 Y71.676 E4.26330
G1 X83.454 Y72.249 E4.27592
G1 X82.920 Y72.717 E4.28855
G1 X82.406 Y73.014 E4.29911
G1 X81.847 Y73.218 E4.30968
G1 X81.204 Y73.317 E4.32124
G1 X81.118 Y72.694 F1800.000
G1 X80.539 Y72.656 E4.33154 F1800.000
G1 X80.071 Y72.531 E4.34017
G1 X79.558 Y72.278 E4.35033
G1 X79.179 Y71.987 E4.35882
G1 X78.857 Y71.635 E4.36731
G1 X78.560 Y71.146 E4.37748
G1 X78.394 Y70.690 E4.38610
G1 X78.306 Y70.118 E4.39640
G1 X78.344 Y69.539 E4.40671
G1 X78.467 Y69.078 E4.41520
G1 X78.670 Y68.644 E4.42371
G1 X79.007 Y68.184 E4.43385
G1 X79.365 Y67.857 E4.44247
