; generated by Slic3r 1.2.9 on 2021-05-10 at 19:14:51

; external perimeters extrusion width = 0.40mm
; perimeters extrusion width = 0.67mm
; infill extrusion width = 0.67mm
; solid infill extrusion width = 0.67mm
; top infill extrusion width = 0.67mm

M190 S60 ; set bed temperature
M104 S205 ; set temperature
G28 ; home all axes
G1 Z5 F5000 ; lift nozzle

M109 S205 ; wait for temperature to be reached
G21 ; set units to millimeters
G90 ; use absolute coordinates
M82 ; use absolute distances for extrusion
G92 E0
G1 Z0.200 F1800.000
G1 E-3.00000 F2400.00000
G92 E0
G1 X69.975 Y66.835 F1800.000
G1 E3.00000 F2400.00000
G1 X72.326 Y65.334 E3.05571 F1800.000
G1 X76.355 Y64.464 E3.13806
G1 X102.885 Y64.462 E3.66808
G1 X104.156 Y64.544 E3.69351 F1800.000
G1 X104.784 Y64.640 E3.70621
G1 X105.407 Y64.774 E3.71894
G1 X106.020 Y64.945 E3.73165
G1 X106.622 Y65.154 E3.74438
G1 X107.209 Y65.397 E3.75708
G1 X107.780 Y65.676 E3.76978
G1 X108.334 Y65.989 E3.78249
G1 X108.868 Y66.335 E3.79520
G1 X109.380 Y66.712 E3.80790
G1 X109.869 Y67.120 E3.82062
G1 X110.322 Y67.546 E3.83305
G1 X110.759 Y68.010 E3.84577
G1 X111.167 Y68.498 E3.85849
G1 X111.544 Y69.011 E3.87120
G1 X111.889 Y69.544 E3.88388
G1 X112.203 Y70.099 E3.89663
G1 X112.482 Y70.671 E3.90933
G1 X112.726 Y71.259 E3.92205
G1 X112.933 Y71.859 E3.93473
G1 X113.105 Y72.472 E3.94746
G1 X113.239 Y73.094 E3.96018
G1 X113.335 Y73.724 E3.97291
G1 X113.393 Y74.357 E3.98560
G1 X113.412 Y74.993 E3.99831
G1 X113.394 Y75.629 E4.01102
G1 X113.337 Y76.262 E4.02372
G1 X113.241 Y76.892 E4.03646
G1 X113.108 Y77.514 E4.04916
G1 X112.937 Y78.128 E4.06189
G1 X112.730 Y78.729 E4.07458
G1 X112.487 Y79.318 E4.08731
G1 X112.209 Y79.888 E4.09999
G1 X111.897 Y80.444 E4.11273
G1 X111.640 Y80.847 E4.12228
G1 X91.640 Y110.847 E4.84259
G1 X91.167 Y111.502 E4.85872
G1 X90.538 Y112.232 E4.87797
G1 X90.111 Y112.659 E4.89004
G1 X89.635 Y113.082 E4.90276
G1 X88.868 Y113.665 E4.92200
G1 X88.039 Y114.183 E4.94153
G1 X87.475 Y114.478 E4.95424
G1 X86.924 Y114.726 E4.96632
G1 X86.019 Y115.055 E4.98555
G1 X85.074 Y115.302 E5.00507
G1 X84.479 Y115.411 E5.01715
G1 X83.934 Y115.481 E5.02813
G1 X82.885 Y115.538 E5.04911
G1 X76.352 Y115.536 E5.17963
G1 X73.592 Y115.137 E5.23534
G1 X71.058 Y113.974 E5.29105
G1 X68.955 Y112.143 E5.34676
G1 X67.454 Y109.793 E5.40246
G1 X66.586 Y105.766 E5.48477
G1 X66.586 Y74.234 E6.11469
G1 X66.984 Y71.474 E6.17040
G1 X68.145 Y68.939 E6.22611
G1 X69.936 Y66.881 E6.28062
G1 X70.462 Y67.280 F1800.000
G1 X70.590 Y67.141 E6.28440 F1800.000
G1 X72.910 Y65.767 E6.33827
G1 X76.355 Y65.093 E6.40839
G1 X102.885 Y65.091 E6.93841
G1 X104.080 Y65.168 E6.96232 F1800.000
G1 X104.671 Y65.258 E6.97427
G1 X105.256 Y65.384 E6.98623
G1 X105.833 Y65.545 E6.99819
G1 X106.399 Y65.741 E7.01016
G1 X106.951 Y65.970 E7.02210
G1 X107.488 Y66.232 E7.03404
G1 X108.009 Y66.527 E7.04600
G1 X108.511 Y66.852 E7.05795
G1 X108.993 Y67.207 E7.06990
G1 X109.452 Y67.590 E7.08185
G1 X109.888 Y68.001 E7.09381
G1 X110.298 Y68.437 E7.10577
G1 X110.681 Y68.897 E7.11773
G1 X111.035 Y69.379 E7.12968
G1 X111.359 Y69.881 E7.14161
G1 X111.653 Y70.404 E7.15360
G1 X111.914 Y70.941 E7.16554
G1 X112.143 Y71.495 E7.17750
G1 X112.337 Y72.059 E7.18942
G1 X112.498 Y72.636 E7.20140
G1 X112.623 Y73.222 E7.21335
G1 X112.713 Y73.814 E7.22532
G1 X112.766 Y74.409 E7.23726
G1 X112.784 Y75.007 E7.24921
G1 X112.766 Y75.605 E7.26116
G1 X112.711 Y76.201 E7.27311
G1 X112.620 Y76.793 E7.28508
G1 X112.495 Y77.378 E7.29703
G1 X112.333 Y77.955 E7.30900
G1 X112.138 Y78.519 E7.32093
G1 X111.914 Y79.060 E7.33262
G1 X111.653 Y79.596 E7.34454
G1 X111.359 Y80.119 E7.35652
G1 X111.118 Y80.499 E7.36551
G1 X91.118 Y110.499 E8.08582
G1 X90.681 Y111.103 E8.10072
G1 X90.080 Y111.801 E8.11911
G1 X89.657 Y112.223 E8.13106
G1 X89.233 Y112.599 E8.14238
G1 X88.511 Y113.148 E8.16049
G1 X87.730 Y113.636 E8.17888
G1 X87.200 Y113.913 E8.19083
G1 X86.683 Y114.145 E8.20215
G1 X85.832 Y114.455 E8.22025
G1 X84.942 Y114.688 E8.23863
G1 X84.385 Y114.790 E8.24995
G1 X83.867 Y114.856 E8.26038
G1 X82.885 Y114.909 E8.28002
G1 X76.353 Y114.907 E8.41053
G1 X73.685 Y114.509 E8.46441
G1 X71.250 Y113.349 E8.51829
G1 X69.260 Y111.529 E8.57216
G1 X67.887 Y109.208 E8.62604
G1 X67.214 Y105.766 E8.69611
G1 X67.214 Y74.234 E9.32604
G1 X67.612 Y71.567 E9.37992
G1 X68.771 Y69.132 E9.43380
G1 X70.422 Y67.324 E9.48270
G1 X70.935 Y67.736 F1800.000
G1 X71.202 Y67.458 E9.49039 F1800.000
G1 X73.489 Y66.218 E9.54237
G1 X76.355 Y65.721 E9.60048
G1 X102.885 Y65.719 E10.13049
G1 X104.004 Y65.791 E10.15289 F1800.000
G1 X104.558 Y65.876 E10.16408
G1 X105.106 Y65.994 E10.17529
G1 X105.646 Y66.145 E10.18648
G1 X106.176 Y66.329 E10.19769
G1 X106.693 Y66.543 E10.20888
G1 X107.196 Y66.789 E10.22006
G1 X107.684 Y67.065 E10.23126
G1 X108.154 Y67.369 E10.24245
G1 X108.605 Y67.701 E10.25364
G1 X109.036 Y68.060 E10.26484
G1 X109.444 Y68.445 E10.27604
G1 X109.828 Y68.854 E10.28724
G1 X110.186 Y69.284 E10.29844
G1 X110.518 Y69.736 E10.30963
G1 X110.821 Y70.206 E10.32081
G1 X111.097 Y70.696 E10.33203
G1 X111.342 Y71.199 E10.34322
G1 X111.556 Y71.718 E10.35442
G1 X111.738 Y72.246 E10.36559
G1 X111.888 Y72.787 E10.37680
G1 X112.005 Y73.335 E10.38800
G1 X112.089 Y73.890 E10.39921
G1 X112.139 Y74.447 E10.41039
G1 X112.156 Y75.007 E10.42158
G1 X112.138 Y75.567 E10.43278
G1 X112.087 Y76.125 E10.44396
G1 X112.002 Y76.680 E10.45518
G1 X111.884 Y77.227 E10.46637
G1 X111.733 Y77.768 E10.47758
G1 X111.550 Y78.296 E10.48875
G1 X111.341 Y78.802 E10.49968
G1 X111.097 Y79.304 E10.51085
G1 X110.821 Y79.794 E10.52207
G1 X110.595 Y80.150 E10.53051
G1 X90.595 Y110.150 E11.25082
G1 X90.186 Y110.716 E11.26475
G1 X89.623 Y111.370 E11.28200
G1 X89.249 Y111.744 E11.29256
G1 X88.830 Y112.116 E11.30376
G1 X88.154 Y112.631 E11.32073
G1 X87.422 Y113.088 E11.33799
G1 X86.925 Y113.348 E11.34918
G1 X86.443 Y113.565 E11.35974
G1 X85.645 Y113.855 E11.37670
G1 X84.810 Y114.074 E11.39395
G1 X84.290 Y114.169 E11.40451
G1 X83.799 Y114.232 E11.41439
G1 X82.885 Y114.281 E11.43268
G1 X76.353 Y114.279 E11.56318
G1 X73.781 Y113.880 E11.61517
G1 X71.451 Y112.724 E11.66715
G1 X69.578 Y110.917 E11.71913
G1 X68.338 Y108.629 E11.77112
G1 X67.842 Y105.766 E11.82918
G1 X67.842 Y74.234 E12.45910
G1 X68.240 Y71.663 E12.51109
G1 X69.396 Y69.332 E12.56307
G1 X70.893 Y67.779 E12.60616
G1 X71.390 Y68.202 F1800.000
G1 X71.811 Y67.790 E12.61793 F1800.000
G1 X74.061 Y66.691 E12.66794
G1 X76.355 Y66.349 E12.71429
G1 X102.885 Y66.347 E13.24430
G1 X103.928 Y66.415 E13.26518 F1800.000
G1 X104.444 Y66.494 E13.27561
G1 X104.956 Y66.604 E13.28606
G1 X105.459 Y66.745 E13.29650
G1 X105.953 Y66.916 E13.30695
G1 X106.435 Y67.116 E13.31738
G1 X106.904 Y67.345 E13.32780
G1 X107.359 Y67.602 E13.33825
G1 X107.798 Y67.886 E13.34868
G1 X108.218 Y68.196 E13.35911
G1 X108.619 Y68.531 E13.36955
G1 X108.999 Y68.889 E13.37999
G1 X109.357 Y69.270 E13.39043
G1 X109.691 Y69.672 E13.40087
G1 X110.001 Y70.093 E13.41131
G1 X110.283 Y70.531 E13.42173
G1 X110.540 Y70.988 E13.43219
G1 X110.769 Y71.457 E13.44262
G1 X110.968 Y71.940 E13.45306
G1 X111.138 Y72.433 E13.46347
G1 X111.278 Y72.937 E13.47393
G1 X111.387 Y73.448 E13.48436
G1 X111.465 Y73.965 E13.49482
G1 X111.512 Y74.485 E13.50524
G1 X111.527 Y75.007 E13.51567
G1 X111.511 Y75.529 E13.52611
G1 X111.464 Y76.049 E13.53654
G1 X111.384 Y76.566 E13.54699
G1 X111.274 Y77.077 E13.55743
G1 X111.133 Y77.581 E13.56788
G1 X110.875 Y78.295 E13.58305
G1 X110.534 Y79.025 E13.59915
G1 X110.072 Y79.802 E13.61721
G1 X90.072 Y109.802 E14.33752
G1 X89.691 Y110.328 E14.35049
G1 X89.165 Y110.940 E14.36661
G1 X88.819 Y111.286 E14.37640
G1 X88.428 Y111.634 E14.38684
G1 X87.798 Y112.114 E14.40268
G1 X87.113 Y112.541 E14.41880
G1 X86.650 Y112.783 E14.42923
G1 X86.203 Y112.984 E14.43903
G1 X85.458 Y113.255 E14.45485
G1 X84.678 Y113.459 E14.47097
G1 X84.196 Y113.548 E14.48077
G1 X83.732 Y113.607 E14.49011
G1 X82.885 Y113.653 E14.50704
G1 X76.353 Y113.651 E14.63755
G1 X73.881 Y113.252 E14.68756
G1 X71.659 Y112.099 E14.73758
G1 X69.910 Y110.308 E14.78760
G1 X68.811 Y108.058 E14.83761
G1 X68.471 Y105.766 E14.88391
G1 X68.471 Y74.234 E15.51384
G1 X68.868 Y71.762 E15.56386
G1 X70.020 Y69.540 E15.61387
G1 X71.347 Y68.244 E15.65092
G1 X71.826 Y68.679 F1800.000
G1 X72.418 Y68.139 E15.66694 F1800.000
G1 X74.623 Y67.188 E15.71491
G1 X76.355 Y66.978 E15.74977
G1 X102.885 Y66.976 E16.27978
G1 X103.853 Y67.039 E16.29915 F1800.000
G1 X104.331 Y67.112 E16.30883
G1 X104.805 Y67.214 E16.31851
G1 X105.272 Y67.345 E16.32819
G1 X105.730 Y67.504 E16.33788
G1 X106.177 Y67.689 E16.34755
G1 X106.612 Y67.902 E16.35722
G1 X107.034 Y68.140 E16.36691
G1 X107.441 Y68.403 E16.37658
G1 X107.830 Y68.691 E16.38625
G1 X108.202 Y69.001 E16.39593
G1 X108.555 Y69.334 E16.40562
G1 X108.887 Y69.687 E16.41530
G1 X109.197 Y70.059 E16.42498
G1 X109.605 Y70.632 E16.43904
G1 X109.857 Y71.046 E16.44871
G1 X110.083 Y71.474 E16.45838
G1 X110.282 Y71.916 E16.46806
G1 X110.455 Y72.369 E16.47776
G1 X110.600 Y72.831 E16.48743
G1 X110.717 Y73.301 E16.49710
G1 X110.805 Y73.777 E16.50678
G1 X110.868 Y74.289 E16.51709
G1 X110.896 Y74.774 E16.52678
G1 X110.895 Y75.258 E16.53646
G1 X110.865 Y75.742 E16.54614
G1 X110.805 Y76.223 E16.55582
G1 X110.717 Y76.699 E16.56549
G1 X110.600 Y77.169 E16.57517
G1 X110.455 Y77.631 E16.58484
G1 X110.282 Y78.084 E16.59453
G1 X109.977 Y78.733 E16.60886
G1 X109.549 Y79.453 E16.62560
G1 X89.549 Y109.453 E17.34591
G1 X89.197 Y109.941 E17.35792
G1 X88.708 Y110.509 E17.37290
G1 X88.365 Y110.851 E17.38258
G1 X88.026 Y111.151 E17.39162
G1 X87.441 Y111.597 E17.40631
G1 X86.804 Y111.994 E17.42130
G1 X86.404 Y112.204 E17.43033
G1 X85.962 Y112.404 E17.44002
G1 X85.272 Y112.655 E17.45470
G1 X84.546 Y112.845 E17.46968
G1 X83.664 Y112.982 E17.48751
G1 X82.885 Y113.024 E17.50310
G1 X76.353 Y113.022 E17.63359
G1 X73.985 Y112.624 E17.68156
G1 X71.877 Y111.475 E17.72953
G1 X70.259 Y109.701 E17.77750
G1 X69.308 Y107.496 E17.82547
G1 X69.099 Y105.766 E17.86029
G1 X69.099 Y74.234 E18.49022
G1 X69.496 Y71.866 E18.53819
G1 X70.645 Y69.758 E18.58616
G1 X71.782 Y68.720 E18.61691
G1 X72.238 Y69.167 F1800.000
G1 X73.021 Y68.506 E18.63738 F1800.000
G1 X75.173 Y67.712 E18.68321
G1 X76.355 Y67.606 E18.70692
G1 X102.885 Y67.604 E19.23694
G1 X103.597 Y67.642 E19.25117 F1800.000
G1 X103.975 Y67.690 E19.25879
G1 X104.414 Y67.769 E19.26771
G1 X104.848 Y67.875 E19.27663
G1 X105.275 Y68.007 E19.28555
G1 X105.693 Y68.164 E19.29447
G1 X106.100 Y68.347 E19.30339
G1 X106.496 Y68.554 E19.31232
G1 X106.879 Y68.784 E19.32123
G1 X107.247 Y69.037 E19.33016
G1 X107.623 Y69.332 E19.33971
G1 X107.957 Y69.628 E19.34863
G1 X108.272 Y69.945 E19.35756
G1 X108.567 Y70.279 E19.36647
G1 X108.842 Y70.632 E19.37539
G1 X109.095 Y71.000 E19.38432
G1 X109.421 Y71.559 E19.39725
G1 X109.617 Y71.960 E19.40616
G1 X109.788 Y72.373 E19.41509
G1 X109.934 Y72.793 E19.42398
G1 X110.054 Y73.224 E19.43292
G1 X110.148 Y73.661 E19.44184
G1 X110.216 Y74.103 E19.45077
G1 X110.257 Y74.547 E19.45968
G1 X110.271 Y74.993 E19.46860
G1 X110.258 Y75.439 E19.47752
G1 X110.218 Y75.884 E19.48643
G1 X110.151 Y76.326 E19.49537
G1 X110.058 Y76.762 E19.50429
G1 X109.938 Y77.193 E19.51322
G1 X109.793 Y77.615 E19.52212
G1 X109.622 Y78.028 E19.53106
G1 X109.325 Y78.617 E19.54425
G1 X109.026 Y79.105 E19.55566
G1 X89.026 Y109.105 E20.27597
G1 X88.702 Y109.553 E20.28703
G1 X88.416 Y109.897 E20.29595
G1 X88.110 Y110.222 E20.30489
G1 X87.599 Y110.689 E20.31871
G1 X87.247 Y110.963 E20.32762
G1 X86.906 Y111.199 E20.33592
G1 X86.524 Y111.431 E20.34484
G1 X86.129 Y111.639 E20.35376
G1 X85.494 Y111.914 E20.36758
G1 X85.071 Y112.060 E20.37652
G1 X84.641 Y112.179 E20.38544
G1 X84.218 Y112.270 E20.39409
G1 X83.776 Y112.337 E20.40301
G1 X82.885 Y112.396 E20.42084
G1 X76.353 Y112.394 E20.55133
G1 X74.094 Y111.996 E20.59716
G1 X72.106 Y110.852 E20.64299
G1 X70.626 Y109.099 E20.68882
G1 X69.833 Y106.946 E20.73465
G1 X69.727 Y105.766 E20.75833
G1 X69.727 Y74.234 E21.38826
G1 X70.124 Y71.975 E21.43409
G1 X71.268 Y69.986 E21.47992
G1 X72.192 Y69.206 E21.50408
G1 E18.50408 F2400.00000
G92 E0
G1 X98.508 Y76.811 F1800.000
G1 E3.00000 F2400.00000
G1 X80.782 Y94.537 E3.50083 F1800.000
G1 X80.182 Y95.221 E3.51900
G1 X79.775 Y95.802 E3.53318
G1 X79.434 Y96.392 E3.54679
G1 X79.229 Y96.833 E3.55650
G1 X78.933 Y96.767 E3.56254
G1 X78.933 Y76.812 E3.96121
G1 X98.448 Y76.811 E4.35107
G1 X100.025 Y76.182 F1800.000
G1 X81.240 Y94.967 E4.88180 F1800.000
G1 X80.677 Y95.609 E4.89887
G1 X80.305 Y96.140 E4.91182
G1 X79.992 Y96.683 E4.92434
G1 X79.727 Y97.251 E4.93686
G1 X79.513 Y97.840 E4.94938
G1 X79.350 Y98.445 E4.96190
G1 X79.242 Y99.062 E4.97442
G1 X79.185 Y99.708 E4.98736
G1 X79.205 Y100.605 E5.00529
G1 X79.289 Y101.247 E5.01824
G1 X79.425 Y101.859 E5.03076
G1 X79.613 Y102.457 E5.04328
G1 X79.861 Y103.056 E5.05622
G1 X80.279 Y103.818 E5.07358
G1 X78.305 Y103.817 E5.11303
G1 X78.305 Y76.184 E5.66508
G1 X99.965 Y76.182 E6.09780
G1 X101.542 Y75.554 F1800.000
G1 X81.699 Y95.396 E6.65842 F1800.000
G1 X81.172 Y95.998 E6.67440
G1 X80.836 Y96.478 E6.68611
G1 X80.550 Y96.973 E6.69754
G1 X80.308 Y97.492 E6.70896
G1 X80.112 Y98.029 E6.72039
G1 X79.964 Y98.581 E6.73181
G1 X79.865 Y99.144 E6.74324
G1 X79.814 Y99.728 E6.75495
G1 X79.832 Y100.557 E6.77150
G1 X79.909 Y101.138 E6.78322
G1 X80.032 Y101.697 E6.79464
G1 X80.204 Y102.242 E6.80606
G1 X80.429 Y102.784 E6.81778
G1 X80.834 Y103.523 E6.83462
G1 X81.511 Y104.446 E6.85750
G1 X77.677 Y104.445 E6.93411
G1 X77.677 Y75.555 E7.51126
G1 X101.482 Y75.554 E7.98684
G1 X103.059 Y74.925 F1800.000
G1 X82.158 Y95.826 E8.57736 F1800.000
G1 X81.667 Y96.386 E8.59224
G1 X81.366 Y96.816 E8.60272
G1 X81.108 Y97.264 E8.61305
G1 X80.889 Y97.732 E8.62338
G1 X80.712 Y98.218 E8.63370
G1 X80.578 Y98.717 E8.64403
G1 X80.489 Y99.227 E8.65436
G1 X80.443 Y99.749 E8.66484
G1 X80.460 Y100.509 E8.68003
G1 X80.528 Y101.029 E8.69050
G1 X80.640 Y101.534 E8.70083
G1 X80.795 Y102.027 E8.71116
G1 X80.996 Y102.511 E8.72164
G1 X81.365 Y103.184 E8.73698
G1 X81.819 Y103.804 E8.75231
G1 X82.163 Y104.179 E8.76249
G1 X83.060 Y105.075 E8.78781
G1 X77.048 Y105.073 E8.90790
G1 X77.048 Y74.927 E9.51015
G1 X102.999 Y74.925 E10.02860
G1 E7.02860 F2400.00000
G92 E0
G1 X76.556 Y74.434 F1800.000
G1 E3.00000 F2400.00000
G1 X102.862 Y74.433 E3.29867 F1800.000
G1 X103.051 Y74.465 E3.30085
G1 X103.193 Y74.534 E3.30264
G1 X103.319 Y74.651 E3.30459
G1 X103.393 Y74.773 E3.30621
G1 X103.436 Y74.926 E3.30802
G1 X103.432 Y75.096 E3.30994
G1 X103.378 Y75.258 E3.31188
G1 X103.272 Y75.409 E3.31398
G1 X82.518 Y96.163 E3.64721
G1 X82.055 Y96.691 E3.65518
G1 X81.782 Y97.081 E3.66059
G1 X81.545 Y97.491 E3.66597
G1 X81.345 Y97.921 E3.67135
G1 X81.183 Y98.366 E3.67673
G1 X81.060 Y98.824 E3.68211
G1 X80.978 Y99.291 E3.68749
G1 X80.936 Y99.765 E3.69290
G1 X80.952 Y100.471 E3.70092
G1 X81.014 Y100.943 E3.70632
G1 X81.116 Y101.406 E3.71171
G1 X81.259 Y101.858 E3.71709
G1 X81.441 Y102.298 E3.72249
G1 X81.782 Y102.919 E3.73054
G1 X82.201 Y103.491 E3.73858
G1 X82.519 Y103.838 E3.74394
G1 X83.272 Y104.591 E3.75602
G1 X83.378 Y104.742 E3.75812
G1 X83.432 Y104.904 E3.76005
G1 X83.436 Y105.074 E3.76198
G1 X83.393 Y105.225 E3.76376
G1 X83.300 Y105.373 E3.76575
G1 X83.223 Y105.445 E3.76695
G1 X83.113 Y105.512 E3.76840
G1 X83.007 Y105.548 E3.76968
G1 X82.871 Y105.568 E3.77124
G1 X76.556 Y105.566 E3.84294
G1 X76.556 Y74.494 E4.19571
G1 X76.902 Y74.634 F1800.000
G1 E1.19571 F2400.00000
G92 E0
G1 X97.366 Y77.492 F1800.000
G1 E3.00000 F2400.00000
G1 X97.066 Y77.191 E3.00854 F1800.000
G1 X96.920 Y77.939 E3.02382
G1 X96.173 Y77.191 E3.04503
G1 X95.280 Y77.192 E3.06296
G1 X96.473 Y78.385 E3.09684
G1 X96.027 Y78.831 E3.10952
G1 X94.387 Y77.192 E3.15608
G1 X93.494 Y77.192 E3.17400
G1 X95.580 Y79.278 E3.23324
G1 X95.134 Y79.724 E3.24591
G1 X92.601 Y77.192 E3.31782
G1 X91.708 Y77.192 E3.33574
G1 X94.688 Y80.171 E3.42032
G1 X94.241 Y80.617 E3.43300
G1 X90.816 Y77.192 E3.53025
G1 X89.923 Y77.192 E3.54818
G1 X93.795 Y81.064 E3.65811
G1 X93.348 Y81.510 E3.67078
G1 X89.030 Y77.192 E3.79339
G1 X88.137 Y77.192 E3.81131
G1 X92.902 Y81.957 E3.94659
G1 X92.455 Y82.403 E3.95926
G1 X87.244 Y77.192 E4.10721
G1 X86.351 Y77.192 E4.12514
G1 X92.009 Y82.850 E4.28576
