; generated by Slic3r 1.2.9 on 2021-05-05 at 11:21:51

; external perimeters extrusion width = 0.40mm
; perimeters extrusion width = 0.67mm
; infill extrusion width = 0.67mm
; solid infill extrusion width = 0.67mm
; top infill extrusion width = 0.67mm
; support material extrusion width = 0.40mm

M190 S60 ; set bed temperature
M104 S205 ; set temperature
G28 ; home all axes
G1 Z5 F5000 ; lift nozzle

M109 S205 ; wait for temperature to be reached
G21 ; set units to millimeters
G90 ; use absolute coordinates
M82 ; use absolute distances for extrusion
G92 E0
M106 S89.25
G1 Z0.200 F1800.000
G1 E-3.00000 F2400.00000
G92 E0
G1 X63.782 Y52.108 F1800.000
G1 E3.00000 F2400.00000
G1 X65.569 Y49.967 E3.05127 F1800.000
G1 X67.887 Y48.418 E3.10254
G1 X70.549 Y47.587 E3.15381
G1 X72.100 Y47.463 E3.18241
G1 X107.900 Y47.463 E3.84061
G1 X110.660 Y47.861 E3.89188
G1 X113.195 Y49.022 E3.94315 F1800.000
G1 X115.299 Y50.853 E3.99442
G1 X116.800 Y53.203 E4.04568
G1 X117.327 Y54.666 E4.07428
G1 X117.376 Y54.855 E4.07787
G1 X117.567 Y55.732 E4.09437
G1 X117.713 Y56.793 E4.11407
G1 X117.757 Y57.423 E4.12567
G1 X117.770 Y58.000 E4.13629
G1 X117.768 Y122.220 E5.31700
G1 X117.735 Y122.935 E5.33016
G1 X117.630 Y123.884 E5.34771
G1 X117.498 Y124.619 E5.36145
G1 X117.327 Y125.334 E5.37496
G1 X116.218 Y127.892 E5.42623
G1 X114.431 Y130.033 E5.47749
G1 X112.113 Y131.582 E5.52876
G1 X109.451 Y132.413 E5.58003
G1 X107.900 Y132.537 E5.60864
G1 X72.100 Y132.537 E6.26684
G1 X69.340 Y132.139 E6.31811
G1 X66.805 Y130.978 E6.36937
G1 X64.701 Y129.147 E6.42064
G1 X63.200 Y126.797 E6.47191
G1 X62.673 Y125.334 E6.50051
G1 X62.502 Y124.619 E6.51402
G1 X62.388 Y123.999 E6.52562
G1 X62.309 Y123.414 E6.53647
G1 X62.257 Y122.822 E6.54739
G1 X62.232 Y122.220 E6.55847
G1 X62.231 Y57.863 E7.74170
G1 X62.265 Y57.066 E7.75638
G1 X62.337 Y56.354 E7.76953
G1 X62.477 Y55.500 E7.78544
G1 X62.668 Y54.686 E7.80081
G1 X63.758 Y52.163 E7.85135
G1 X64.339 Y52.418 F1800.000
G1 X64.364 Y52.362 E7.85248 F1800.000
G1 X66.122 Y50.317 E7.90206
G1 X68.400 Y48.873 E7.95164
G1 X72.100 Y48.091 E8.02118
G1 X107.900 Y48.091 E8.67938
G1 X110.567 Y48.489 E8.72896
G1 X113.003 Y49.648 E8.77855 F1800.000
G1 X114.994 Y51.467 E8.82813
G1 X116.720 Y54.831 E8.89765
G1 X116.949 Y55.845 E8.91677
G1 X117.087 Y56.855 E8.93550
G1 X117.129 Y57.449 E8.94646
G1 X117.142 Y58.000 E8.95659
G1 X117.132 Y122.468 E10.14186
G1 X117.087 Y123.145 E10.15434
G1 X117.009 Y123.790 E10.16629
G1 X116.884 Y124.488 E10.17933
G1 X116.721 Y125.169 E10.19219
G1 X115.636 Y127.638 E10.24177
G1 X113.878 Y129.683 E10.29136
G1 X111.600 Y131.127 E10.34094
G1 X107.900 Y131.909 E10.41048
G1 X72.100 Y131.909 E11.06868
G1 X69.433 Y131.511 E11.11826
G1 X66.997 Y130.352 E11.16784
G1 X65.006 Y128.533 E11.21743
G1 X63.280 Y125.169 E11.28695
G1 X63.090 Y124.359 E11.30225
G1 X62.960 Y123.567 E11.31701
G1 X62.891 Y122.890 E11.32951
G1 X62.859 Y122.128 E11.34354
G1 X62.862 Y57.713 E12.52784
G1 X62.913 Y56.855 E12.54365
G1 X62.996 Y56.181 E12.55613
G1 X63.116 Y55.512 E12.56863
G1 X63.279 Y54.831 E12.58149
G1 X64.315 Y52.473 E12.62885
G1 X64.895 Y52.731 F1800.000
G1 X64.945 Y52.620 E12.63110 F1800.000
G1 X66.672 Y50.674 E12.67894
G1 X68.907 Y49.341 E12.72678
G1 X72.100 Y48.719 E12.78659
G1 X107.900 Y48.719 E13.44479
G1 X110.471 Y49.117 E13.49263
G1 X112.803 Y50.273 E13.54047 F1800.000
G1 X114.676 Y52.079 E13.58831
G1 X116.114 Y54.996 E13.64810
G1 X116.331 Y55.959 E13.66625
G1 X116.427 Y56.595 E13.67807
G1 X116.482 Y57.153 E13.68839
G1 X116.513 Y58.000 E13.70397
G1 X116.510 Y122.269 E14.88559
G1 X116.462 Y123.084 E14.90059
G1 X116.388 Y123.695 E14.91192
G1 X116.269 Y124.358 E14.92429
G1 X116.114 Y125.003 E14.93650
G1 X115.055 Y127.380 E14.98434
G1 X113.328 Y129.326 E15.03218
G1 X111.093 Y130.659 E15.08002
G1 X107.900 Y131.281 E15.13983
G1 X72.100 Y131.281 E15.79803
G1 X69.529 Y130.883 E15.84587
G1 X67.197 Y129.727 E15.89371
G1 X65.324 Y127.921 E15.94155
G1 X63.886 Y125.004 E16.00135
G1 X63.706 Y124.237 E16.01583
G1 X63.583 Y123.488 E16.02979
G1 X63.511 Y122.738 E16.04364
G1 X63.487 Y122.000 E16.05721
G1 X63.490 Y57.727 E17.23890
G1 X63.538 Y56.916 E17.25384
G1 X63.617 Y56.277 E17.26568
G1 X63.731 Y55.643 E17.27753
G1 X63.886 Y54.996 E17.28975
G1 X64.871 Y52.786 E17.33424
G1 X65.449 Y53.048 F1800.000
G1 X65.525 Y52.881 E17.33761 F1800.000
G1 X67.220 Y51.039 E17.38364
G1 X69.408 Y49.822 E17.42967
G1 X72.100 Y49.348 E17.47992
G1 X107.900 Y49.348 E18.13813
G1 X110.372 Y49.745 E18.18416
G1 X112.594 Y50.898 E18.23018 F1800.000
G1 X114.344 Y52.689 E18.27621
G1 X115.508 Y55.161 E18.32646
G1 X115.713 Y56.073 E18.34364
G1 X115.804 Y56.674 E18.35481
G1 X115.855 Y57.197 E18.36448
G1 X115.885 Y58.000 E18.37925
G1 X115.882 Y122.255 E19.56062
G1 X115.837 Y123.022 E19.57475
G1 X115.766 Y123.601 E19.58546
G1 X115.655 Y124.227 E19.59715
G1 X115.508 Y124.838 E19.60872
G1 X114.475 Y127.119 E19.65475
G1 X112.780 Y128.961 E19.70078
G1 X110.592 Y130.178 E19.74681
G1 X107.900 Y130.652 E19.79706
G1 X72.100 Y130.652 E20.45526
G1 X69.628 Y130.255 E20.50129
G1 X67.406 Y129.102 E20.54732
G1 X65.656 Y127.311 E20.59335
G1 X64.492 Y124.839 E20.64360
G1 X64.322 Y124.115 E20.65727
G1 X64.207 Y123.409 E20.67042
G1 X64.137 Y122.696 E20.68359
G1 X64.115 Y122.000 E20.69639
G1 X64.118 Y57.741 E21.87783
G1 X64.163 Y56.978 E21.89189
G1 X64.237 Y56.373 E21.90308
G1 X64.345 Y55.773 E21.91429
G1 X64.492 Y55.161 E21.92586
G1 X65.424 Y53.103 E21.96741
G1 X66.001 Y53.369 F1800.000
G1 X66.104 Y53.146 E21.97192 F1800.000
G1 X67.765 Y51.413 E22.01606
G1 X69.902 Y50.317 E22.06021
G1 X72.100 Y49.976 E22.10110
G1 X107.900 Y49.976 E22.75931
G1 X110.268 Y50.373 E22.80345
G1 X112.377 Y51.522 E22.84760 F1800.000
G1 X113.995 Y53.295 E22.89174
G1 X114.902 Y55.326 E22.93263
G1 X115.023 Y55.822 E22.94202
G1 X115.129 Y56.386 E22.95257
G1 X115.234 Y57.324 E22.96992
G1 X115.257 Y58.000 E22.98236
G1 X115.254 Y122.242 E24.16348
G1 X115.211 Y122.961 E24.17672
G1 X115.145 Y123.507 E24.18683
G1 X115.040 Y124.096 E24.19783
G1 X114.902 Y124.673 E24.20875
G1 X113.897 Y126.854 E24.25290
G1 X112.235 Y128.587 E24.29704
G1 X110.098 Y129.683 E24.34119
G1 X107.900 Y130.024 E24.38209
G1 X72.100 Y130.024 E25.04029
G1 X69.732 Y129.627 E25.08443
G1 X67.623 Y128.478 E25.12858
G1 X66.005 Y126.705 E25.17273
G1 X65.093 Y124.654 E25.21399
G1 X64.939 Y123.993 E25.22647
G1 X64.830 Y123.330 E25.23883
G1 X64.764 Y122.654 E25.25131
G1 X64.743 Y122.000 E25.26334
G1 X64.745 Y57.815 E26.44342
G1 X64.772 Y57.241 E26.45397
G1 X64.858 Y56.470 E26.46825
G1 X64.960 Y55.904 E26.47881
G1 X65.098 Y55.327 E26.48973
G1 X65.976 Y53.423 E26.52827
G1 X66.550 Y53.693 F1800.000
G1 X66.681 Y53.416 E26.53391 F1800.000
G1 X68.307 Y51.797 E26.57609
G1 X70.387 Y50.830 E26.61826
G1 X72.100 Y50.604 E26.65003
G1 X107.900 Y50.604 E27.30824
G1 X110.159 Y51.001 E27.35041
G1 X112.148 Y52.145 E27.39259 F1800.000
G1 X113.628 Y53.898 E27.43477
G1 X114.295 Y55.491 E27.46653
G1 X114.408 Y55.953 E27.47527
G1 X114.508 Y56.483 E27.48518
G1 X114.610 Y57.405 E27.50224
G1 X114.628 Y58.000 E27.51319
G1 X114.626 Y122.228 E28.69405
G1 X114.586 Y122.900 E28.70642
G1 X114.524 Y123.412 E28.71592
G1 X114.425 Y123.965 E28.72624
G1 X114.296 Y124.508 E28.73651
G1 X113.319 Y126.584 E28.77869
G1 X111.693 Y128.203 E28.82086
G1 X109.613 Y129.170 E28.86304
G1 X107.900 Y129.396 E28.89481
G1 X72.100 Y129.396 E29.55301
G1 X69.841 Y128.999 E29.59519
G1 X67.852 Y127.855 E29.63737
G1 X66.372 Y126.102 E29.67955
G1 X65.705 Y124.509 E29.71131
G1 X65.653 Y124.309 E29.71510
G1 X65.538 Y123.783 E29.72500
G1 X65.453 Y123.251 E29.73491
G1 X65.398 Y122.715 E29.74482
G1 X65.373 Y122.176 E29.75473
G1 X65.372 Y58.000 E30.93464
G1 X65.391 Y57.390 E30.94586
G1 X65.453 Y56.749 E30.95770
G1 X65.558 Y56.116 E30.96949
G1 X65.699 Y55.511 E30.98091
G1 X66.525 Y53.748 E31.01672
G1 E28.01672 F2400.00000
G92 E0
G1 X79.979 Y105.525 F1800.000
G1 E3.00000 F2400.00000
G1 X80.800 Y105.417 E3.01522 F1800.000
G1 X81.627 Y105.453 E3.03045
G1 X82.571 Y105.684 E3.04831
G1 X83.442 Y106.114 E3.06618
G1 X84.122 Y106.635 E3.08192
G1 X84.744 Y107.344 E3.09926
G1 X85.158 Y108.061 E3.11449
G1 X85.441 Y108.839 E3.12971
G1 X85.589 Y109.800 E3.14757
G1 X85.525 Y110.769 E3.16544
G1 X85.311 Y111.569 E3.18066
G1 X84.961 Y112.319 E3.19588
G1 X84.403 Y113.080 E3.21323
G1 X83.772 Y113.659 E3.22897
G1 X82.941 Y114.163 E3.24683
G1 X82.021 Y114.475 E3.26470
G1 X81.200 Y114.583 E3.27992
G1 X80.373 Y114.547 E3.29515
G1 X79.429 Y114.316 E3.31301
G1 X78.558 Y113.886 E3.33087
G1 X77.878 Y113.365 E3.34662
G1 X77.256 Y112.656 E3.36396
G1 X76.842 Y111.939 E3.37918
G1 X76.559 Y111.161 E3.39441
G1 X76.411 Y110.200 E3.41227
G1 X76.475 Y109.231 E3.43013
G1 X76.689 Y108.431 E3.44536
G1 X77.039 Y107.681 E3.46058
G1 X77.614 Y106.897 E3.47844
G1 X78.343 Y106.257 E3.49628
G1 X79.085 Y105.828 E3.51205
G1 X79.922 Y105.544 E3.52829
G1 X80.122 Y106.140 F1800.000
G1 X80.827 Y106.047 E3.54137 F1800.000
G1 X81.538 Y106.078 E3.55444
G1 X82.355 Y106.278 E3.56990
G1 X83.109 Y106.650 E3.58536
G1 X83.690 Y107.096 E3.59883
G1 X84.230 Y107.712 E3.61390
G1 X84.586 Y108.328 E3.62697
G1 X84.829 Y108.996 E3.64005
G1 X84.957 Y109.827 E3.65551
G1 X84.902 Y110.666 E3.67097
G1 X84.718 Y111.353 E3.68405
G1 X84.418 Y111.998 E3.69712
G1 X83.933 Y112.659 E3.71219
G1 X83.393 Y113.154 E3.72566
G1 X82.674 Y113.590 E3.74112
G1 X81.878 Y113.860 E3.75658
G1 X81.173 Y113.953 E3.76965
G1 X80.462 Y113.922 E3.78273
G1 X79.645 Y113.722 E3.79819
G1 X78.891 Y113.350 E3.81365
G1 X78.310 Y112.904 E3.82712
G1 X77.770 Y112.288 E3.84219
G1 X77.414 Y111.672 E3.85526
G1 X77.171 Y111.004 E3.86834
G1 X77.043 Y110.173 E3.88380
G1 X77.098 Y109.334 E3.89926
G1 X77.282 Y108.647 E3.91233
G1 X77.582 Y108.002 E3.92541
G1 X78.080 Y107.324 E3.94087
G1 X78.711 Y106.770 E3.95630
G1 X79.346 Y106.403 E3.96979
G1 X80.065 Y106.159 E3.98376
G1 X80.266 Y106.755 F1800.000
G1 X80.855 Y106.677 E3.99469 F1800.000
G1 X81.449 Y106.703 E4.00562
G1 X82.139 Y106.872 E4.01868
G1 X82.776 Y107.186 E4.03173
G1 X83.259 Y107.557 E4.04293
G1 X83.717 Y108.080 E4.05572
G1 X84.014 Y108.594 E4.06664
G1 X84.218 Y109.153 E4.07757
G1 X84.326 Y109.855 E4.09063
G1 X84.279 Y110.564 E4.10369
G1 X84.125 Y111.138 E4.11461
G1 X83.874 Y111.676 E4.12554
G1 X83.463 Y112.237 E4.13833
G1 X83.014 Y112.649 E4.14952
G1 X82.407 Y113.017 E4.16258
G1 X81.734 Y113.245 E4.17564
G1 X81.145 Y113.323 E4.18657
G1 X80.551 Y113.297 E4.19749
G1 X79.861 Y113.128 E4.21055
G1 X79.224 Y112.814 E4.22361
G1 X78.741 Y112.443 E4.23480
G1 X78.283 Y111.920 E4.24759
G1 X77.986 Y111.406 E4.25852
G1 X77.782 Y110.847 E4.26945
G1 X77.674 Y110.145 E4.28250
G1 X77.721 Y109.436 E4.29556
G1 X77.875 Y108.862 E4.30649
G1 X78.126 Y108.324 E4.31742
G1 X78.546 Y107.751 E4.33047
G1 X79.079 Y107.284 E4.34351
G1 X79.607 Y106.978 E4.35472
G1 X80.209 Y106.774 E4.36641
G1 X80.409 Y107.370 F1800.000
G1 X80.882 Y107.307 E4.37519 F1800.000
G1 X81.359 Y107.328 E4.38397
G1 X81.922 Y107.466 E4.39463
G1 X82.442 Y107.722 E4.40528
G1 X82.827 Y108.017 E4.41420
G1 X83.204 Y108.447 E4.42471
G1 X83.443 Y108.861 E4.43349
G1 X83.606 Y109.310 E4.44227
G1 X83.694 Y109.882 E4.45293
G1 X83.656 Y110.461 E4.46358
G1 X83.533 Y110.922 E4.47236
G1 X83.331 Y111.355 E4.48114
G1 X82.993 Y111.816 E4.49165
G1 X82.635 Y112.143 E4.50057
G1 X82.140 Y112.444 E4.51122
G1 X81.591 Y112.630 E4.52188
G1 X81.118 Y112.693 E4.53066
G1 X80.641 Y112.672 E4.53944
G1 X80.078 Y112.534 E4.55009
G1 X79.558 Y112.278 E4.56075
G1 X79.173 Y111.983 E4.56967
G1 X78.796 Y111.553 E4.58018
G1 X78.557 Y111.139 E4.58896
G1 X78.394 Y110.690 E4.59774
G1 X78.306 Y110.118 E4.60839
G1 X78.344 Y109.539 E4.61905
G1 X78.467 Y109.078 E4.62783
G1 X78.669 Y108.645 E4.63660
G1 X79.012 Y108.178 E4.64726
G1 X79.446 Y107.797 E4.65789
G1 X79.867 Y107.553 E4.66683
G1 X80.352 Y107.389 E4.67624
G1 X80.511 Y107.855 F1800.000
G1 X80.521 Y107.852 E4.67636 F1800.000
G1 X80.904 Y107.801 E4.68039 F1800.000
G1 X81.289 Y107.818 E4.68443
G1 X81.753 Y107.932 E4.68941
G1 X82.181 Y108.143 E4.69440
G1 X82.489 Y108.379 E4.69845
G1 X82.802 Y108.736 E4.70341
G1 X82.995 Y109.070 E4.70744
G1 X83.126 Y109.432 E4.71147
G1 X83.199 Y109.904 E4.71646
G1 X83.168 Y110.380 E4.72144
G1 X83.068 Y110.753 E4.72547
G1 X82.905 Y111.102 E4.72951
G1 X82.624 Y111.485 E4.73447
G1 X82.338 Y111.747 E4.73852
G1 X81.930 Y111.995 E4.74351
G1 X81.478 Y112.148 E4.74849
G1 X81.096 Y112.199 E4.75252
G1 X80.711 Y112.182 E4.75655
G1 X80.247 Y112.068 E4.76154
G1 X79.819 Y111.857 E4.76652
G1 X79.511 Y111.621 E4.77058
G1 X79.198 Y111.264 E4.77554
G1 X79.005 Y110.930 E4.77957
G1 X78.874 Y110.568 E4.78360
G1 X78.801 Y110.096 E4.78859
G1 X78.832 Y109.620 E4.79357
G1 X78.932 Y109.247 E4.79760
G1 X79.095 Y108.898 E4.80163
G1 X79.377 Y108.513 E4.80662
G1 X79.735 Y108.199 E4.81159
G1 X80.072 Y108.004 E4.81566
G1 X80.454 Y107.875 E4.81987
G1 X80.513 Y107.844 F1800.000
G1 E1.81987 F2400.00000
G92 E0
G1 X81.200 Y74.589 F1800.000
G1 E3.00000 F2400.00000
G1 X80.231 Y74.525 E3.01786 F1800.000
G1 X79.404 Y74.303 E3.03361
G1 X78.558 Y73.886 E3.05095
G1 X77.901 Y73.382 E3.06617
G1 X77.341 Y72.772 E3.08140
G1 X76.852 Y71.965 E3.09874
G1 X76.559 Y71.161 E3.11448
G1 X76.411 Y70.200 E3.13235
G1 X76.475 Y69.231 E3.15021
G1 X76.689 Y68.431 E3.16544
G1 X77.040 Y67.679 E3.18069
G1 X77.597 Y66.920 E3.19801
G1 X78.228 Y66.341 E3.21374
G1 X79.059 Y65.837 E3.23161
G1 X79.979 Y65.525 E3.24947
G1 X80.828 Y65.413 E3.26522 F1800.000
G1 X81.769 Y65.475 E3.28256
G1 X82.569 Y65.689 E3.29778
G1 X83.319 Y66.039 E3.31301
G1 X84.080 Y66.597 E3.33035
G1 X84.659 Y67.228 E3.34609
G1 X85.148 Y68.035 E3.36343
G1 X85.441 Y68.839 E3.37918
G1 X85.589 Y69.800 E3.39704
G1 X85.525 Y70.769 E3.41491
G1 X85.311 Y71.569 E3.43013
G1 X84.961 Y72.319 E3.44535
G1 X84.386 Y73.103 E3.46322
G1 X83.656 Y73.744 E3.48108
G1 X82.939 Y74.158 E3.49630
G1 X82.161 Y74.441 E3.51153
G1 X81.260 Y74.580 E3.52829
G1 X81.173 Y73.957 F1800.000
G1 X80.334 Y73.902 E3.54375 F1800.000
G1 X79.626 Y73.713 E3.55722
G1 X78.891 Y73.350 E3.57229
G1 X78.327 Y72.917 E3.58536
G1 X77.846 Y72.393 E3.59844
G1 X77.421 Y71.692 E3.61350
G1 X77.171 Y71.004 E3.62697
G1 X77.043 Y70.173 E3.64243
G1 X77.098 Y69.334 E3.65789
G1 X77.282 Y68.646 E3.67097
G1 X77.583 Y68.001 E3.68407
G1 X78.067 Y67.341 E3.69911
G1 X78.607 Y66.846 E3.71258
G1 X79.326 Y66.410 E3.72804
G1 X80.122 Y66.140 E3.74350
G1 X80.849 Y66.044 E3.75697 F1800.000
G1 X81.666 Y66.098 E3.77204
G1 X82.353 Y66.282 E3.78511
G1 X82.998 Y66.582 E3.79819
G1 X83.659 Y67.067 E3.81325
G1 X84.154 Y67.607 E3.82672
G1 X84.579 Y68.308 E3.84179
G1 X84.829 Y68.996 E3.85526
G1 X84.957 Y69.827 E3.87072
G1 X84.902 Y70.666 E3.88618
G1 X84.718 Y71.353 E3.89925
G1 X84.418 Y71.998 E3.91233
G1 X83.920 Y72.676 E3.92779
G1 X83.288 Y73.230 E3.94325
G1 X82.672 Y73.586 E3.95632
G1 X82.004 Y73.829 E3.96940
G1 X81.232 Y73.948 E3.98376
G1 X81.145 Y73.326 F1800.000
G1 X80.436 Y73.279 E3.99682 F1800.000
G1 X79.848 Y73.122 E4.00801
G1 X79.224 Y72.814 E4.02080
G1 X78.753 Y72.452 E4.03173
G1 X78.351 Y72.014 E4.04265
G1 X77.991 Y71.419 E4.05544
G1 X77.782 Y70.847 E4.06664
G1 X77.674 Y70.145 E4.07970
G1 X77.721 Y69.436 E4.09275
G1 X77.875 Y68.862 E4.10369
G1 X78.126 Y68.323 E4.11463
G1 X78.537 Y67.763 E4.12740
G1 X78.986 Y67.351 E4.13859
G1 X79.593 Y66.983 E4.15165
G1 X80.266 Y66.755 E4.16471
G1 X80.869 Y66.675 E4.17590 F1800.000
G1 X81.564 Y66.721 E4.18869
G1 X82.138 Y66.875 E4.19962
G1 X82.676 Y67.126 E4.21055
G1 X83.237 Y67.537 E4.22334
G1 X83.649 Y67.986 E4.23453
G1 X84.009 Y68.581 E4.24732
G1 X84.218 Y69.153 E4.25851
G1 X84.326 Y69.855 E4.27157
G1 X84.279 Y70.564 E4.28463
G1 X84.125 Y71.138 E4.29556
G1 X83.874 Y71.676 E4.30648
G1 X83.454 Y72.249 E4.31954
G1 X82.920 Y72.717 E4.33260
G1 X82.406 Y73.014 E4.34353
G1 X81.847 Y73.218 E4.35445
G1 X81.204 Y73.317 E4.36641
G1 X81.118 Y72.694 F1800.000
G1 X80.539 Y72.656 E4.37706 F1800.000
G1 X80.071 Y72.531 E4.38598
G1 X79.558 Y72.278 E4.39650
G1 X79.179 Y71.987 E4.40527
G1 X78.857 Y71.635 E4.41405
G1 X78.560 Y71.146 E4.42457
G1 X78.394 Y70.690 E4.43349
G1 X78.306 Y70.118 E4.44414
G1 X78.344 Y69.539 E4.45480
G1 X78.467 Y69.078 E4.46358
G1 X78.670 Y68.644 E4.47238
G1 X79.007 Y68.184 E4.48287
G1 X79.365 Y67.857 E4.49179
