; generated by Slic3r 1.2.9 on 2021-04-05 at 09:15:23

; external perimeters extrusion width = 0.40mm
; perimeters extrusion width = 0.67mm
; infill extrusion width = 0.67mm
; solid infill extrusion width = 0.67mm
; top infill extrusion width = 0.67mm
; support material extrusion width = 0.40mm

M190 S60 ; set bed temperature
M104 S200 ; set temperature
G28 ; home all axes
G1 Z5 F5000 ; lift nozzle

M109 S200 ; wait for temperature to be reached
G21 ; set units to millimeters
G90 ; use absolute coordinates
M82 ; use absolute distances for extrusion
G92 E0
G1 Z0.200 F1800.000
G1 E-3.00000 F2400.00000
G92 E0
G1 X32.319 Y55.854 F1800.000
G1 E3.00000 F2400.00000
G1 X33.040 Y55.458 E3.01666 F1800.000
G1 X34.100 Y54.964 E3.04038
G1 X34.867 Y54.666 E3.05703
G1 X35.983 Y54.314 E3.08076
G1 X36.781 Y54.118 E3.09740
G1 X37.935 Y53.915 E3.12114
G1 X38.751 Y53.825 E3.13778
G1 X39.882 Y53.775 E3.16071
G1 X140.118 Y53.775 E5.19182
G1 X140.743 Y53.792 E5.20448 F1800.000
G1 X141.406 Y53.839 E5.21795
G1 X142.065 Y53.915 E5.23140
G1 X142.722 Y54.019 E5.24487
G1 X143.865 Y54.273 E5.26859
G1 X144.503 Y54.455 E5.28205
G1 X145.133 Y54.666 E5.29551
G1 X145.754 Y54.903 E5.30898
G1 X146.363 Y55.167 E5.32243
G1 X146.960 Y55.458 E5.33588
G1 X147.544 Y55.775 E5.34935
G1 X148.247 Y56.201 E5.36601
G1 X148.798 Y56.573 E5.37947
G1 X149.331 Y56.969 E5.39293
G1 X149.847 Y57.387 E5.40640
G1 X150.345 Y57.828 E5.41986
G1 X150.822 Y58.289 E5.43331
G1 X151.279 Y58.772 E5.44677
G1 X152.032 Y59.669 E5.47052
G1 X152.427 Y60.202 E5.48396
G1 X152.799 Y60.753 E5.49742
G1 X153.146 Y61.318 E5.51087
G1 X153.469 Y61.900 E5.52436
G1 X153.766 Y62.494 E5.53780
G1 X154.036 Y63.100 E5.55124
G1 X154.334 Y63.867 E5.56792
G1 X154.545 Y64.497 E5.58138
G1 X154.727 Y65.136 E5.59484
G1 X154.980 Y66.277 E5.61854
G1 X155.106 Y67.092 E5.63524
G1 X155.208 Y68.256 E5.65892
G1 X155.226 Y68.961 E5.67320
G1 X155.226 Y111.040 E6.52586
G1 X155.208 Y111.744 E6.54013
G1 X155.161 Y112.405 E6.55355
G1 X155.085 Y113.066 E6.56705
G1 X154.980 Y113.723 E6.58051
G1 X154.728 Y114.863 E6.60419
G1 X154.545 Y115.503 E6.61768
G1 X154.335 Y116.133 E6.63113
G1 X154.096 Y116.755 E6.64462
G1 X153.832 Y117.364 E6.65809
G1 X153.541 Y117.961 E6.67153
G1 X153.146 Y118.681 E6.68818
G1 X152.799 Y119.247 E6.70163
G1 X152.427 Y119.798 E6.71510
G1 X151.714 Y120.727 E6.73882
G1 X151.279 Y121.228 E6.75227
G1 X150.822 Y121.711 E6.76575
G1 X150.344 Y122.173 E6.77921
G1 X149.727 Y122.714 E6.79585
G1 X149.206 Y123.127 E6.80931
G1 X148.669 Y123.517 E6.82277
G1 X148.114 Y123.884 E6.83625
G1 X147.545 Y124.225 E6.84970
G1 X146.592 Y124.723 E6.87147
G1 X145.899 Y125.037 E6.88689
G1 X145.281 Y125.281 E6.90035
G1 X144.653 Y125.497 E6.91382
G1 X143.865 Y125.727 E6.93046
G1 X143.219 Y125.882 E6.94392
G1 X142.566 Y126.008 E6.95739
G1 X141.910 Y126.106 E6.97084
G1 X141.248 Y126.175 E6.98431
G1 X140.118 Y126.225 E7.00723
G1 X39.415 Y126.215 E9.04780
G1 X38.595 Y126.161 E9.06445
G1 X37.434 Y126.008 E9.08818
G1 X36.627 Y125.848 E9.10484
G1 X35.983 Y125.686 E9.11830
G1 X35.347 Y125.497 E9.13174
G1 X34.246 Y125.097 E9.15548
G1 X33.494 Y124.766 E9.17214
G1 X32.456 Y124.225 E9.19585
G1 X31.753 Y123.799 E9.21252
G1 X31.202 Y123.427 E9.22598
G1 X30.273 Y122.714 E9.24970
G1 X29.656 Y122.172 E9.26635
G1 X29.178 Y121.710 E9.27982
G1 X28.387 Y120.847 E9.30354
G1 X27.969 Y120.331 E9.31700
G1 X27.573 Y119.798 E9.33046
G1 X27.116 Y119.114 E9.34711
G1 X26.531 Y118.100 E9.37084
G1 X26.234 Y117.506 E9.38430
G1 X25.903 Y116.754 E9.40094
G1 X25.666 Y116.134 E9.41440
G1 X25.455 Y115.503 E9.42788
G1 X25.152 Y114.372 E9.45160
G1 X25.019 Y113.722 E9.46505
G1 X24.894 Y112.909 E9.48171
G1 X24.792 Y111.743 E9.50543
G1 X24.774 Y111.039 E9.51969
G1 X24.774 Y68.961 E10.37234
G1 X24.792 Y68.257 E10.38660
G1 X24.894 Y67.091 E10.41032
G1 X25.019 Y66.279 E10.42697
G1 X25.273 Y65.135 E10.45070
G1 X25.503 Y64.346 E10.46736
G1 X25.903 Y63.246 E10.49108
G1 X26.234 Y62.494 E10.50773
G1 X26.775 Y61.455 E10.53146
G1 X27.201 Y60.753 E10.54811
G1 X27.873 Y59.794 E10.57184
G1 X28.387 Y59.153 E10.58849
G1 X29.178 Y58.289 E10.61222
G1 X29.772 Y57.721 E10.62887
G1 X30.669 Y56.969 E10.65259
G1 X31.331 Y56.483 E10.66925
G1 X32.268 Y55.885 E10.69175
G1 X32.594 Y56.422 F1800.000
G1 X33.324 Y56.019 E10.70865 F1800.000
G1 X34.347 Y55.541 E10.73154
G1 X35.075 Y55.258 E10.74736
G1 X36.152 Y54.919 E10.77025
G1 X36.911 Y54.733 E10.78607
G1 X38.023 Y54.537 E10.80897
G1 X38.799 Y54.452 E10.82478
G1 X39.892 Y54.403 E10.84695
G1 X140.036 Y54.403 E12.87618
G1 X140.709 Y54.420 E12.88982 F1800.000
G1 X141.344 Y54.464 E12.90272
G1 X142.464 Y54.612 E12.92561
G1 X143.089 Y54.733 E12.93851
G1 X143.709 Y54.881 E12.95142
G1 X144.321 Y55.057 E12.96433
G1 X145.060 Y55.308 E12.98015
G1 X145.653 Y55.541 E12.99306
G1 X146.234 Y55.801 E13.00596
G1 X147.236 Y56.322 E13.02884
G1 X147.782 Y56.650 E13.04175
G1 X148.314 Y57.001 E13.05466
G1 X148.830 Y57.376 E13.06757
G1 X149.328 Y57.772 E13.08048
G1 X149.809 Y58.189 E13.09338
G1 X150.373 Y58.729 E13.10919
G1 X150.811 Y59.191 E13.12210
G1 X151.229 Y59.672 E13.13501
G1 X151.916 Y60.568 E13.15790
G1 X152.273 Y61.096 E13.17080
G1 X152.605 Y61.638 E13.18370
G1 X152.915 Y62.197 E13.19663
G1 X153.260 Y62.896 E13.21243
G1 X153.513 Y63.480 E13.22532
G1 X153.742 Y64.075 E13.23825
G1 X153.943 Y64.679 E13.25115
G1 X154.119 Y65.292 E13.26406
G1 X154.363 Y66.393 E13.28693
G1 X154.463 Y67.023 E13.29985
G1 X154.536 Y67.656 E13.31276
G1 X154.580 Y68.290 E13.32564
G1 X154.597 Y68.964 E13.33930
G1 X154.597 Y111.036 E14.19182
G1 X154.580 Y111.710 E14.20546
G1 X154.482 Y112.834 E14.22834
G1 X154.363 Y113.607 E14.24417
G1 X154.119 Y114.707 E14.26702
G1 X153.900 Y115.458 E14.28287
G1 X153.692 Y116.060 E14.29577
G1 X153.459 Y116.653 E14.30868
G1 X153.199 Y117.235 E14.32159
G1 X152.915 Y117.804 E14.33449
G1 X152.605 Y118.361 E14.34740
G1 X152.273 Y118.904 E14.36030
G1 X151.916 Y119.432 E14.37320
G1 X151.538 Y119.943 E14.38609
G1 X151.136 Y120.438 E14.39901
G1 X150.714 Y120.915 E14.41192
G1 X149.915 Y121.714 E14.43482
G1 X149.438 Y122.136 E14.44771
G1 X148.944 Y122.537 E14.46061
G1 X148.314 Y122.999 E14.47644
G1 X147.782 Y123.350 E14.48936
G1 X147.236 Y123.678 E14.50225
G1 X146.676 Y123.981 E14.51516
G1 X146.104 Y124.260 E14.52806
G1 X145.520 Y124.514 E14.54097
G1 X144.925 Y124.742 E14.55387
G1 X144.321 Y124.943 E14.56678
G1 X143.709 Y125.119 E14.57968
G1 X142.605 Y125.363 E14.60258
G1 X141.977 Y125.463 E14.61547
G1 X141.344 Y125.536 E14.62839
G1 X140.708 Y125.580 E14.64129
G1 X140.108 Y125.597 E14.65347
G1 X39.892 Y125.597 E16.68416
G1 X39.292 Y125.580 E16.69633
G1 X38.656 Y125.536 E16.70924
G1 X37.536 Y125.388 E16.73213
G1 X36.770 Y125.236 E16.74795
G1 X35.679 Y124.943 E16.77084
G1 X34.940 Y124.693 E16.78665
G1 X33.896 Y124.260 E16.80956
G1 X33.323 Y123.981 E16.82246
G1 X32.764 Y123.678 E16.83536
G1 X32.096 Y123.272 E16.85119
G1 X31.568 Y122.916 E16.86409
G1 X30.672 Y122.228 E16.88698
G1 X30.085 Y121.714 E16.90280
G1 X29.627 Y121.271 E16.91571
G1 X28.864 Y120.438 E16.93860
G1 X28.463 Y119.943 E16.95151
G1 X28.084 Y119.432 E16.96441
G1 X27.650 Y118.782 E16.98023
G1 X27.085 Y117.804 E17.00312
G1 X26.801 Y117.234 E17.01603
G1 X26.487 Y116.520 E17.03183
G1 X26.259 Y115.925 E17.04474
G1 X26.057 Y115.321 E17.05766
G1 X25.764 Y114.230 E17.08055
G1 X25.637 Y113.606 E17.09345
G1 X25.518 Y112.834 E17.10927
G1 X25.420 Y111.709 E17.13216
G1 X25.403 Y111.036 E17.14580
G1 X25.403 Y68.964 E17.99831
G1 X25.420 Y68.292 E18.01194
G1 X25.518 Y67.166 E18.03483
G1 X25.637 Y66.395 E18.05065
G1 X25.881 Y65.291 E18.07355
G1 X26.100 Y64.542 E18.08937
G1 X26.486 Y63.480 E18.11225
G1 X26.801 Y62.766 E18.12808
G1 X27.322 Y61.764 E18.15097
G1 X27.727 Y61.096 E18.16679
G1 X28.375 Y60.171 E18.18968
G1 X28.864 Y59.562 E18.20550
G1 X29.627 Y58.729 E18.22839
G1 X30.191 Y58.189 E18.24421
G1 X31.057 Y57.463 E18.26710
G1 X31.686 Y57.001 E18.28292
G1 X32.542 Y56.453 E18.30352
G1 X32.868 Y56.990 F1800.000
G1 X33.608 Y56.579 E18.32066 F1800.000
G1 X34.594 Y56.119 E18.34272
G1 X35.283 Y55.851 E18.35771
G1 X36.322 Y55.524 E18.37977
G1 X37.040 Y55.348 E18.39475
G1 X38.112 Y55.159 E18.41681
G1 X38.847 Y55.078 E18.43179
G1 X39.902 Y55.032 E18.45320
G1 X140.098 Y55.032 E20.48347
G1 X140.674 Y55.047 E20.49516 F1800.000
G1 X141.282 Y55.090 E20.50751
G1 X141.888 Y55.159 E20.51986
G1 X142.490 Y55.255 E20.53221
G1 X143.087 Y55.376 E20.54456
G1 X143.678 Y55.524 E20.55691
G1 X144.716 Y55.851 E20.57896
G1 X145.286 Y56.069 E20.59132
G1 X145.844 Y56.312 E20.60366
G1 X146.392 Y56.579 E20.61601
G1 X146.928 Y56.870 E20.62836
G1 X147.560 Y57.254 E20.64335
G1 X148.066 Y57.595 E20.65570
G1 X148.556 Y57.957 E20.66806
G1 X149.029 Y58.341 E20.68041
G1 X149.485 Y58.745 E20.69276
G1 X149.924 Y59.168 E20.70510
G1 X150.343 Y59.610 E20.71745
G1 X151.043 Y60.445 E20.73953
G1 X151.405 Y60.934 E20.75186
G1 X151.746 Y61.440 E20.76421
G1 X152.065 Y61.959 E20.77655
G1 X152.361 Y62.493 E20.78892
G1 X152.633 Y63.037 E20.80125
G1 X152.880 Y63.593 E20.81359
G1 X153.149 Y64.284 E20.82860
G1 X153.342 Y64.862 E20.84095
G1 X153.510 Y65.448 E20.85330
G1 X153.745 Y66.509 E20.87534
G1 X153.858 Y67.242 E20.89036
G1 X153.953 Y68.325 E20.91238
G1 X153.969 Y68.967 E20.92541
G1 X153.969 Y111.033 E21.77779
G1 X153.953 Y111.675 E21.79081
G1 X153.910 Y112.282 E21.80312
G1 X153.841 Y112.888 E21.81550
G1 X153.745 Y113.491 E21.82786
G1 X153.510 Y114.551 E21.84987
G1 X153.342 Y115.139 E21.86225
G1 X153.149 Y115.716 E21.87459
G1 X152.930 Y116.286 E21.88697
G1 X152.687 Y116.846 E21.89932
G1 X152.421 Y117.393 E21.91165
G1 X152.065 Y118.041 E21.92664
G1 X151.746 Y118.560 E21.93898
G1 X151.405 Y119.066 E21.95133
G1 X150.743 Y119.929 E21.97339
G1 X150.343 Y120.389 E21.98573
G1 X149.923 Y120.832 E21.99810
G1 X149.485 Y121.255 E22.01045
G1 X148.929 Y121.743 E22.02543
G1 X148.452 Y122.122 E22.03777
G1 X147.959 Y122.480 E22.05012
G1 X147.450 Y122.817 E22.06249
G1 X146.928 Y123.130 E22.07483
G1 X146.037 Y123.596 E22.09521
G1 X145.406 Y123.881 E22.10924
G1 X144.839 Y124.104 E22.12159
G1 X144.262 Y124.303 E22.13394
G1 X143.553 Y124.510 E22.14892
G1 X142.960 Y124.652 E22.16127
G1 X142.361 Y124.768 E22.17363
G1 X141.759 Y124.858 E22.18597
G1 X141.152 Y124.922 E22.19832
G1 X140.097 Y124.968 E22.21972
G1 X39.902 Y124.968 E24.24999
G1 X39.326 Y124.953 E24.26168
G1 X38.718 Y124.910 E24.27403
G1 X37.639 Y124.768 E24.29609
G1 X36.913 Y124.624 E24.31108
G1 X35.862 Y124.342 E24.33313
G1 X35.161 Y124.104 E24.34812
G1 X34.155 Y123.688 E24.37018
G1 X33.492 Y123.360 E24.38518
G1 X32.549 Y122.816 E24.40723
G1 X32.041 Y122.480 E24.41958
G1 X31.445 Y122.043 E24.43456
G1 X30.971 Y121.659 E24.44692
G1 X30.168 Y120.924 E24.46897
G1 X29.657 Y120.390 E24.48395
G1 X29.257 Y119.929 E24.49631
G1 X28.595 Y119.066 E24.51837
G1 X28.254 Y118.560 E24.53072
G1 X27.870 Y117.928 E24.54570
G1 X27.579 Y117.392 E24.55806
G1 X27.119 Y116.406 E24.58011
G1 X26.851 Y115.717 E24.59509
G1 X26.658 Y115.138 E24.60745
G1 X26.376 Y114.087 E24.62951
G1 X26.255 Y113.490 E24.64185
G1 X26.142 Y112.759 E24.65684
G1 X26.047 Y111.674 E24.67890
G1 X26.031 Y111.033 E24.69191
G1 X26.031 Y68.968 E25.54428
G1 X26.047 Y68.326 E25.55729
G1 X26.142 Y67.241 E25.57935
G1 X26.254 Y66.510 E25.59433
G1 X26.490 Y65.447 E25.61639
G1 X26.697 Y64.737 E25.63138
G1 X27.069 Y63.715 E25.65344
G1 X27.367 Y63.038 E25.66842
G1 X27.870 Y62.072 E25.69048
G1 X28.254 Y61.440 E25.70547
G1 X28.878 Y60.548 E25.72753
G1 X29.341 Y59.971 E25.74252
G1 X30.076 Y59.168 E25.76458
G1 X30.611 Y58.657 E25.77956
G1 X31.445 Y57.957 E25.80162
G1 X32.041 Y57.520 E25.81661
G1 X32.817 Y57.021 E25.83529
G1 X33.143 Y57.558 F1800.000
G1 X33.892 Y57.140 E25.85268 F1800.000
G1 X34.841 Y56.697 E25.87390
G1 X35.492 Y56.444 E25.88806
G1 X36.491 Y56.129 E25.90928
G1 X37.169 Y55.963 E25.92343
G1 X38.201 Y55.781 E25.94466
G1 X38.895 Y55.705 E25.95881
G1 X39.913 Y55.660 E25.97945
G1 X140.029 Y55.659 E28.00813
G1 X140.640 Y55.675 E28.02051 F1800.000
G1 X141.221 Y55.715 E28.03231
G1 X142.259 Y55.852 E28.05353
G1 X142.830 Y55.963 E28.06532
G1 X143.397 Y56.099 E28.07712
G1 X143.956 Y56.259 E28.08891
G1 X144.617 Y56.484 E28.10307
G1 X145.159 Y56.697 E28.11486
G1 X145.691 Y56.934 E28.12666
G1 X146.620 Y57.417 E28.14787
G1 X147.119 Y57.717 E28.15967
G1 X147.604 Y58.038 E28.17147
G1 X148.075 Y58.381 E28.18327
G1 X148.531 Y58.743 E28.19506
G1 X148.970 Y59.125 E28.20686
G1 X149.474 Y59.608 E28.22100
G1 X149.875 Y60.030 E28.23280
G1 X150.257 Y60.469 E28.24460
G1 X150.895 Y61.300 E28.26582
G1 X151.220 Y61.783 E28.27761
G1 X151.524 Y62.279 E28.28940
G1 X151.807 Y62.789 E28.30121
G1 X152.115 Y63.415 E28.31535
G1 X152.347 Y63.948 E28.32714
G1 X152.556 Y64.492 E28.33895
G1 X152.741 Y65.044 E28.35074
G1 X152.901 Y65.604 E28.36254
G1 X153.128 Y66.625 E28.38374
G1 X153.219 Y67.201 E28.39555
G1 X153.285 Y67.779 E28.40735
G1 X153.325 Y68.359 E28.41913
G1 X153.341 Y68.971 E28.43153
G1 X153.341 Y111.029 E29.28377
G1 X153.325 Y111.641 E29.29616
G1 X153.234 Y112.684 E29.31737
G1 X153.148 Y113.260 E29.32917
G1 X153.012 Y113.944 E29.34332
G1 X152.871 Y114.508 E29.35509
G1 X152.706 Y115.067 E29.36691
G1 X152.347 Y116.052 E29.38815
G1 X152.115 Y116.586 E29.39994
G1 X151.860 Y117.109 E29.41173
G1 X151.583 Y117.620 E29.42351
G1 X151.283 Y118.119 E29.43531
G1 X150.962 Y118.604 E29.44710
G1 X150.620 Y119.075 E29.45889
G1 X150.257 Y119.531 E29.47069
G1 X149.875 Y119.970 E29.48248
G1 X149.392 Y120.475 E29.49664
G1 X148.970 Y120.875 E29.50843
G1 X148.531 Y121.257 E29.52023
G1 X148.075 Y121.619 E29.53202
G1 X147.604 Y121.961 E29.54381
G1 X146.721 Y122.524 E29.56504
G1 X146.212 Y122.806 E29.57683
G1 X145.691 Y123.066 E29.58863
G1 X145.159 Y123.303 E29.60043
G1 X144.617 Y123.516 E29.61222
G1 X144.067 Y123.706 E29.62402
G1 X143.509 Y123.871 E29.63580
G1 X142.944 Y124.012 E29.64760
G1 X142.374 Y124.128 E29.65940
G1 X141.800 Y124.219 E29.67118
G1 X141.220 Y124.285 E29.68299
G1 X140.087 Y124.340 E29.70598
G1 X39.913 Y124.340 E31.73583
G1 X38.779 Y124.285 E31.75882
G1 X37.741 Y124.148 E31.78005
G1 X37.056 Y124.012 E31.79421
G1 X36.044 Y123.741 E31.81543
G1 X35.383 Y123.516 E31.82958
G1 X34.415 Y123.115 E31.85081
G1 X33.788 Y122.806 E31.86497
G1 X32.881 Y122.283 E31.88619
G1 X32.396 Y121.961 E31.89798
G1 X31.832 Y121.548 E31.91214
G1 X31.380 Y121.182 E31.92393
G1 X30.608 Y120.474 E31.94516
G1 X30.125 Y119.970 E31.95930
G1 X29.743 Y119.530 E31.97111
G1 X29.105 Y118.700 E31.99233
G1 X28.780 Y118.217 E32.00412
G1 X28.418 Y117.620 E32.01827
G1 X28.140 Y117.108 E32.03007
G1 X27.697 Y116.159 E32.05129
G1 X27.444 Y115.508 E32.06544
G1 X27.259 Y114.956 E32.07725
G1 X26.988 Y113.944 E32.09847
G1 X26.872 Y113.374 E32.11026
G1 X26.766 Y112.684 E32.12442
G1 X26.675 Y111.640 E32.14564
G1 X26.659 Y111.029 E32.15803
G1 X26.659 Y68.971 E33.01026
G1 X26.675 Y68.360 E33.02264
G1 X26.766 Y67.317 E33.04387
G1 X26.872 Y66.626 E33.05802
G1 X27.099 Y65.603 E33.07925
G1 X27.294 Y64.933 E33.09340
G1 X27.652 Y63.949 E33.11462
G1 X27.934 Y63.309 E33.12878
G1 X28.417 Y62.380 E33.15000
G1 X28.780 Y61.783 E33.16416
G1 X29.381 Y60.925 E33.18538
G1 X29.818 Y60.380 E33.19954
G1 X30.526 Y59.608 E33.22076
G1 X31.030 Y59.125 E33.23492
G1 X31.832 Y58.452 E33.25614
G1 X32.396 Y58.039 E33.27029
G1 X33.092 Y57.590 E33.28707
G1 X33.418 Y58.127 F1800.000
G1 X34.176 Y57.700 E33.30470 F1800.000
G1 X35.088 Y57.275 E33.32509
G1 X35.700 Y57.037 E33.33841
G1 X36.660 Y56.734 E33.35880
G1 X37.299 Y56.578 E33.37212
G1 X38.290 Y56.403 E33.39252
G1 X38.943 Y56.332 E33.40583
G1 X39.923 Y56.288 E33.42571
G1 X140.077 Y56.288 E35.45515
G1 X141.159 Y56.340 E35.47710 F1800.000
G1 X142.258 Y56.490 E35.49957
G1 X143.340 Y56.734 E35.52204
G1 X144.396 Y57.072 E35.54452
G1 X145.419 Y57.500 E35.56699
G1 X146.401 Y58.016 E35.58946
G1 X147.334 Y58.616 E35.61193
G1 X148.132 Y59.229 E35.63233
G1 X148.952 Y59.974 E35.65479
G1 X149.660 Y60.738 E35.67588
G1 X150.117 Y61.302 E35.69059
G1 X150.749 Y62.213 E35.71306
G1 X151.300 Y63.176 E35.73554
G1 X151.764 Y64.182 E35.75799
G1 X152.109 Y65.129 E35.77841
G1 X152.400 Y66.199 E35.80089
G1 X152.528 Y66.843 E35.81419
G1 X152.610 Y67.392 E35.82544
G1 X152.698 Y68.393 E35.84581
G1 X152.712 Y68.974 E35.85758
G1 X152.712 Y111.026 E36.70968
