; generated by Slic3r 1.2.9 on 2021-04-07 at 11:26:14

; external perimeters extrusion width = 0.40mm
; perimeters extrusion width = 0.67mm
; infill extrusion width = 0.67mm
; solid infill extrusion width = 0.67mm
; top infill extrusion width = 0.67mm
; support material extrusion width = 0.40mm

M190 S60 ; set bed temperature
M104 S200 ; set temperature
G28 ; home all axes
G1 Z5 F5000 ; lift nozzle

M109 S200 ; wait for temperature to be reached
G21 ; set units to millimeters
G90 ; use absolute coordinates
M82 ; use absolute distances for extrusion
G92 E0
G1 Z0.200 F1800.000
G1 E-3.00000 F2400.00000
G92 E0
G1 X10.841 Y10.841 F1800.000
G1 E3.00000 F2400.00000
G1 X11.907 Y9.774 E3.03056 F1800.000
G1 X14.563 Y8.674 E3.08880
G1 X165.437 Y8.674 E6.14600
G1 X168.093 Y9.774 E6.20425
G1 X170.226 Y11.907 E6.26536 F1800.000
G1 X171.326 Y14.563 E6.32361
G1 X171.326 Y165.437 E9.38080
G1 X170.226 Y168.093 E9.43905
G1 X168.093 Y170.226 E9.50017
G1 X165.437 Y171.326 E9.55841
G1 X14.563 Y171.326 E12.61561
G1 X11.907 Y170.226 E12.67386
G1 X9.774 Y168.093 E12.73497
G1 X8.674 Y165.437 E12.79322
G1 X8.674 Y14.563 E15.85041
G1 X9.774 Y11.907 E15.90866
G1 X10.798 Y10.883 E15.93800
G1 X11.243 Y11.327 F1800.000
G1 X12.263 Y10.307 E15.96724 F1800.000
G1 X14.688 Y9.303 E16.02042
G1 X165.312 Y9.303 E19.07256
G1 X167.737 Y10.307 E19.12574 F1800.000
G1 X169.693 Y12.263 E19.18179
G1 X170.697 Y14.688 E19.23497
G1 X170.697 Y165.312 E22.28710
G1 X169.693 Y167.737 E22.34028
G1 X167.737 Y169.693 E22.39633
G1 X165.312 Y170.697 E22.44951
G1 X14.688 Y170.697 E25.50164
G1 X12.263 Y169.693 E25.55483
G1 X10.307 Y167.737 E25.61088
G1 X9.303 Y165.312 E25.66406
G1 X9.303 Y14.688 E28.71619
G1 X10.307 Y12.263 E28.76937
G1 X11.200 Y11.370 E28.79496
G1 X11.644 Y11.814 F1800.000
G1 X12.619 Y10.840 E28.82289 F1800.000
G1 X14.813 Y9.931 E28.87100
G1 X165.187 Y9.931 E31.91807
G1 X167.381 Y10.840 E31.96619
G1 X169.160 Y12.619 E32.01717 F1800.000
G1 X170.069 Y14.813 E32.06529
G1 X170.069 Y165.187 E35.11236
G1 X169.160 Y167.381 E35.16047
G1 X167.381 Y169.160 E35.21146
G1 X165.187 Y170.069 E35.25957
G1 X14.813 Y170.069 E38.30664
G1 X12.619 Y169.160 E38.35476
G1 X10.840 Y167.381 E38.40574
G1 X9.931 Y165.187 E38.45386
G1 X9.931 Y14.813 E41.50092
G1 X10.840 Y12.619 E41.54904
G1 X11.602 Y11.857 E41.57089
G1 X12.046 Y12.301 F1800.000
G1 X12.975 Y11.372 E41.59749 F1800.000
G1 X14.938 Y10.559 E41.64054
G1 X165.062 Y10.559 E44.68255
G1 X167.025 Y11.372 E44.72560 F1800.000
G1 X168.628 Y12.975 E44.77152
G1 X169.441 Y14.938 E44.81457
G1 X169.441 Y165.062 E47.85657
G1 X168.628 Y167.025 E47.89962
G1 X167.025 Y168.628 E47.94554
G1 X165.062 Y169.441 E47.98859
G1 X14.938 Y169.441 E51.03060
G1 X12.975 Y168.628 E51.07365
G1 X11.372 Y167.025 E51.11957
G1 X10.559 Y165.062 E51.16262
G1 X10.559 Y14.938 E54.20462
G1 X11.372 Y12.975 E54.24767
G1 X12.004 Y12.343 E54.26577
G1 X12.448 Y12.788 F1800.000
G1 X13.331 Y11.905 E54.29106 F1800.000
G1 X15.063 Y11.188 E54.32905
G1 X164.937 Y11.188 E57.36598
G1 X166.669 Y11.905 E57.40397
G1 X168.095 Y13.331 E57.44482 F1800.000
G1 X168.812 Y15.063 E57.48281
G1 X168.812 Y164.937 E60.51975
G1 X168.095 Y166.669 E60.55773
G1 X166.669 Y168.095 E60.59859
G1 X164.937 Y168.812 E60.63657
G1 X15.063 Y168.812 E63.67351
G1 X13.331 Y168.095 E63.71150
G1 X11.905 Y166.669 E63.75235
G1 X11.188 Y164.937 E63.79034
G1 X11.188 Y15.063 E66.82728
G1 X11.905 Y13.331 E66.86526
G1 X12.406 Y12.830 E66.87961
G1 X12.850 Y13.274 F1800.000
G1 X13.687 Y12.438 E66.90358 F1800.000
G1 X15.188 Y11.816 E66.93651
G1 X164.812 Y11.816 E69.96838
G1 X166.313 Y12.438 E70.00130 F1800.000
G1 X167.562 Y13.687 E70.03709
G1 X168.184 Y15.188 E70.07001
G1 X168.184 Y164.812 E73.10188
G1 X167.562 Y166.313 E73.13481
G1 X166.313 Y167.562 E73.17059
G1 X164.812 Y168.184 E73.20352
G1 X15.188 Y168.184 E76.23539
G1 X13.687 Y167.562 E76.26831
G1 X12.438 Y166.313 E76.30410
G1 X11.816 Y164.812 E76.33702
G1 X11.816 Y15.188 E79.36889
G1 X12.438 Y13.687 E79.40181
G1 X12.808 Y13.317 E79.41241
G1 X13.252 Y13.761 F1800.000
G1 X14.042 Y12.970 E79.43507 F1800.000
G1 X15.313 Y12.444 E79.46293
G1 X164.687 Y12.444 E82.48973
G1 X165.958 Y12.970 E82.51759
G1 X167.030 Y14.042 E82.54831 F1800.000
G1 X167.556 Y15.313 E82.57617
G1 X167.556 Y164.687 E85.60298
G1 X167.030 Y165.958 E85.63084
G1 X165.958 Y167.030 E85.66156
G1 X164.687 Y167.556 E85.68942
G1 X15.313 Y167.556 E88.71622
G1 X14.042 Y167.030 E88.74408
G1 X12.970 Y165.958 E88.77480
G1 X12.444 Y164.687 E88.80266
G1 X12.444 Y15.313 E91.82947
G1 X12.970 Y14.042 E91.85733
G1 X13.209 Y13.803 E91.86418
G1 X13.654 Y14.248 F1800.000
G1 X14.398 Y13.503 E91.88552 F1800.000
G1 X15.438 Y13.073 E91.90831
G1 X164.562 Y13.073 E94.93005
G1 X165.602 Y13.503 E94.95284 F1800.000
G1 X166.497 Y14.398 E94.97850
G1 X166.927 Y15.438 E95.00129
G1 X166.927 Y164.562 E98.02303
G1 X166.497 Y165.602 E98.04583
G1 X165.602 Y166.497 E98.07149
G1 X164.562 Y166.927 E98.09428
G1 X15.438 Y166.927 E101.11602
G1 X14.398 Y166.497 E101.13881
G1 X13.503 Y165.602 E101.16447
G1 X13.073 Y164.562 E101.18726
G1 X13.073 Y15.438 E104.20900
G1 X13.503 Y14.398 E104.23180
G1 X13.611 Y14.290 E104.23490
G1 X14.056 Y14.734 F1800.000
G1 X14.754 Y14.036 E104.25492 F1800.000
G1 X15.563 Y13.701 E104.27265
G1 X164.437 Y13.701 E107.28933
G1 X165.246 Y14.036 E107.30705
G1 X165.964 Y14.754 E107.32765 F1800.000
G1 X166.299 Y15.563 E107.34537
G1 X166.299 Y164.437 E110.36205
G1 X165.964 Y165.246 E110.37978
G1 X165.246 Y165.964 E110.40037
G1 X164.437 Y166.299 E110.41810
G1 X15.563 Y166.299 E113.43478
G1 X14.754 Y165.964 E113.45250
G1 X14.036 Y165.246 E113.47310
G1 X13.701 Y164.437 E113.49082
G1 X13.701 Y15.563 E116.50750
G1 X14.023 Y14.784 E116.52458
G1 X14.568 Y15.110 F1800.000
G1 X15.110 Y14.568 E116.54011 F1800.000
G1 X15.688 Y14.329 E116.55277
G1 X164.312 Y14.329 E119.56438
G1 X164.890 Y14.568 E119.57705 F1800.000
G1 X165.432 Y15.110 E119.59258
G1 X165.671 Y15.688 E119.60524
G1 X165.671 Y164.312 E122.61685
G1 X165.432 Y164.890 E122.62951
G1 X164.890 Y165.432 E122.64504
G1 X164.312 Y165.671 E122.65770
G1 X15.688 Y165.671 E125.66931
G1 X15.110 Y165.432 E125.68198
G1 X14.568 Y164.890 E125.69750
G1 X14.329 Y164.312 E125.71017
G1 X14.329 Y15.688 E128.72178
G1 X14.545 Y15.166 E128.73323
G1 X15.101 Y15.466 F1800.000
G1 X15.466 Y15.101 E128.74369 F1800.000
G1 X15.813 Y14.958 E128.75129
G1 X164.187 Y14.958 E131.75783
G1 X164.534 Y15.101 E131.76543
G1 X164.899 Y15.466 E131.77589 F1800.000
G1 X165.042 Y15.813 E131.78349
G1 X165.042 Y164.187 E134.79004
G1 X164.899 Y164.534 E134.79764
G1 X164.534 Y164.899 E134.80810
G1 X164.187 Y165.042 E134.81570
G1 X15.813 Y165.042 E137.82224
G1 X15.466 Y164.899 E137.82984
G1 X15.101 Y164.534 E137.84030
G1 X14.958 Y164.187 E137.84790
G1 X14.958 Y15.813 E140.85445
G1 X15.078 Y15.522 E140.86083
G1 X15.634 Y15.822 F1800.000
G1 X15.822 Y15.634 E140.86623 F1800.000
G1 X15.938 Y15.586 E140.86876
G1 X164.062 Y15.586 E143.87024
G1 X164.178 Y15.634 E143.87277 F1800.000
G1 X164.366 Y15.822 E143.87817
G1 X164.414 Y15.938 E143.88070
G1 X164.414 Y164.062 E146.88219
G1 X164.366 Y164.178 E146.88472
G1 X164.178 Y164.366 E146.89012
G1 X164.062 Y164.414 E146.89265
G1 X15.938 Y164.414 E149.89413
G1 X15.822 Y164.366 E149.89666
G1 X15.634 Y164.178 E149.90206
G1 X15.586 Y164.062 E149.90459
G1 X15.586 Y15.938 E152.90608
G1 X15.611 Y15.877 E152.90739
G1 X16.100 Y16.100 F1800.000
G1 X163.900 Y16.100 E154.60942 F1800.000
G1 X163.900 Y163.900 E156.31145
G1 X16.100 Y163.900 E158.01348 F1800.000
G1 X16.100 Y16.160 E159.71482
G1 X16.446 Y16.300 F1800.000
G1 X16.593 Y16.593 F1800.000
G1 X163.407 Y16.593 E162.68975 F1800.000
G1 X163.407 Y163.407 E165.66468
G1 X16.593 Y163.407 E168.63961 F1800.000
G1 X16.593 Y16.653 E171.61332
G1 E168.61332 F2400.00000
G92 E0
G1 X16.900 Y16.900 F1800.000
G1 X91.729 Y18.897 F1800.000
G1 X152.066 Y24.391 F1800.000
G1 X155.269 Y27.678 F1800.000
G1 X157.463 Y29.146 F1800.000
G1 X158.514 Y31.475 F1800.000
G1 X158.937 Y34.335 F1800.000
G1 X159.016 Y35.166 F1800.000
G1 X160.608 Y54.919 F1800.000
G1 X160.608 Y125.078 F1800.000
G1 X162.779 Y116.628 F1800.000
G1 E3.00000 F2400.00000
G1 X162.779 Y162.779 E3.93517 F1800.000
G1 X17.221 Y162.779 E6.88463 F1800.000
G1 X17.221 Y17.221 E9.83410
G1 X162.779 Y17.221 E12.78356
G1 X162.779 Y116.568 E14.79665
G1 E11.79665 F2400.00000
G92 E0
G1 X157.999 Y29.451 F1800.000
G1 X152.166 Y24.527 F1800.000
G1 X90.039 Y18.700 F1800.000
G1 X36.535 Y20.961 F1800.000
G1 X28.819 Y23.206 F1800.000
G1 X27.893 Y24.550 F1800.000
G1 X27.422 Y25.150 F1800.000
G1 X27.207 Y25.408 F1800.000
G1 X27.048 Y25.591 F1800.000
G1 X24.138 Y23.647 F1800.000
G1 X23.539 Y23.102 F1800.000
G1 E3.00000 F2400.00000
G1 X23.386 Y23.312 E3.00299 F1800.000
G1 X23.191 Y23.483 E3.00597
G1 X23.007 Y23.588 E3.00841
G1 X22.808 Y23.661 E3.01086
G1 X22.554 Y23.700 E3.01381
G1 X22.340 Y23.690 E3.01628
G1 X22.091 Y23.629 E3.01923
G1 X21.898 Y23.539 E3.02169
G1 X21.688 Y23.386 E3.02467
G1 X21.517 Y23.191 E3.02766
G1 X21.412 Y23.007 E3.03010
G1 X21.339 Y22.809 E3.03253
G1 X21.300 Y22.552 E3.03552
G1 X21.317 Y22.295 E3.03849
G1 X21.372 Y22.089 E3.04094
G1 X21.461 Y21.898 E3.04338
G1 X21.614 Y21.688 E3.04636
G1 X21.809 Y21.517 E3.04935
G1 X21.993 Y21.412 E3.05179
G1 X22.191 Y21.339 E3.05422
G1 X22.448 Y21.300 E3.05721 F1800.000
G1 X22.706 Y21.317 E3.06019
G1 X22.911 Y21.372 E3.06263
G1 X23.102 Y21.461 E3.06506
G1 X23.312 Y21.614 E3.06805
G1 X23.483 Y21.809 E3.07104
G1 X23.588 Y21.993 E3.07347
G1 X23.661 Y22.191 E3.07591
G1 X23.700 Y22.448 E3.07890
G1 X23.683 Y22.706 E3.08188
G1 X23.628 Y22.911 E3.08432
G1 X23.564 Y23.048 E3.08606
G1 X23.659 Y23.332 F1800.000
G1 X24.011 Y23.256 F1800.000
G1 X23.965 Y23.355 E3.08826 F1800.000
G1 X23.751 Y23.646 E3.09559
G1 X23.479 Y23.885 E3.10293
G1 X23.216 Y24.037 E3.10907
G1 X22.930 Y24.141 E3.11524
G1 X22.581 Y24.194 E3.12239
G1 X22.270 Y24.180 E3.12871
G1 X21.927 Y24.096 E3.13586
G1 X21.645 Y23.965 E3.14216
G1 X21.354 Y23.751 E3.14949
G1 X21.115 Y23.479 E3.15682
G1 X20.963 Y23.216 E3.16296
G1 X20.860 Y22.932 E3.16911
G1 X20.805 Y22.574 E3.17643
G1 X20.828 Y22.214 E3.18374
G1 X20.907 Y21.920 E3.18991
G1 X21.035 Y21.645 E3.19605
G1 X21.249 Y21.354 E3.20339
G1 X21.521 Y21.115 E3.21072
G1 X21.784 Y20.963 E3.21686
G1 X22.068 Y20.860 E3.22300
G1 X22.426 Y20.805 E3.23033 F1800.000
G1 X22.787 Y20.828 E3.23767
G1 X23.080 Y20.907 E3.24381
G1 X23.355 Y21.035 E3.24995
G1 X23.646 Y21.249 E3.25728
G1 X23.885 Y21.521 E3.26461
G1 X24.037 Y21.784 E3.27076
G1 X24.140 Y22.068 E3.27690
G1 X24.195 Y22.426 E3.28423
G1 X24.172 Y22.787 E3.29156
G1 X24.093 Y23.080 E3.29771
G1 X24.036 Y23.202 E3.30043
G1 X24.606 Y23.467 F1800.000
G1 X24.508 Y23.676 E3.30510 F1800.000
G1 X24.217 Y24.073 E3.31508
G1 X23.847 Y24.398 E3.32506
G1 X23.483 Y24.608 E3.33358
G1 X23.087 Y24.752 E3.34212
G1 X22.615 Y24.825 E3.35178
G1 X22.180 Y24.805 E3.36061
G1 X21.717 Y24.692 E3.37026
G1 X21.324 Y24.508 E3.37906
G1 X20.927 Y24.217 E3.38904
G1 X20.602 Y23.847 E3.39902
G1 X20.392 Y23.483 E3.40753
G1 X20.248 Y23.088 E3.41604
G1 X20.173 Y22.602 E3.42602
G1 X20.205 Y22.112 E3.43597
G1 X20.314 Y21.705 E3.44450
G1 X20.492 Y21.324 E3.45302
G1 X20.783 Y20.927 E3.46300
G1 X21.153 Y20.602 E3.47298
G1 X21.517 Y20.392 E3.48149
G1 X21.912 Y20.248 E3.49001
G1 X22.398 Y20.173 E3.49999 F1800.000
G1 X22.890 Y20.206 E3.50996
G1 X23.296 Y20.314 E3.51848
G1 X23.676 Y20.492 E3.52699
G1 X24.073 Y20.783 E3.53697
G1 X24.398 Y21.153 E3.54695
G1 X24.608 Y21.517 E3.55546
G1 X24.752 Y21.912 E3.56397
G1 X24.827 Y22.398 E3.57395
G1 X24.794 Y22.890 E3.58393
G1 X24.686 Y23.296 E3.59244
G1 X24.631 Y23.413 E3.59506
G1 E0.59506 F2400.00000
G92 E0
G1 X29.783 Y28.909 F1800.000
G1 E3.00000 F2400.00000
G1 X30.603 Y28.230 E3.01226 F1800.000
G1 X31.477 Y27.627 E3.02449
G1 X31.938 Y27.352 E3.03067
G1 X32.884 Y26.868 E3.04290
G1 X33.870 Y26.468 E3.05516
G1 X34.887 Y26.155 E3.06741
G1 X35.928 Y25.932 E3.07967
G1 X36.988 Y25.800 E3.09197
G1 X140.065 Y25.800 E4.27899
G1 X141.112 Y25.675 E4.29113
G1 X142.171 Y25.641 E4.30333 F1800.000
G1 X142.726 Y25.659 E4.30972
G1 X143.793 Y25.766 E4.32207
G1 X144.834 Y25.962 E4.33427
G1 X145.372 Y26.100 E4.34067
G1 X146.389 Y26.434 E4.35299
G1 X146.892 Y26.636 E4.35924
G1 X147.845 Y27.094 E4.37141
G1 X148.327 Y27.366 E4.37778
G1 X148.785 Y27.651 E4.38399
G1 X149.654 Y28.276 E4.39632
G1 X150.073 Y28.620 E4.40256
G1 X150.855 Y29.354 E4.41492
G1 X151.562 Y30.143 E4.42712
G1 X151.904 Y30.580 E4.43351
G1 X152.509 Y31.466 E4.44586
G1 X153.034 Y32.402 E4.45822
G1 X153.268 Y32.891 E4.46446
G1 X153.667 Y33.887 E4.47681
G1 X153.977 Y34.913 E4.48916
G1 X154.099 Y35.441 E4.49540
G1 X157.316 Y54.984 E4.72348
G1 X157.316 Y125.016 E5.52995
G1 X154.312 Y144.036 E5.75169
G1 X154.098 Y145.074 E5.76390
G1 X153.795 Y146.091 E5.77612
G1 X153.404 Y147.085 E5.78842
G1 X152.938 Y148.024 E5.80049
G1 X152.380 Y148.945 E5.81289
G1 X151.753 Y149.801 E5.82512
G1 X151.410 Y150.213 E5.83129
G1 X150.680 Y150.981 E5.84349
G1 X150.286 Y151.345 E5.84967
G1 X149.463 Y152.015 E5.86189
G1 X148.583 Y152.613 E5.87414
G1 X147.655 Y153.133 E5.88639
G1 X146.687 Y153.573 E5.89864
G1 X145.684 Y153.928 E5.91088
G1 X144.638 Y154.200 E5.92333
G1 X38.927 Y154.200 E7.14068
G1 X37.875 Y154.238 E7.15279
G1 X36.812 Y154.185 E7.16505
G1 X35.758 Y154.038 E7.17731
G1 X34.721 Y153.800 E7.18956
G1 X33.708 Y153.473 E7.20182
G1 X32.727 Y153.059 E7.21408
G1 X31.800 Y152.568 E7.22616
G1 X31.332 Y152.280 E7.23249
G1 X30.466 Y151.665 E7.24472
G1 X29.656 Y150.975 E7.25698
G1 X28.909 Y150.217 E7.26923
G1 X28.232 Y149.399 E7.28146
G1 X27.917 Y148.964 E7.28764
G1 X27.360 Y148.075 E7.29972
G1 X26.868 Y147.116 E7.31213
G1 X26.468 Y146.130 E7.32439
G1 X26.155 Y145.113 E7.33665
G1 X25.932 Y144.072 E7.34890
G1 X25.800 Y143.012 E7.36120
G1 X25.800 Y38.927 E8.55983
G1 X25.762 Y37.875 E8.57194
G1 X25.815 Y36.812 E8.58420
G1 X25.962 Y35.758 E8.59646
G1 X26.196 Y34.736 E8.60854
G1 X26.353 Y34.209 E8.61487
G1 X26.723 Y33.213 E8.62710
G1 X27.180 Y32.252 E8.63936
G1 X27.718 Y31.334 E8.65161
G1 X28.335 Y30.466 E8.66387
G1 X29.025 Y29.656 E8.67613
G1 X29.740 Y28.951 E8.68769
G1 X29.705 Y28.516 F1800.000
G1 X29.394 Y28.600 F1800.000
G1 X30.306 Y27.837 E8.71178 F1800.000
G1 X31.211 Y27.212 E8.73406
G1 X31.699 Y26.921 E8.74559
G1 X32.678 Y26.420 E8.76787
G1 X33.704 Y26.003 E8.79031
G1 X34.763 Y25.678 E8.81275
G1 X35.846 Y25.446 E8.83519
G1 X36.957 Y25.307 E8.85788
G1 X140.036 Y25.307 E10.94659
G1 X141.075 Y25.183 E10.96779
G1 X142.171 Y25.148 E10.99002 F1800.000
G1 X142.758 Y25.167 E11.00192
G1 X143.863 Y25.277 E11.02443
G1 X144.941 Y25.481 E11.04665
G1 X145.510 Y25.626 E11.05855
G1 X146.558 Y25.971 E11.08091
G1 X147.091 Y26.185 E11.09254
G1 X148.073 Y26.657 E11.11461
G1 X148.578 Y26.942 E11.12636
G1 X149.059 Y27.242 E11.13785
G1 X149.955 Y27.885 E11.16020
G1 X150.398 Y28.250 E11.17183
G1 X151.208 Y29.009 E11.19433
G1 X151.939 Y29.827 E11.21655
G1 X152.302 Y30.289 E11.22846
G1 X152.928 Y31.206 E11.25097
G1 X153.472 Y32.175 E11.27347
G1 X153.719 Y32.693 E11.28510
G1 X154.132 Y33.723 E11.30760
G1 X154.453 Y34.786 E11.33010
G1 X154.583 Y35.345 E11.34173
G1 X157.808 Y54.943 E11.74419
G1 X157.808 Y125.054 E13.16486
G1 X154.797 Y144.124 E13.55606
G1 X154.576 Y145.194 E13.57820
G1 X154.263 Y146.247 E13.60046
G1 X153.852 Y147.290 E13.62316
G1 X153.371 Y148.262 E13.64515
G1 X152.790 Y149.218 E13.66782
G1 X152.142 Y150.105 E13.69008
G1 X151.778 Y150.541 E13.70159
G1 X151.026 Y151.332 E13.72370
G1 X150.609 Y151.718 E13.73520
G1 X149.757 Y152.410 E13.75746
G1 X148.842 Y153.032 E13.77987
G1 X147.878 Y153.573 E13.80228
G1 X146.871 Y154.030 E13.82468
G1 X145.829 Y154.399 E13.84709
G1 X144.701 Y154.693 E13.87069
G1 X38.936 Y154.693 E16.01385
G1 X37.872 Y154.732 E16.03542
G1 X36.766 Y154.676 E16.05785
G1 X35.669 Y154.523 E16.08029
G1 X34.590 Y154.276 E16.10273
G1 X33.536 Y153.935 E16.12517
G1 X32.516 Y153.505 E16.14761
G1 X31.556 Y152.996 E16.16962
G1 X31.060 Y152.691 E16.18141
G1 X30.163 Y152.054 E16.20371
G1 X29.320 Y151.336 E16.22614
G1 X28.543 Y150.548 E16.24858
G1 X27.842 Y149.700 E16.27087
G1 X27.509 Y149.239 E16.28239
G1 X26.931 Y148.319 E16.30441
G1 X26.420 Y147.322 E16.32711
G1 X26.003 Y146.296 E16.34956
G1 X25.678 Y145.237 E16.37200
