; generated by Slic3r 1.2.9 on 2021-04-30 at 23:22:25

; external perimeters extrusion width = 0.40mm
; perimeters extrusion width = 0.67mm
; infill extrusion width = 0.67mm
; solid infill extrusion width = 0.67mm
; top infill extrusion width = 0.67mm

M190 S60 ; set bed temperature
M104 S200 ; set temperature
G28 ; home all axes
G1 Z5 F5000 ; lift nozzle

M109 S200 ; wait for temperature to be reached
G21 ; set units to millimeters
G90 ; use absolute coordinates
M82 ; use absolute distances for extrusion
G92 E0
G1 Z0.200 F1800.000
G1 E-3.00000 F2400.00000
G92 E0
G1 X63.620 Y74.101 F1800.000
G1 E3.00000 F2400.00000
G1 X65.970 Y72.600 E3.05650 F1800.000
G1 X70.000 Y71.730 E3.14005
G1 X110.000 Y71.730 E3.95058
G1 X112.760 Y72.128 E4.00708
G1 X115.295 Y73.289 E4.06358 F1800.000
G1 X117.399 Y75.120 E4.12009
G1 X118.900 Y77.470 E4.17659
G1 X119.770 Y81.500 E4.26014
G1 X119.770 Y98.500 E4.60461
G1 X119.372 Y101.260 E4.66112
G1 X118.211 Y103.795 E4.71762
G1 X116.380 Y105.899 E4.77413
G1 X114.030 Y107.400 E4.83063
G1 X110.000 Y108.270 E4.91417
G1 X70.000 Y108.270 E5.72470
G1 X67.240 Y107.872 E5.78121
G1 X64.705 Y106.711 E5.83771
G1 X62.601 Y104.880 E5.89422
G1 X61.100 Y102.530 E5.95072
G1 X60.230 Y98.500 E6.03426
G1 X60.230 Y81.500 E6.37874
G1 X60.628 Y78.740 E6.43524
G1 X61.789 Y76.205 E6.49175
G1 X63.580 Y74.146 E6.54704
G1 X64.066 Y74.590 F1800.000
G1 X64.234 Y74.406 E6.55208 F1800.000
G1 X66.555 Y73.032 E6.60673
G1 X70.000 Y72.358 E6.67786
G1 X110.000 Y72.358 E7.48839
G1 X112.667 Y72.756 E7.54304
G1 X115.103 Y73.915 E7.59769 F1800.000
G1 X117.094 Y75.734 E7.65233
G1 X118.468 Y78.055 E7.70698
G1 X119.142 Y81.500 E7.77812
G1 X119.142 Y98.500 E8.12259
G1 X118.744 Y101.167 E8.17724
G1 X117.585 Y103.603 E8.23188
G1 X115.766 Y105.594 E8.28653
G1 X113.445 Y106.968 E8.34118
G1 X110.000 Y107.642 E8.41231
G1 X70.000 Y107.642 E9.22284
G1 X67.333 Y107.244 E9.27749
G1 X64.897 Y106.085 E9.33214
G1 X62.906 Y104.266 E9.38678
G1 X61.532 Y101.945 E9.44143
G1 X60.858 Y98.500 E9.51257
G1 X60.858 Y81.500 E9.85704
G1 X61.256 Y78.833 E9.91169
G1 X62.415 Y76.397 E9.96634
G1 X64.026 Y74.634 E10.01472
G1 X64.496 Y75.088 F1800.000
G1 X64.846 Y74.724 E10.02496 F1800.000
G1 X67.134 Y73.484 E10.07768
G1 X70.000 Y72.987 E10.13663
G1 X110.000 Y72.987 E10.94716
G1 X112.571 Y73.384 E10.99988
G1 X114.903 Y74.540 E11.05261 F1800.000
G1 X116.776 Y76.346 E11.10533
G1 X118.016 Y78.634 E11.15806
G1 X118.513 Y81.500 E11.21701
G1 X118.513 Y98.500 E11.56148
G1 X118.116 Y101.071 E11.61421
G1 X116.960 Y103.403 E11.66693
G1 X115.154 Y105.276 E11.71966
G1 X112.866 Y106.516 E11.77238
G1 X110.000 Y107.013 E11.83133
G1 X70.000 Y107.013 E12.64186
G1 X67.429 Y106.616 E12.69459
G1 X65.097 Y105.460 E12.74731
G1 X63.224 Y103.654 E12.80004
G1 X61.984 Y101.366 E12.85276
G1 X61.487 Y98.500 E12.91171
G1 X61.487 Y81.500 E13.25619
G1 X61.884 Y78.929 E13.30891
G1 X63.040 Y76.597 E13.36164
G1 X64.454 Y75.131 E13.40291
G1 X64.906 Y75.593 F1800.000
G1 X65.456 Y75.056 E13.41849 F1800.000
G1 X67.705 Y73.956 E13.46922
G1 X70.000 Y73.615 E13.51624
G1 X110.000 Y73.615 E14.32677
G1 X112.472 Y74.013 E14.37750
G1 X114.694 Y75.165 E14.42823 F1800.000
G1 X116.444 Y76.956 E14.47896
G1 X117.544 Y79.205 E14.52969
G1 X117.885 Y81.500 E14.57671
G1 X117.885 Y98.500 E14.92118
G1 X117.487 Y100.972 E14.97191
G1 X116.335 Y103.194 E15.02264
G1 X114.544 Y104.944 E15.07337
G1 X112.295 Y106.044 E15.12410
G1 X110.000 Y106.385 E15.17112
G1 X70.000 Y106.385 E15.98165
G1 X67.528 Y105.987 E16.03238
G1 X65.306 Y104.835 E16.08311
G1 X63.556 Y103.044 E16.13384
G1 X62.456 Y100.795 E16.18457
G1 X62.115 Y98.500 E16.23158
G1 X62.115 Y81.500 E16.57606
G1 X62.513 Y79.028 E16.62679
G1 X63.665 Y76.806 E16.67752
G1 X64.863 Y75.635 E16.71146
G1 X65.293 Y76.107 F1800.000
G1 X66.062 Y75.405 E16.73256 F1800.000
G1 X68.267 Y74.453 E16.78121
G1 X70.000 Y74.243 E16.81659
G1 X110.000 Y74.243 E17.62711
G1 X112.368 Y74.641 E17.67577
G1 X114.477 Y75.789 E17.72442 F1800.000
G1 X116.095 Y77.562 E17.77307
G1 X117.047 Y79.767 E17.82173
G1 X117.257 Y81.500 E17.85710
G1 X117.257 Y98.500 E18.20158
G1 X116.859 Y100.868 E18.25023
G1 X115.711 Y102.977 E18.29888
G1 X113.938 Y104.595 E18.34754
G1 X111.733 Y105.547 E18.39619
G1 X110.000 Y105.757 E18.43156
G1 X70.000 Y105.757 E19.24209
G1 X67.632 Y105.359 E19.29075
G1 X65.523 Y104.211 E19.33940
G1 X63.905 Y102.438 E19.38805
G1 X62.953 Y100.233 E19.43671
G1 X62.743 Y98.500 E19.47208
G1 X62.743 Y81.500 E19.81655
G1 X63.141 Y79.132 E19.86521
G1 X64.289 Y77.023 E19.91386
G1 X65.249 Y76.147 E19.94020
G1 X65.653 Y76.626 F1800.000
G1 X66.665 Y75.772 E19.96703 F1800.000
G1 X68.817 Y74.978 E20.01351
G1 X70.000 Y74.872 E20.03758
G1 X110.000 Y74.872 E20.84810
G1 X112.259 Y75.269 E20.89459
G1 X114.248 Y76.412 E20.94107 F1800.000
G1 X115.728 Y78.165 E20.98756
G1 X116.522 Y80.317 E21.03404
G1 X116.628 Y81.500 E21.05810
G1 X116.628 Y98.500 E21.40258
G1 X116.231 Y100.759 E21.44906
G1 X115.088 Y102.748 E21.49555
G1 X113.335 Y104.228 E21.54203
G1 X111.183 Y105.022 E21.58852
G1 X110.000 Y105.128 E21.61258
G1 X70.000 Y105.128 E22.42311
G1 X67.741 Y104.731 E22.46959
G1 X65.752 Y103.588 E22.51608
G1 X64.272 Y101.835 E22.56256
G1 X63.478 Y99.683 E22.60905
G1 X63.372 Y98.500 E22.63311
G1 X63.372 Y81.500 E22.97758
G1 X63.769 Y79.241 E23.02407
G1 X64.912 Y77.252 E23.07055
G1 X65.607 Y76.665 E23.08899
G1 E20.08899 F2400.00000
G92 E0
G1 X85.179 Y87.429 F1800.000
G1 E3.00000 F2400.00000
G1 X98.321 Y87.429 E3.26630 F1800.000
G1 X98.321 Y94.571 E3.41102
G1 X85.179 Y94.571 E3.67732
G1 X85.179 Y87.489 E3.82082
G1 X85.807 Y88.057 F1800.000
G1 X97.693 Y88.057 E4.06166 F1800.000
G1 X97.693 Y93.943 E4.18092
G1 X85.807 Y93.943 E4.42175
G1 X85.807 Y88.117 E4.53979
G1 X86.300 Y88.550 F1800.000
G1 X97.200 Y88.550 E4.66531 F1800.000
G1 X97.200 Y93.450 E4.72174
G1 X86.300 Y93.450 E4.84726
G1 X86.300 Y88.610 E4.90300
G1 X86.300 Y88.150 F1800.000
G1 E1.90300 F2400.00000
G92 E0
G1 X80.057 Y90.374 F1800.000
G1 E3.00000 F2400.00000
G1 X80.123 Y90.878 E3.01029 F1800.000
G1 X80.101 Y91.388 E3.02065
G1 X79.958 Y91.968 E3.03275
G1 X79.692 Y92.507 E3.04492
G1 X79.375 Y92.921 E3.05550
G1 X78.934 Y93.308 E3.06739
G1 X78.482 Y93.569 E3.07796
G1 X77.926 Y93.757 E3.08985
G1 X77.409 Y93.825 E3.10042
G1 X76.823 Y93.787 E3.11231
G1 X76.319 Y93.652 E3.12288
G1 X75.793 Y93.392 E3.13477
G1 X75.391 Y93.084 E3.14505
G1 X75.048 Y92.710 E3.15532
G1 X74.736 Y92.196 E3.16751
G1 X74.543 Y91.626 E3.17970
G1 X74.475 Y91.109 E3.19027
G1 X74.513 Y90.523 E3.20216
G1 X74.648 Y90.019 E3.21273
G1 X74.908 Y89.493 E3.22462
G1 X75.225 Y89.079 E3.23519
G1 X75.666 Y88.692 E3.24708
G1 X76.118 Y88.431 E3.25765
G1 X76.675 Y88.243 E3.26956
G1 X77.196 Y88.175 E3.28021 F1800.000
G1 X77.777 Y88.213 E3.29202
G1 X78.281 Y88.348 E3.30258
G1 X78.807 Y88.608 E3.31447
G1 X79.221 Y88.925 E3.32504
G1 X79.608 Y89.366 E3.33693
G1 X79.869 Y89.818 E3.34750
G1 X80.038 Y90.317 E3.35818
G1 X79.442 Y90.517 F1800.000
G1 X79.493 Y90.905 E3.36609 F1800.000
G1 X79.476 Y91.298 E3.37407
G1 X79.364 Y91.752 E3.38354
G1 X79.156 Y92.174 E3.39307
G1 X78.914 Y92.489 E3.40113
G1 X78.566 Y92.795 E3.41051
G1 X78.221 Y92.993 E3.41858
G1 X77.783 Y93.142 E3.42796
G1 X77.388 Y93.194 E3.43602
G1 X76.926 Y93.164 E3.44541
G1 X76.542 Y93.061 E3.45347
G1 X76.126 Y92.856 E3.46285
G1 X75.817 Y92.619 E3.47076
G1 X75.553 Y92.331 E3.47867
G1 X75.309 Y91.928 E3.48821
G1 X75.158 Y91.483 E3.49774
G1 X75.106 Y91.088 E3.50581
G1 X75.136 Y90.626 E3.51519
G1 X75.239 Y90.242 E3.52325
G1 X75.444 Y89.826 E3.53264
G1 X75.686 Y89.511 E3.54070
G1 X76.034 Y89.205 E3.55008
G1 X76.379 Y89.007 E3.55814
G1 X76.818 Y88.858 E3.56754
G1 X77.216 Y88.806 E3.57567 F1800.000
G1 X77.674 Y88.836 E3.58498
G1 X78.058 Y88.939 E3.59304
G1 X78.474 Y89.144 E3.60242
G1 X78.789 Y89.386 E3.61048
G1 X79.095 Y89.734 E3.61986
G1 X79.293 Y90.079 E3.62793
G1 X79.423 Y90.460 E3.63610
G1 X78.956 Y90.619 F1800.000
G1 X78.999 Y90.926 E3.63967 F1800.000
G1 X78.986 Y91.228 E3.64314
G1 X78.899 Y91.582 E3.64734
G1 X78.736 Y91.912 E3.65158
G1 X78.553 Y92.151 E3.65505
G1 X78.277 Y92.392 E3.65926
G1 X78.017 Y92.543 E3.66273
G1 X77.670 Y92.660 E3.66694
G1 X77.372 Y92.699 E3.67041
G1 X77.007 Y92.675 E3.67462
G1 X76.716 Y92.598 E3.67809
G1 X76.388 Y92.436 E3.68230
G1 X76.151 Y92.254 E3.68574
G1 X75.949 Y92.034 E3.68918
G1 X75.758 Y91.719 E3.69342
G1 X75.640 Y91.370 E3.69766
G1 X75.601 Y91.072 E3.70112
G1 X75.625 Y90.707 E3.70534
G1 X75.702 Y90.416 E3.70880
G1 X75.864 Y90.088 E3.71302
G1 X76.047 Y89.849 E3.71648
G1 X76.323 Y89.608 E3.72070
G1 X76.583 Y89.457 E3.72416
G1 X76.930 Y89.340 E3.72838
G1 X77.231 Y89.300 E3.73188 F1800.000
G1 X77.593 Y89.325 E3.73606
G1 X77.884 Y89.402 E3.73952
G1 X78.212 Y89.564 E3.74374
G1 X78.451 Y89.747 E3.74720
G1 X78.692 Y90.023 E3.75142
G1 X78.843 Y90.283 E3.75488
G1 X78.937 Y90.562 E3.75827
G1 X79.251 Y90.717 F1800.000
G1 E0.75827 F2400.00000
G92 E0
G1 X79.800 Y91.000 F1800.000
G1 X82.451 Y93.062 F1800.000
G1 X82.247 Y93.938 F1800.000
G1 X82.250 Y94.250 F1800.000
G1 X100.070 Y94.837 F1800.000
G1 X99.367 Y92.959 F1800.000
G1 X99.166 Y91.973 F1800.000
G1 X99.117 Y91.496 F1800.000
G1 X99.106 Y91.290 F1800.000
G1 X99.102 Y91.181 F1800.000
G1 X100.202 Y91.109 F1800.000
G1 X99.874 Y91.123 F1800.000
G1 E3.00000 F2400.00000
G1 X99.913 Y90.523 E3.01219 F1800.000
G1 X100.048 Y90.019 E3.02276
G1 X100.308 Y89.493 E3.03465
G1 X100.625 Y89.079 E3.04522
G1 X101.066 Y88.692 E3.05711
G1 X101.518 Y88.431 E3.06768
G1 X102.075 Y88.243 E3.07959
G1 X102.596 Y88.175 E3.09024 F1800.000
G1 X103.177 Y88.213 E3.10204
G1 X103.667 Y88.345 E3.11233
G1 X104.130 Y88.561 E3.12268
G1 X104.612 Y88.915 E3.13478
G1 X105.008 Y89.366 E3.14696
G1 X105.269 Y89.818 E3.15753
G1 X105.457 Y90.374 E3.16942
G1 X105.523 Y90.878 E3.17971
G1 X105.501 Y91.388 E3.19007
G1 X105.361 Y91.955 E3.20189
G1 X105.139 Y92.430 E3.21253
G1 X104.794 Y92.900 E3.22434
G1 X104.410 Y93.252 E3.23490
G1 X103.907 Y93.557 E3.24680
G1 X103.413 Y93.736 E3.25745
G1 X102.823 Y93.826 E3.26956
G1 X102.223 Y93.787 E3.28173
G1 X101.733 Y93.656 E3.29201
G1 X101.274 Y93.441 E3.30228
G1 X100.789 Y93.086 E3.31446
G1 X100.395 Y92.637 E3.32656
G1 X100.139 Y92.195 E3.33691
G1 X99.965 Y91.718 E3.34721
G1 X99.883 Y91.183 E3.35818
G1 X100.505 Y91.096 F1800.000
G1 X100.536 Y90.626 E3.36771 F1800.000
G1 X100.639 Y90.242 E3.37578
G1 X100.844 Y89.826 E3.38516
G1 X101.086 Y89.511 E3.39322
G1 X101.434 Y89.205 E3.40261
G1 X101.779 Y89.007 E3.41067
G1 X102.218 Y88.858 E3.42006
G1 X102.616 Y88.806 E3.42820 F1800.000
G1 X103.074 Y88.836 E3.43750
G1 X103.451 Y88.937 E3.44542
G1 X103.808 Y89.104 E3.45340
G1 X104.184 Y89.381 E3.46286
G1 X104.495 Y89.734 E3.47239
G1 X104.693 Y90.079 E3.48045
G1 X104.842 Y90.517 E3.48984
G1 X104.893 Y90.905 E3.49775
G1 X104.876 Y91.298 E3.50574
G1 X104.766 Y91.745 E3.51505
G1 X104.596 Y92.108 E3.52318
G1 X104.324 Y92.478 E3.53249
G1 X104.031 Y92.747 E3.54055
G1 X103.635 Y92.987 E3.54994
G1 X103.257 Y93.124 E3.55807
G1 X102.796 Y93.195 E3.56753
G1 X102.326 Y93.164 E3.57707
G1 X101.949 Y93.063 E3.58497
G1 X101.595 Y92.898 E3.59288
G1 X101.216 Y92.620 E3.60241
G1 X100.908 Y92.269 E3.61188
G1 X100.710 Y91.928 E3.61986
G1 X100.577 Y91.561 E3.62778
G1 X100.514 Y91.155 E3.63610
G1 X101.001 Y91.080 F1800.000
G1 X101.025 Y90.707 E3.64041 F1800.000
G1 X101.102 Y90.416 E3.64387
G1 X101.264 Y90.088 E3.64809
G1 X101.447 Y89.849 E3.65155
G1 X101.723 Y89.608 E3.65576
G1 X101.983 Y89.457 E3.65923
G1 X102.330 Y89.340 E3.66345
G1 X102.631 Y89.300 E3.66695 F1800.000
G1 X102.993 Y89.325 E3.67112
G1 X103.282 Y89.402 E3.67456
G1 X103.555 Y89.530 E3.67804
G1 X103.849 Y89.746 E3.68224
G1 X104.092 Y90.023 E3.68648
G1 X104.243 Y90.283 E3.68995
G1 X104.360 Y90.630 E3.69416
G1 X104.399 Y90.926 E3.69760
G1 X104.386 Y91.228 E3.70108
G1 X104.299 Y91.580 E3.70526
G1 X104.170 Y91.855 E3.70876
G1 X103.955 Y92.148 E3.71294
G1 X103.734 Y92.351 E3.71640
G1 X103.421 Y92.541 E3.72062
G1 X103.135 Y92.644 E3.72412
G1 X102.774 Y92.700 E3.72832
G1 X102.407 Y92.675 E3.73256
G1 X102.118 Y92.598 E3.73600
G1 X101.848 Y92.472 E3.73944
G1 X101.551 Y92.254 E3.74368
G1 X101.310 Y91.980 E3.74788
G1 X101.159 Y91.719 E3.75136
G1 X101.056 Y91.438 E3.75480
G1 X101.010 Y91.139 E3.75828
G1 X100.676 Y90.896 F1800.000
G1 E0.75828 F2400.00000
G92 E0
G1 X96.049 Y82.821 F1800.000
G1 E3.00000 F2400.00000
G1 X108.679 Y82.821 E3.25592 F1800.000
G1 X108.679 Y97.179 E3.54686
G1 X71.321 Y97.179 E4.30385 F1800.000
G1 X71.321 Y82.821 E4.59479
G1 X95.989 Y82.821 E5.09464
G1 X95.989 Y82.193 F1800.000
G1 X109.307 Y82.193 E5.36451 F1800.000
G1 X109.307 Y97.807 E5.68091
G1 X70.693 Y97.807 E6.46337 F1800.000
G1 X70.693 Y82.193 E6.77977
G1 X95.929 Y82.193 E7.29114
G1 X95.929 Y81.700 F1800.000
G1 X109.800 Y81.700 E7.45087 F1800.000
G1 X109.800 Y98.300 E7.64203
G1 X70.200 Y98.300 E8.09806 F1800.000
G1 X70.200 Y81.700 E8.28922
G1 X95.869 Y81.700 E8.58482
G1 X96.129 Y82.046 F1800.000
G1 E5.58482 F2400.00000
G92 E0
G1 X101.265 Y88.194 F1800.000
G1 E3.00000 F2400.00000
G1 X96.273 Y83.202 E3.14514 F1800.000
G1 X97.174 Y83.202 E3.16367
G1 X101.907 Y87.935 E3.30127
G1 X102.671 Y87.797 E3.31722
G1 X98.076 Y83.202 E3.45081
G1 X98.977 Y83.202 E3.46935
G1 X103.692 Y87.917 E3.60641
G1 E0.60641 F2400.00000
G92 E0
G1 X108.298 Y83.508 F1800.000
G1 E3.00000 F2400.00000
G1 X107.992 Y83.202 E3.00891 F1800.000
G1 X107.090 Y83.202 E3.02744
G1 X108.298 Y84.410 E3.06256
G1 X108.298 Y85.311 E3.08109
G1 X106.189 Y83.202 E3.14242
G1 X105.287 Y83.202 E3.16095
G1 X108.298 Y86.213 E3.24848
G1 X108.298 Y87.114 E3.26701
G1 X104.386 Y83.202 E3.38075
G1 X103.484 Y83.202 E3.39928
G1 X108.298 Y88.016 E3.53923
G1 X108.298 Y88.917 E3.55776
G1 X102.583 Y83.202 E3.72391
G1 X101.681 Y83.202 E3.74244
G1 X108.298 Y89.819 E3.93480
G1 X108.298 Y90.720 E3.95333
G1 X100.780 Y83.202 E4.17190
G1 X99.879 Y83.202 E4.19043
G1 X108.298 Y91.621 E4.43520
G1 X108.298 Y92.523 E4.45373
G1 X105.790 Y90.015 E4.52665
G1 X105.892 Y91.019 E4.54739
G1 X108.298 Y93.424 E4.61733
G1 X108.298 Y94.326 E4.63586
G1 X105.765 Y91.792 E4.70952
G1 X105.508 Y92.437 E4.72378
G1 X108.298 Y95.227 E4.80491
G1 X108.298 Y96.129 E4.82344
G1 X105.145 Y92.975 E4.91511
G1 X104.698 Y93.430 E4.92821
G1 X108.066 Y96.798 E5.02614
G1 X107.165 Y96.798 E5.04467
G1 X104.158 Y93.792 E5.13208
G1 X103.526 Y94.060 E5.14621
G1 X106.263 Y96.798 E5.22581
G1 X105.362 Y96.798 E5.24434
G1 X102.765 Y94.201 E5.31983
G1 X101.760 Y94.097 E5.34061
G1 X104.461 Y96.798 E5.41914
G1 X103.559 Y96.798 E5.43767
G1 X98.702 Y91.941 E5.57888
G1 X99.590 Y91.928 E5.59714
G1 X98.702 Y91.039 E5.62297
G1 X99.512 Y90.948 E5.63974
G1 X98.702 Y90.138 E5.66329
G1 X98.702 Y89.237 E5.68182
G1 X99.643 Y90.177 E5.70918
G1 X99.909 Y89.543 E5.72333
G1 X98.702 Y88.335 E5.75843
G1 X98.702 Y87.434 E5.77696
G1 X100.271 Y89.003 E5.82259
G1 X100.726 Y88.557 E5.83569
G1 X95.371 Y83.202 E5.99138
G1 X94.470 Y83.202 E6.00991
G1 X98.316 Y87.048 E6.12173
G1 X97.415 Y87.048 E6.14026
G1 X93.568 Y83.202 E6.25208
G1 X92.667 Y83.202 E6.27061
G1 X96.513 Y87.048 E6.38243
G1 X95.612 Y87.048 E6.40097
G1 X91.766 Y83.202 E6.51279
G1 X90.864 Y83.202 E6.53132
G1 X94.711 Y87.048 E6.64314
G1 X93.809 Y87.048 E6.66167
G1 X89.963 Y83.202 E6.77349
G1 X89.061 Y83.202 E6.79202
G1 X92.908 Y87.048 E6.90385
G1 X92.006 Y87.048 E6.92238
G1 X88.160 Y83.202 E7.03420
G1 X87.258 Y83.202 E7.05273
G1 X91.105 Y87.048 E7.16455
G1 X90.203 Y87.048 E7.18308
G1 X86.357 Y83.202 E7.29491
G1 X85.455 Y83.202 E7.31344
G1 X89.302 Y87.048 E7.42526
G1 X88.400 Y87.048 E7.44379
G1 X84.554 Y83.202 E7.55561
G1 X83.652 Y83.202 E7.57414
G1 X87.499 Y87.048 E7.68596
G1 X86.597 Y87.048 E7.70450
G1 X82.751 Y83.202 E7.81632
G1 X81.850 Y83.202 E7.83485
G1 X85.696 Y87.048 E7.94667
G1 X84.798 Y87.052 E7.96513
G1 X80.948 Y83.202 E8.07705
G1 X80.047 Y83.202 E8.09559
G1 X84.798 Y87.953 E8.23372
G1 X84.798 Y88.855 E8.25225
G1 X79.145 Y83.202 E8.41659
G1 X78.244 Y83.202 E8.43512
G1 X84.798 Y89.756 E8.62567
G1 X84.798 Y90.658 E8.64420
G1 X77.342 Y83.202 E8.86096
G1 X76.441 Y83.202 E8.87949
G1 X84.798 Y91.559 E9.12245
G1 X84.798 Y92.461 E9.14098
G1 X75.539 Y83.202 E9.41015
G1 X74.638 Y83.202 E9.42868
G1 X84.798 Y93.362 E9.72405
G1 X84.798 Y94.263 E9.74259
G1 X80.308 Y89.773 E9.87312
