; generated by Slic3r 1.2.9 on 2021-05-01 at 10:51:03

; external perimeters extrusion width = 0.40mm
; perimeters extrusion width = 0.67mm
; infill extrusion width = 0.67mm
; solid infill extrusion width = 0.67mm
; top infill extrusion width = 0.67mm

M190 S60 ; set bed temperature
M104 S200 ; set temperature
G28 ; home all axes
G1 Z5 F5000 ; lift nozzle

M109 S200 ; wait for temperature to be reached
G21 ; set units to millimeters
G90 ; use absolute coordinates
M82 ; use absolute distances for extrusion
G92 E0
G1 Z0.200 F1800.000
G1 E-3.00000 F2400.00000
G92 E0
G1 X57.620 Y72.226 F1800.000
G1 E3.00000 F2400.00000
G1 X59.970 Y70.725 E3.05650 F1800.000
G1 X64.000 Y69.855 E3.14005
G1 X116.000 Y69.855 E4.19373
G1 X118.760 Y70.253 E4.25024
G1 X121.295 Y71.414 E4.30674 F1800.000
G1 X123.399 Y73.245 E4.36325
G1 X124.900 Y75.595 E4.41975
G1 X125.770 Y79.625 E4.50330
G1 X125.770 Y94.125 E4.79711
G1 X125.738 Y95.266 E4.82023
G1 X125.613 Y96.690 E4.84920
G1 X125.407 Y98.028 E4.87664
G1 X125.098 Y99.424 E4.90560
G1 X124.719 Y100.724 E4.93304
G1 X124.230 Y102.067 E4.96201
G1 X123.685 Y103.306 E4.98944
G1 X123.025 Y104.574 E5.01841
G1 X122.531 Y105.383 E5.03762
G1 X122.006 Y106.099 E5.05560
G1 X121.705 Y106.459 E5.06512
G1 X121.018 Y107.176 E5.08523
G1 X120.369 Y107.746 E5.10274
G1 X119.979 Y108.047 E5.11272
G1 X119.199 Y108.571 E5.13176
G1 X118.337 Y109.044 E5.15168
G1 X117.477 Y109.420 E5.17071
G1 X117.034 Y109.580 E5.18025
G1 X116.174 Y109.831 E5.19839
G1 X115.210 Y110.023 E5.21831
G1 X114.743 Y110.083 E5.22785
G1 X113.850 Y110.142 E5.24599
G1 X66.117 Y110.141 E6.21321
G1 X65.213 Y110.078 E6.23157
G1 X64.327 Y109.942 E6.24974
G1 X63.826 Y109.831 E6.26014
G1 X62.966 Y109.580 E6.27829
G1 X62.483 Y109.405 E6.28870
G1 X61.662 Y109.043 E6.30687
G1 X60.838 Y108.593 E6.32590
G1 X60.405 Y108.317 E6.33631
G1 X59.683 Y107.788 E6.35446
G1 X58.980 Y107.175 E6.37334
G1 X58.612 Y106.807 E6.38390
G1 X58.021 Y106.133 E6.40206
G1 X57.464 Y105.376 E6.42109
G1 X57.188 Y104.943 E6.43150
G1 X56.734 Y104.134 E6.45030
G1 X56.315 Y103.306 E6.46910
G1 X55.933 Y102.461 E6.48791
G1 X55.588 Y101.599 E6.50671
G1 X55.281 Y100.724 E6.52551
G1 X55.012 Y99.835 E6.54432
G1 X54.783 Y98.936 E6.56312
G1 X54.593 Y98.028 E6.58192
G1 X54.442 Y97.112 E6.60073
G1 X54.295 Y95.766 E6.62816
G1 X54.243 Y94.840 E6.64697
G1 X54.230 Y94.125 E6.66145
G1 X54.230 Y79.625 E6.95527
G1 X54.628 Y76.865 E7.01177
G1 X55.789 Y74.330 E7.06828
G1 X57.580 Y72.271 E7.12357
G1 X58.066 Y72.715 F1800.000
G1 X58.234 Y72.531 E7.12861 F1800.000
G1 X60.555 Y71.157 E7.18326
G1 X64.000 Y70.483 E7.25439
G1 X116.000 Y70.483 E8.30808
G1 X118.667 Y70.881 E8.36273
G1 X121.103 Y72.040 E8.41737 F1800.000
G1 X123.094 Y73.859 E8.47202
G1 X124.468 Y76.180 E8.52667
G1 X125.142 Y79.625 E8.59780
G1 X125.142 Y94.125 E8.89162
G1 X125.111 Y95.225 E8.91391
G1 X124.989 Y96.621 E8.94232
G1 X124.791 Y97.905 E8.96864
G1 X124.488 Y99.274 E8.99706
G1 X124.124 Y100.522 E9.02338
G1 X123.645 Y101.839 E9.05179
G1 X123.121 Y103.028 E9.07812
G1 X122.474 Y104.272 E9.10653
G1 X122.009 Y105.034 E9.12462
G1 X121.516 Y105.706 E9.14150
G1 X121.232 Y106.045 E9.15047
G1 X120.584 Y106.722 E9.16945
G1 X119.975 Y107.257 E9.18589
G1 X119.608 Y107.540 E9.19529
G1 X118.873 Y108.034 E9.21321
G1 X118.059 Y108.480 E9.23203
G1 X117.249 Y108.835 E9.24995
G1 X116.832 Y108.985 E9.25893
G1 X116.025 Y109.221 E9.27596
G1 X115.115 Y109.402 E9.29477
G1 X114.675 Y109.459 E9.30375
G1 X113.836 Y109.513 E9.32078
G1 X66.133 Y109.513 E10.28740
G1 X65.282 Y109.454 E10.30470
G1 X64.450 Y109.326 E10.32176
G1 X63.975 Y109.221 E10.33160
G1 X63.168 Y108.985 E10.34864
G1 X62.711 Y108.819 E10.35850
G1 X61.963 Y108.491 E10.37503
G1 X61.510 Y108.256 E10.38539
G1 X60.799 Y107.825 E10.40224
G1 X60.390 Y107.539 E10.41234
G1 X59.700 Y106.982 E10.43032
G1 X59.066 Y106.372 E10.44814
G1 X58.511 Y105.740 E10.46519
G1 X57.987 Y105.027 E10.48311
G1 X57.725 Y104.617 E10.49296
G1 X57.285 Y103.832 E10.51121
G1 X56.879 Y103.028 E10.52946
G1 X56.508 Y102.208 E10.54770
G1 X56.173 Y101.371 E10.56595
G1 X55.876 Y100.522 E10.58420
G1 X55.512 Y99.274 E10.61053
G1 X55.307 Y98.397 E10.62877
G1 X55.140 Y97.513 E10.64702
G1 X55.011 Y96.621 E10.66527
G1 X54.922 Y95.725 E10.68352
G1 X54.872 Y94.826 E10.70176
G1 X54.858 Y94.125 E10.71597
G1 X54.858 Y79.625 E11.00979
G1 X55.256 Y76.958 E11.06444
G1 X56.415 Y74.522 E11.11908
G1 X58.026 Y72.759 E11.16747
G1 X58.496 Y73.213 F1800.000
G1 X58.846 Y72.849 E11.17770 F1800.000
G1 X61.134 Y71.609 E11.23043
G1 X64.000 Y71.112 E11.28938
G1 X116.000 Y71.112 E12.34306
G1 X118.571 Y71.509 E12.39579
G1 X120.903 Y72.665 E12.44851 F1800.000
G1 X122.776 Y74.471 E12.50124
G1 X124.016 Y76.759 E12.55396
G1 X124.513 Y79.625 E12.61291
G1 X124.513 Y94.125 E12.90673
G1 X124.484 Y95.183 E12.92818
G1 X124.364 Y96.553 E12.95604
G1 X124.175 Y97.783 E12.98125
G1 X123.877 Y99.125 E13.00911
G1 X123.529 Y100.320 E13.03433
G1 X123.059 Y101.611 E13.06218
G1 X122.558 Y102.750 E13.08740
G1 X121.923 Y103.970 E13.11525
G1 X121.487 Y104.684 E13.13222
G1 X121.026 Y105.312 E13.14800
G1 X120.760 Y105.631 E13.15641
G1 X120.150 Y106.267 E13.17427
G1 X119.580 Y106.768 E13.18964
G1 X119.236 Y107.034 E13.19845
G1 X118.547 Y107.496 E13.21527
G1 X117.781 Y107.917 E13.23297
G1 X117.021 Y108.249 E13.24979
G1 X116.630 Y108.390 E13.25821
G1 X115.876 Y108.610 E13.27413
G1 X115.019 Y108.781 E13.29183
G1 X114.607 Y108.834 E13.30025
G1 X113.823 Y108.885 E13.31618
G1 X66.149 Y108.885 E14.28220
G1 X65.350 Y108.829 E14.29843
G1 X64.572 Y108.709 E14.31437
G1 X64.124 Y108.610 E14.32366
G1 X63.370 Y108.390 E14.33959
G1 X62.939 Y108.233 E14.34889
G1 X62.240 Y107.927 E14.36435
G1 X61.812 Y107.705 E14.37412
G1 X61.147 Y107.302 E14.38987
G1 X60.762 Y107.032 E14.39940
G1 X60.114 Y106.509 E14.41627
G1 X59.520 Y105.938 E14.43298
G1 X59.001 Y105.346 E14.44892
G1 X58.509 Y104.678 E14.46573
G1 X58.263 Y104.292 E14.47502
G1 X57.836 Y103.530 E14.49272
G1 X57.442 Y102.750 E14.51041
G1 X57.083 Y101.955 E14.52810
G1 X56.759 Y101.144 E14.54579
G1 X56.471 Y100.320 E14.56349
G1 X56.219 Y99.484 E14.58118
G1 X56.003 Y98.638 E14.59887
G1 X55.825 Y97.783 E14.61656
G1 X55.636 Y96.553 E14.64178
G1 X55.549 Y95.684 E14.65947
G1 X55.500 Y94.812 E14.67716
G1 X55.487 Y94.125 E14.69109
G1 X55.487 Y79.625 E14.98491
G1 X55.884 Y77.054 E15.03763
G1 X57.040 Y74.722 E15.09036
G1 X58.454 Y73.256 E15.13164
G1 X58.906 Y73.718 F1800.000
G1 X59.456 Y73.181 E15.14722 F1800.000
G1 X61.705 Y72.081 E15.19795
G1 X64.000 Y71.740 E15.24496
G1 X116.000 Y71.740 E16.29865
G1 X118.472 Y72.138 E16.34938
G1 X120.694 Y73.290 E16.40011 F1800.000
G1 X122.444 Y75.081 E16.45084
G1 X123.544 Y77.330 E16.50157
G1 X123.885 Y79.625 E16.54859
G1 X123.885 Y94.125 E16.84240
G1 X123.857 Y95.142 E16.86303
G1 X123.740 Y96.484 E16.89032
G1 X123.559 Y97.660 E16.91443
G1 X123.267 Y98.976 E16.94173
G1 X122.934 Y100.118 E16.96583
G1 X122.473 Y101.384 E16.99314
G1 X121.994 Y102.473 E17.01724
G1 X121.372 Y103.668 E17.04454
G1 X120.965 Y104.335 E17.06038
G1 X120.536 Y104.919 E17.07507
G1 X120.288 Y105.217 E17.08292
G1 X119.716 Y105.813 E17.09966
G1 X119.186 Y106.279 E17.11396
G1 X118.865 Y106.527 E17.12219
G1 X118.221 Y106.959 E17.13790
G1 X117.503 Y107.353 E17.15449
G1 X116.793 Y107.663 E17.17019
G1 X116.428 Y107.795 E17.17806
G1 X115.726 Y108.000 E17.19287
G1 X114.923 Y108.160 E17.20945
G1 X114.538 Y108.209 E17.21732
G1 X113.809 Y108.257 E17.23213
G1 X66.165 Y108.257 E18.19755
G1 X65.462 Y108.209 E18.21184
G1 X65.033 Y108.153 E18.22059
G1 X64.316 Y108.010 E18.23541
G1 X63.899 Y107.899 E18.24415
G1 X63.207 Y107.664 E18.25897
G1 X62.808 Y107.498 E18.26771
G1 X62.153 Y107.175 E18.28253
G1 X61.779 Y106.959 E18.29127
G1 X61.171 Y106.553 E18.30609
G1 X60.828 Y106.290 E18.31483
G1 X60.278 Y105.808 E18.32966
G1 X59.741 Y105.250 E18.34536
G1 X59.464 Y104.919 E18.35410
G1 X59.007 Y104.293 E18.36980
G1 X58.628 Y103.668 E18.38462
G1 X58.228 Y102.923 E18.40176
G1 X57.860 Y102.161 E18.41890
G1 X57.527 Y101.384 E18.43604
G1 X57.227 Y100.593 E18.45317
G1 X56.822 Y99.308 E18.48047
G1 X56.614 Y98.488 E18.49761
G1 X56.441 Y97.660 E18.51475
G1 X56.305 Y96.826 E18.53188
G1 X56.205 Y95.984 E18.54906
G1 X56.143 Y95.141 E18.56619
G1 X56.115 Y94.125 E18.58678
G1 X56.115 Y79.625 E18.88059
G1 X56.513 Y77.153 E18.93132
G1 X57.665 Y74.931 E18.98205
G1 X58.863 Y73.760 E19.01599
G1 X59.293 Y74.232 F1800.000
G1 X60.062 Y73.530 E19.03709 F1800.000
G1 X62.267 Y72.578 E19.08575
G1 X64.000 Y72.368 E19.12112
G1 X116.000 Y72.368 E20.17481
G1 X118.368 Y72.766 E20.22346
G1 X120.477 Y73.914 E20.27211 F1800.000
G1 X122.095 Y75.687 E20.32077
G1 X123.047 Y77.892 E20.36942
G1 X123.257 Y79.625 E20.40480
G1 X123.257 Y94.125 E20.69861
G1 X123.230 Y95.101 E20.71840
G1 X123.115 Y96.416 E20.74514
G1 X122.997 Y97.227 E20.76175
G1 X122.776 Y98.339 E20.78472
G1 X122.434 Y99.614 E20.81147
G1 X122.070 Y100.687 E20.83443
G1 X121.565 Y101.908 E20.86120
G1 X121.063 Y102.925 E20.88420
G1 X120.663 Y103.640 E20.90079
G1 X120.470 Y103.944 E20.90808
G1 X120.011 Y104.569 E20.92380
G1 X119.573 Y105.068 E20.93726
G1 X119.318 Y105.324 E20.94457
G1 X118.744 Y105.828 E20.96005
G1 X118.458 Y106.046 E20.96734
G1 X117.895 Y106.422 E20.98106
G1 X117.225 Y106.790 E20.99654
G1 X116.606 Y107.062 E21.01024
G1 X116.267 Y107.186 E21.01756
G1 X115.535 Y107.400 E21.03302
G1 X114.828 Y107.539 E21.04762
G1 X114.470 Y107.585 E21.05493
G1 X113.795 Y107.629 E21.06863
G1 X66.205 Y107.629 E22.03295
G1 X65.530 Y107.585 E22.04667
G1 X65.129 Y107.532 E22.05486
G1 X64.466 Y107.400 E22.06857
G1 X64.075 Y107.295 E22.07676
G1 X63.435 Y107.078 E22.09047
G1 X63.061 Y106.923 E22.09865
G1 X62.455 Y106.624 E22.11236
G1 X62.105 Y106.422 E22.12054
G1 X61.542 Y106.046 E22.13425
G1 X61.222 Y105.800 E22.14244
G1 X60.682 Y105.324 E22.15703
G1 X60.214 Y104.835 E22.17075
G1 X59.954 Y104.526 E22.17893
G1 X59.530 Y103.944 E22.19352
G1 X59.179 Y103.366 E22.20723
G1 X58.791 Y102.645 E22.22382
G1 X58.435 Y101.908 E22.24040
G1 X58.112 Y101.156 E22.25698
G1 X57.822 Y100.391 E22.27356
G1 X57.425 Y99.132 E22.30031
G1 X57.224 Y98.339 E22.31689
G1 X57.058 Y97.538 E22.33347
G1 X56.926 Y96.730 E22.35005
G1 X56.830 Y95.915 E22.36667
G1 X56.770 Y95.100 E22.38325
G1 X56.743 Y94.125 E22.40300
G1 X56.743 Y79.625 E22.69682
G1 X57.141 Y77.257 E22.74547
G1 X58.289 Y75.148 E22.79413
G1 X59.249 Y74.272 E22.82046
G1 X59.653 Y74.751 F1800.000
G1 X60.665 Y73.897 E22.84729 F1800.000
G1 X62.817 Y73.103 E22.89378
G1 X64.000 Y72.997 E22.91784
G1 X116.000 Y72.997 E23.97153
G1 X118.259 Y73.394 E24.01801
G1 X120.248 Y74.537 E24.06449 F1800.000
G1 X121.728 Y76.290 E24.11098
G1 X122.522 Y78.442 E24.15746
G1 X122.628 Y79.625 E24.18153
G1 X122.628 Y94.125 E24.47534
G1 X122.616 Y94.771 E24.48844
G1 X122.570 Y95.561 E24.50447
G1 X122.453 Y96.634 E24.52635
G1 X122.228 Y97.907 E24.55254
G1 X122.047 Y98.677 E24.56857
G1 X121.831 Y99.438 E24.58460
G1 X121.485 Y100.459 E24.60645
G1 X120.990 Y101.655 E24.63266
G1 X120.512 Y102.623 E24.65455
G1 X120.126 Y103.314 E24.67058
G1 X119.948 Y103.595 E24.67731
G1 X119.522 Y104.175 E24.69191
G1 X119.119 Y104.634 E24.70428
G1 X118.884 Y104.870 E24.71103
G1 X118.351 Y105.338 E24.72540
G1 X118.086 Y105.539 E24.73214
G1 X117.569 Y105.885 E24.74474
G1 X116.947 Y106.226 E24.75911
G1 X116.338 Y106.492 E24.77259
G1 X116.024 Y106.605 E24.77935
G1 X115.428 Y106.779 E24.79194
G1 X114.732 Y106.918 E24.80630
G1 X114.402 Y106.960 E24.81306
G1 X113.782 Y107.001 E24.82565
G1 X66.262 Y107.002 E25.78854
G1 X65.880 Y106.985 E25.79630
G1 X65.268 Y106.918 E25.80878
G1 X64.896 Y106.852 E25.81642
G1 X64.295 Y106.705 E25.82897
G1 X63.934 Y106.591 E25.83662
G1 X63.354 Y106.366 E25.84923
G1 X63.013 Y106.207 E25.85686
G1 X62.468 Y105.908 E25.86946
G1 X61.914 Y105.540 E25.88294
G1 X61.615 Y105.310 E25.89058
G1 X61.116 Y104.870 E25.90406
G1 X60.686 Y104.421 E25.91666
G1 X60.444 Y104.132 E25.92429
G1 X60.052 Y103.595 E25.93777
G1 X59.730 Y103.063 E25.95037
G1 X59.355 Y102.367 E25.96640
G1 X59.010 Y101.655 E25.98242
G1 X58.698 Y100.928 E25.99845
G1 X58.417 Y100.189 E26.01448
G1 X58.028 Y98.956 E26.04066
G1 X57.834 Y98.190 E26.05669
G1 X57.674 Y97.415 E26.07272
G1 X57.547 Y96.634 E26.08874
G1 X57.455 Y95.847 E26.10480
G1 X57.397 Y95.059 E26.12082
G1 X57.372 Y94.125 E26.13975
G1 X57.372 Y79.625 E26.43357
G1 X57.769 Y77.366 E26.48005
G1 X58.912 Y75.377 E26.52654
G1 X59.607 Y74.790 E26.54497
G1 E23.54497 F2400.00000
G92 E0
G1 X108.014 Y80.946 F1800.000
G1 E3.00000 F2400.00000
G1 X114.679 Y80.946 E3.13506 F1800.000
G1 X114.679 Y82.304 E3.16258
G1 X94.321 Y82.304 E3.57510 F1800.000
G1 X94.321 Y80.946 E3.60261
G1 X107.954 Y80.946 E3.87885
G1 X107.954 Y80.318 F1800.000
G1 X115.307 Y80.318 E4.02786 F1800.000
G1 X115.307 Y94.110 E4.30734
G1 X115.265 Y95.074 E4.32690 F1800.000
G1 X115.216 Y95.528 E4.33615
G1 X115.049 Y96.471 E4.35556
G1 X114.941 Y96.915 E4.36481
G1 X114.656 Y97.816 E4.38396
G1 X114.294 Y98.691 E4.40315
G1 X113.851 Y99.538 E4.42252
G1 X113.790 Y99.606 E4.42437
G1 X113.709 Y99.653 E4.42628
G1 X113.562 Y99.674 E4.42928
G1 X113.467 Y99.646 E4.43128
G1 X113.344 Y99.543 E4.43454
G1 X113.304 Y99.452 E4.43653
G1 X113.290 Y99.326 E4.43911
G1 X113.735 Y98.439 E4.45922
G1 X113.920 Y98.019 E4.46852
G1 X114.219 Y97.197 E4.48623
G1 X114.348 Y96.756 E4.49555
G1 X114.538 Y95.895 E4.51342
G1 X114.655 Y95.013 E4.53144
G1 X114.693 Y94.140 E4.54915
G1 X114.693 Y82.932 E4.77625
G1 X94.307 Y82.932 E5.18933
G1 X94.307 Y94.140 E5.41643
G1 X94.345 Y95.013 E5.43415
G1 X94.461 Y95.888 E5.45201
G1 X94.551 Y96.343 E5.46142
G1 X94.776 Y97.183 E5.47904
G1 X94.924 Y97.618 E5.48836
G1 X95.261 Y98.432 E5.50620
G1 X95.688 Y99.257 E5.52503
G1 X95.709 Y99.367 E5.52730
G1 X95.668 Y99.526 E5.53062
G1 X95.620 Y99.588 E5.53221
G1 X95.485 Y99.666 E5.53537
G1 X95.336 Y99.667 E5.53838
G1 X95.232 Y99.621 E5.54069
G1 X95.160 Y99.553 E5.54270
G1 X94.912 Y99.112 E5.55294
G1 X94.709 Y98.699 E5.56227
G1 X94.342 Y97.814 E5.58168
G1 X94.195 Y97.382 E5.59093
G1 X93.950 Y96.464 E5.61019
G1 X93.784 Y95.528 E5.62945
G1 X93.735 Y95.074 E5.63869
G1 X93.693 Y94.110 E5.65826
G1 X93.693 Y80.318 E5.93773
G1 X107.894 Y80.318 E6.22548
G1 X107.894 Y79.825 F1800.000
G1 X115.800 Y79.825 E6.31653 F1800.000
G1 X115.800 Y94.121 E6.48116
G1 X115.757 Y95.112 E6.49259 F1800.000
G1 X115.704 Y95.598 E6.49821
G1 X115.532 Y96.573 E6.50961
G1 X115.415 Y97.048 E6.51524
G1 X115.120 Y97.985 E6.52656
G1 X114.741 Y98.900 E6.53797
G1 X114.267 Y99.804 E6.54972
G1 X114.083 Y100.006 E6.55287
G1 X113.899 Y100.113 E6.55532
G1 X113.697 Y100.166 E6.55772
G1 X113.491 Y100.166 E6.56009
G1 X113.256 Y100.098 E6.56291
G1 X113.053 Y99.962 E6.56573
G1 X112.921 Y99.806 E6.56808
G1 X112.823 Y99.581 E6.57090
G1 X112.796 Y99.334 E6.57378
G1 X112.813 Y99.202 E6.57530
G1 X112.855 Y99.069 E6.57691
G1 X113.290 Y98.226 E6.58783
G1 X113.463 Y97.835 E6.59276
G1 X113.750 Y97.044 E6.60245
G1 X113.870 Y96.633 E6.60737
G1 X114.053 Y95.809 E6.61709
G1 X114.163 Y94.970 E6.62684
G1 X114.200 Y94.129 E6.63653
G1 X114.200 Y83.425 E6.75980
G1 X94.800 Y83.425 E6.98321
G1 X94.800 Y94.129 E7.10648
G1 X94.837 Y94.970 E7.11617
G1 X94.947 Y95.807 E7.12589
G1 X95.031 Y96.231 E7.13086
G1 X95.248 Y97.040 E7.14051
G1 X95.386 Y97.445 E7.14543
G1 X95.709 Y98.224 E7.15515
G1 X96.145 Y99.069 E7.16610
G1 X96.186 Y99.200 E7.16768
G1 X96.205 Y99.373 E7.16968
G1 X96.178 Y99.582 E7.17211
G1 X96.098 Y99.774 E7.17451
G1 X95.971 Y99.939 E7.17691
G1 X95.806 Y100.066 E7.17931
G1 X95.613 Y100.146 E7.18171
G1 X95.407 Y100.173 E7.18411
G1 X95.202 Y100.146 E7.18648
G1 X94.974 Y100.046 E7.18935
G1 X94.840 Y99.938 E7.19133
G1 X94.753 Y99.834 E7.19290
G1 X94.476 Y99.342 E7.19940
G1 X94.260 Y98.903 E7.20504
G1 X93.881 Y97.988 E7.21644
G1 X93.724 Y97.525 E7.22207
G1 X93.468 Y96.571 E7.23345
G1 X93.296 Y95.598 E7.24483
G1 X93.243 Y95.112 E7.25045
G1 X93.200 Y94.121 E7.26188
G1 X93.200 Y79.825 E7.42651
G1 X107.834 Y79.825 E7.59502
G1 X108.094 Y80.171 F1800.000
G1 E4.59502 F2400.00000
G92 E0
G1 X114.365 Y81.625 F1800.000
G1 E3.00000 F2400.00000
G1 X94.635 Y81.625 E3.82688 F1800.000
G1 E0.82688 F2400.00000
G92 E0
G1 X92.000 Y79.211 F1800.000
G1 X90.000 Y78.691 F1800.000
G1 X88.243 Y77.797 F1800.000
G1 X87.414 Y78.625 F1800.000
