; generated by Slic3r 1.2.9 on 2021-05-01 at 07:11:50

; external perimeters extrusion width = 0.40mm
; perimeters extrusion width = 0.67mm
; infill extrusion width = 0.67mm
; solid infill extrusion width = 0.67mm
; top infill extrusion width = 0.67mm

M190 S60 ; set bed temperature
M104 S200 ; set temperature
G28 ; home all axes
G1 Z5 F5000 ; lift nozzle

M109 S200 ; wait for temperature to be reached
G21 ; set units to millimeters
G90 ; use absolute coordinates
M82 ; use absolute distances for extrusion
G92 E0
G1 Z0.200 F1800.000
G1 E-3.00000 F2400.00000
G92 E0
G1 X46.617 Y72.985 F1800.000
G1 E3.00000 F2400.00000
G1 X47.220 Y72.600 E3.01450 F1800.000
G1 X50.914 Y71.736 E3.09138
G1 X105.414 Y69.861 E4.19637
G1 X128.750 Y69.855 E4.66923
G1 X131.510 Y70.253 E4.72574
G1 X134.045 Y71.414 E4.78224 F1800.000
G1 X136.149 Y73.245 E4.83875
G1 X137.650 Y75.595 E4.89525
G1 X138.520 Y79.625 E4.97880
G1 X138.520 Y94.125 E5.27261
G1 X138.488 Y95.266 E5.29573
G1 X138.363 Y96.690 E5.32470
G1 X138.157 Y98.028 E5.35213
G1 X137.848 Y99.424 E5.38110
G1 X137.469 Y100.724 E5.40854
G1 X136.980 Y102.067 E5.43751
G1 X136.435 Y103.306 E5.46494
G1 X135.775 Y104.574 E5.49391
G1 X135.281 Y105.383 E5.51312
G1 X134.756 Y106.099 E5.53110
G1 X134.455 Y106.459 E5.54062
G1 X133.768 Y107.176 E5.56072
G1 X133.119 Y107.746 E5.57824
G1 X132.729 Y108.047 E5.58822
G1 X131.949 Y108.571 E5.60726
G1 X131.087 Y109.044 E5.62718
G1 X130.227 Y109.420 E5.64621
G1 X129.784 Y109.580 E5.65575
G1 X128.924 Y109.831 E5.67389
G1 X127.960 Y110.023 E5.69381
G1 X127.493 Y110.083 E5.70335
G1 X126.600 Y110.142 E5.72149
G1 X107.791 Y110.139 E6.10262
G1 X50.928 Y108.265 E7.25547
G1 X48.183 Y107.776 E7.31197
G1 X45.687 Y106.532 E7.36848
G1 X43.645 Y104.633 E7.42498
G1 X42.222 Y102.235 E7.48149
G1 X41.480 Y98.500 E7.55864
G1 X41.480 Y81.500 E7.90312
G1 X41.878 Y78.740 E7.95962
G1 X43.039 Y76.205 E8.01613
G1 X44.870 Y74.101 E8.07263
G1 X46.566 Y73.018 E8.11342
G1 X46.894 Y73.571 F1800.000
G1 X47.805 Y73.032 E8.13486 F1800.000
G1 X50.936 Y72.364 E8.19974
G1 X105.436 Y70.489 E9.30473
G1 X128.750 Y70.483 E9.77715
G1 X131.417 Y70.881 E9.83180
G1 X133.853 Y72.040 E9.88645 F1800.000
G1 X135.844 Y73.859 E9.94110
G1 X137.218 Y76.180 E9.99575
G1 X137.892 Y79.625 E10.06688
G1 X137.892 Y94.125 E10.36070
G1 X137.861 Y95.225 E10.38299
G1 X137.739 Y96.621 E10.41140
G1 X137.541 Y97.905 E10.43772
G1 X137.238 Y99.274 E10.46613
G1 X136.874 Y100.522 E10.49246
G1 X136.395 Y101.839 E10.52087
G1 X135.871 Y103.028 E10.54720
G1 X135.224 Y104.272 E10.57561
G1 X134.759 Y105.034 E10.59369
G1 X134.266 Y105.706 E10.61058
G1 X133.982 Y106.045 E10.61954
G1 X133.334 Y106.722 E10.63852
G1 X132.725 Y107.257 E10.65497
G1 X132.358 Y107.540 E10.66436
G1 X131.623 Y108.034 E10.68229
G1 X130.809 Y108.480 E10.70110
G1 X129.999 Y108.835 E10.71903
G1 X129.582 Y108.985 E10.72801
G1 X128.775 Y109.221 E10.74504
G1 X127.865 Y109.402 E10.76385
G1 X127.425 Y109.459 E10.77283
G1 X126.586 Y109.513 E10.78986
G1 X107.812 Y109.511 E11.17029
G1 X50.949 Y107.637 E12.32314
G1 X48.296 Y107.151 E12.37779
G1 X45.900 Y105.913 E12.43244
G1 X43.970 Y104.029 E12.48708
G1 X42.674 Y101.664 E12.54173
G1 X42.108 Y98.500 E12.60687
G1 X42.108 Y81.500 E12.95134
G1 X42.506 Y78.833 E13.00599
G1 X43.665 Y76.397 E13.06064
G1 X45.484 Y74.406 E13.11528
G1 X46.843 Y73.602 E13.14727
G1 X47.143 Y74.156 F1800.000
G1 X48.384 Y73.484 E13.17587 F1800.000
G1 X50.957 Y72.992 E13.22896
G1 X105.457 Y71.117 E14.33396
G1 X128.750 Y71.112 E14.80594
G1 X131.321 Y71.509 E14.85867
G1 X133.653 Y72.665 E14.91139 F1800.000
G1 X135.526 Y74.471 E14.96412
G1 X136.766 Y76.759 E15.01685
G1 X137.263 Y79.625 E15.07579
G1 X137.263 Y94.125 E15.36961
G1 X137.234 Y95.183 E15.39107
G1 X137.114 Y96.553 E15.41892
G1 X136.925 Y97.783 E15.44414
G1 X136.627 Y99.125 E15.47199
G1 X136.279 Y100.320 E15.49721
G1 X135.809 Y101.611 E15.52506
G1 X135.308 Y102.750 E15.55028
G1 X134.673 Y103.970 E15.57813
G1 X134.237 Y104.684 E15.59510
G1 X133.776 Y105.312 E15.61088
G1 X133.510 Y105.631 E15.61929
G1 X132.900 Y106.267 E15.63715
G1 X132.330 Y106.768 E15.65252
G1 X131.986 Y107.034 E15.66134
G1 X131.297 Y107.496 E15.67815
G1 X130.531 Y107.917 E15.69586
G1 X129.771 Y108.249 E15.71267
G1 X129.380 Y108.390 E15.72109
G1 X128.626 Y108.610 E15.73701
G1 X127.769 Y108.781 E15.75471
G1 X127.357 Y108.834 E15.76314
G1 X126.573 Y108.885 E15.77906
G1 X107.833 Y108.883 E16.15879
G1 X50.970 Y107.009 E17.31164
G1 X48.413 Y106.527 E17.36437
G1 X46.121 Y105.295 E17.41709
G1 X44.308 Y103.428 E17.46982
G1 X43.144 Y101.101 E17.52254
G1 X42.737 Y98.500 E17.57589
G1 X42.737 Y81.500 E17.92036
G1 X43.134 Y78.929 E17.97308
G1 X44.290 Y76.597 E18.02581
G1 X46.096 Y74.724 E18.07854
G1 X47.090 Y74.185 E18.10145
G1 X47.360 Y74.736 F1800.000
G1 X48.955 Y73.956 E18.13743 F1800.000
G1 X50.979 Y73.620 E18.17900
G1 X105.479 Y71.745 E19.28400
G1 X128.750 Y71.740 E19.75555
G1 X131.222 Y72.138 E19.80628
G1 X133.444 Y73.290 E19.85701 F1800.000
G1 X135.194 Y75.081 E19.90774
G1 X136.294 Y77.330 E19.95847
G1 X136.635 Y79.625 E20.00549
G1 X136.635 Y94.125 E20.29930
G1 X136.607 Y95.142 E20.31992
G1 X136.490 Y96.484 E20.34722
G1 X136.309 Y97.660 E20.37133
G1 X136.017 Y98.976 E20.39863
G1 X135.684 Y100.118 E20.42273
G1 X135.223 Y101.384 E20.45003
G1 X134.744 Y102.473 E20.47414
G1 X134.122 Y103.668 E20.50144
G1 X133.715 Y104.335 E20.51728
G1 X133.286 Y104.919 E20.53196
G1 X133.038 Y105.217 E20.53982
G1 X132.466 Y105.813 E20.55656
G1 X131.936 Y106.279 E20.57086
G1 X131.615 Y106.527 E20.57909
G1 X130.971 Y106.959 E20.59479
G1 X130.253 Y107.353 E20.61139
G1 X129.543 Y107.663 E20.62709
G1 X129.178 Y107.795 E20.63495
G1 X128.476 Y108.000 E20.64977
G1 X127.673 Y108.160 E20.66635
G1 X127.288 Y108.209 E20.67422
G1 X126.559 Y108.257 E20.68903
G1 X107.853 Y108.255 E21.06807
G1 X50.990 Y106.381 E22.22092
G1 X48.533 Y105.902 E22.27165
G1 X46.349 Y104.677 E22.32238
G1 X44.660 Y102.829 E22.37311
G1 X43.635 Y100.545 E22.42384
G1 X43.365 Y98.500 E22.46565
G1 X43.365 Y81.500 E22.81012
G1 X43.763 Y79.028 E22.86085
G1 X44.915 Y76.806 E22.91158
G1 X46.706 Y75.056 E22.96231
G1 X47.306 Y74.763 E22.97585
G1 X47.541 Y75.306 F1800.000
G1 X49.517 Y74.453 E23.01947 F1800.000
G1 X51.000 Y74.248 E23.04982
G1 X105.500 Y72.373 E24.15481
G1 X128.750 Y72.368 E24.62592
G1 X131.118 Y72.766 E24.67458
G1 X133.227 Y73.914 E24.72323 F1800.000
G1 X134.845 Y75.687 E24.77188
G1 X135.797 Y77.892 E24.82054
G1 X136.007 Y79.625 E24.85591
G1 X136.007 Y94.125 E25.14973
G1 X135.980 Y95.101 E25.16952
G1 X135.865 Y96.416 E25.19626
G1 X135.747 Y97.227 E25.21286
G1 X135.526 Y98.339 E25.23584
G1 X135.184 Y99.614 E25.26259
G1 X134.820 Y100.687 E25.28555
G1 X134.315 Y101.908 E25.31232
G1 X133.813 Y102.925 E25.33531
G1 X133.413 Y103.640 E25.35191
G1 X133.220 Y103.944 E25.35919
G1 X132.761 Y104.569 E25.37492
G1 X132.323 Y105.068 E25.38838
G1 X132.068 Y105.324 E25.39569
G1 X131.494 Y105.828 E25.41116
G1 X131.208 Y106.046 E25.41846
G1 X130.645 Y106.422 E25.43217
G1 X129.975 Y106.790 E25.44765
G1 X129.356 Y107.062 E25.46136
G1 X129.017 Y107.186 E25.46867
G1 X128.285 Y107.400 E25.48414
G1 X127.578 Y107.539 E25.49873
G1 X127.220 Y107.585 E25.50604
G1 X126.545 Y107.629 E25.51975
G1 X107.874 Y107.627 E25.89808
G1 X51.011 Y105.753 E27.05094
G1 X48.657 Y105.278 E27.09959
G1 X46.588 Y104.061 E27.14824
G1 X45.028 Y102.235 E27.19690
G1 X44.150 Y100.000 E27.24555
G1 X43.993 Y98.500 E27.27611
G1 X43.993 Y81.500 E27.62059
G1 X44.391 Y79.132 E27.66924
G1 X45.539 Y77.023 E27.71789
G1 X47.312 Y75.405 E27.76655
G1 X47.485 Y75.330 E27.77037
G1 X47.882 Y75.800 F1800.000
G1 X47.915 Y75.772 E27.77124 F1800.000
G1 X51.022 Y74.876 E27.83677
G1 X105.522 Y73.001 E28.94176
G1 X128.750 Y72.997 E29.41243
G1 X131.009 Y73.394 E29.45892
G1 X132.998 Y74.537 E29.50540 F1800.000
G1 X134.478 Y76.290 E29.55189
G1 X135.272 Y78.442 E29.59837
G1 X135.378 Y79.625 E29.62244
G1 X135.378 Y94.125 E29.91625
G1 X135.366 Y94.771 E29.92935
G1 X135.320 Y95.561 E29.94538
G1 X135.203 Y96.634 E29.96726
G1 X134.978 Y97.907 E29.99345
G1 X134.797 Y98.677 E30.00947
G1 X134.581 Y99.438 E30.02551
G1 X134.235 Y100.459 E30.04736
G1 X133.740 Y101.655 E30.07357
G1 X133.262 Y102.623 E30.09546
G1 X132.876 Y103.314 E30.11149
G1 X132.698 Y103.595 E30.11822
G1 X132.272 Y104.175 E30.13282
G1 X131.869 Y104.634 E30.14519
G1 X131.634 Y104.870 E30.15194
G1 X131.101 Y105.338 E30.16631
G1 X130.836 Y105.539 E30.17305
G1 X130.319 Y105.885 E30.18565
G1 X129.697 Y106.226 E30.20002
G1 X129.088 Y106.492 E30.21350
G1 X128.774 Y106.605 E30.22026
G1 X128.178 Y106.779 E30.23285
G1 X127.482 Y106.918 E30.24721
G1 X127.152 Y106.960 E30.25397
G1 X126.532 Y107.001 E30.26656
G1 X107.895 Y106.999 E30.64420
G1 X51.032 Y105.125 E31.79705
G1 X48.787 Y104.654 E31.84354
G1 X46.836 Y103.445 E31.89002
G1 X45.415 Y101.645 E31.93651
G1 X44.622 Y98.500 E32.00222
G1 X44.622 Y81.500 E32.34670
G1 X45.019 Y79.241 E32.39318
G1 X46.162 Y77.252 E32.43967
G1 X47.836 Y75.838 E32.48406
G1 E29.48406 F2400.00000
G92 E0
G1 X66.429 Y87.429 F1800.000
G1 E3.00000 F2400.00000
G1 X79.571 Y87.429 E3.26630 F1800.000
G1 X79.571 Y94.571 E3.41102
G1 X66.429 Y94.571 E3.67732
G1 X66.429 Y87.489 E3.82082
G1 X67.057 Y88.057 F1800.000
G1 X78.943 Y88.057 E4.06166 F1800.000
G1 X78.943 Y93.943 E4.18092
G1 X67.057 Y93.943 E4.42175
G1 X67.057 Y88.117 E4.53979
G1 X67.550 Y88.550 F1800.000
G1 X78.450 Y88.550 E4.66531 F1800.000
G1 X78.450 Y93.450 E4.72174
G1 X67.550 Y93.450 E4.84726
G1 X67.550 Y88.610 E4.90300
G1 X67.550 Y88.150 F1800.000
G1 E1.90300 F2400.00000
G92 E0
G1 X61.307 Y90.374 F1800.000
G1 E3.00000 F2400.00000
G1 X61.373 Y90.878 E3.01029 F1800.000
G1 X61.351 Y91.388 E3.02065
G1 X61.208 Y91.968 E3.03275
G1 X60.942 Y92.507 E3.04492
G1 X60.625 Y92.921 E3.05550
G1 X60.184 Y93.308 E3.06739
G1 X59.732 Y93.569 E3.07796
G1 X59.176 Y93.757 E3.08985
G1 X58.659 Y93.825 E3.10042
G1 X58.073 Y93.787 E3.11231
G1 X57.569 Y93.652 E3.12288
G1 X57.043 Y93.392 E3.13477
G1 X56.641 Y93.084 E3.14505
G1 X56.298 Y92.710 E3.15532
G1 X55.986 Y92.196 E3.16751
G1 X55.793 Y91.626 E3.17970
G1 X55.725 Y91.109 E3.19027
G1 X55.763 Y90.523 E3.20216
G1 X55.898 Y90.019 E3.21273
G1 X56.158 Y89.493 E3.22462
G1 X56.475 Y89.079 E3.23519
G1 X56.916 Y88.692 E3.24708
G1 X57.368 Y88.431 E3.25765
G1 X57.925 Y88.243 E3.26956
G1 X58.446 Y88.175 E3.28021 F1800.000
G1 X59.027 Y88.213 E3.29202
G1 X59.531 Y88.348 E3.30258
G1 X60.057 Y88.608 E3.31447
G1 X60.471 Y88.925 E3.32504
G1 X60.858 Y89.366 E3.33693
G1 X61.119 Y89.818 E3.34750
G1 X61.288 Y90.317 E3.35818
G1 X60.692 Y90.517 F1800.000
G1 X60.743 Y90.905 E3.36609 F1800.000
G1 X60.726 Y91.298 E3.37407
G1 X60.614 Y91.752 E3.38354
G1 X60.406 Y92.174 E3.39307
G1 X60.164 Y92.489 E3.40113
G1 X59.816 Y92.795 E3.41051
G1 X59.471 Y92.993 E3.41858
G1 X59.033 Y93.142 E3.42796
G1 X58.638 Y93.194 E3.43602
G1 X58.176 Y93.164 E3.44541
G1 X57.792 Y93.061 E3.45347
G1 X57.376 Y92.856 E3.46285
G1 X57.067 Y92.619 E3.47076
G1 X56.803 Y92.331 E3.47867
G1 X56.559 Y91.928 E3.48821
G1 X56.408 Y91.483 E3.49774
G1 X56.356 Y91.088 E3.50581
G1 X56.386 Y90.626 E3.51519
G1 X56.489 Y90.242 E3.52325
G1 X56.694 Y89.826 E3.53264
G1 X56.936 Y89.511 E3.54070
G1 X57.284 Y89.205 E3.55008
G1 X57.629 Y89.007 E3.55814
G1 X58.068 Y88.858 E3.56754
G1 X58.466 Y88.806 E3.57567 F1800.000
G1 X58.924 Y88.836 E3.58498
G1 X59.308 Y88.939 E3.59304
G1 X59.724 Y89.144 E3.60242
G1 X60.039 Y89.386 E3.61048
G1 X60.345 Y89.734 E3.61986
G1 X60.543 Y90.079 E3.62793
G1 X60.673 Y90.460 E3.63610
G1 X60.206 Y90.619 F1800.000
G1 X60.249 Y90.926 E3.63967 F1800.000
G1 X60.236 Y91.228 E3.64314
G1 X60.149 Y91.582 E3.64734
G1 X59.986 Y91.912 E3.65158
G1 X59.803 Y92.151 E3.65505
G1 X59.527 Y92.392 E3.65926
G1 X59.267 Y92.543 E3.66273
G1 X58.920 Y92.660 E3.66694
G1 X58.622 Y92.699 E3.67041
G1 X58.257 Y92.675 E3.67462
G1 X57.966 Y92.598 E3.67809
G1 X57.638 Y92.436 E3.68230
G1 X57.401 Y92.254 E3.68574
G1 X57.199 Y92.034 E3.68918
G1 X57.008 Y91.719 E3.69342
G1 X56.890 Y91.370 E3.69766
G1 X56.851 Y91.072 E3.70112
G1 X56.875 Y90.707 E3.70534
G1 X56.952 Y90.416 E3.70880
G1 X57.114 Y90.088 E3.71302
G1 X57.297 Y89.849 E3.71648
G1 X57.573 Y89.608 E3.72070
G1 X57.833 Y89.457 E3.72416
G1 X58.180 Y89.340 E3.72838
G1 X58.481 Y89.300 E3.73188 F1800.000
G1 X58.843 Y89.325 E3.73606
G1 X59.134 Y89.402 E3.73952
G1 X59.462 Y89.564 E3.74374
G1 X59.701 Y89.747 E3.74720
G1 X59.942 Y90.023 E3.75142
G1 X60.093 Y90.283 E3.75488
G1 X60.187 Y90.562 E3.75827
G1 X60.501 Y90.717 F1800.000
G1 E0.75827 F2400.00000
G92 E0
G1 X61.050 Y91.000 F1800.000
G1 X63.701 Y93.062 F1800.000
G1 X63.497 Y93.938 F1800.000
G1 X63.500 Y94.250 F1800.000
G1 X81.320 Y94.837 F1800.000
G1 X80.617 Y92.959 F1800.000
G1 X80.416 Y91.973 F1800.000
G1 X80.367 Y91.496 F1800.000
G1 X80.356 Y91.290 F1800.000
G1 X80.352 Y91.181 F1800.000
G1 X81.452 Y91.109 F1800.000
G1 X81.124 Y91.123 F1800.000
G1 E3.00000 F2400.00000
G1 X81.163 Y90.523 E3.01219 F1800.000
G1 X81.298 Y90.019 E3.02276
G1 X81.558 Y89.493 E3.03465
G1 X81.875 Y89.079 E3.04522
G1 X82.316 Y88.692 E3.05711
G1 X82.768 Y88.431 E3.06768
G1 X83.325 Y88.243 E3.07959
G1 X83.846 Y88.175 E3.09024 F1800.000
G1 X84.427 Y88.213 E3.10204
G1 X84.917 Y88.345 E3.11233
G1 X85.380 Y88.561 E3.12268
G1 X85.862 Y88.915 E3.13478
G1 X86.258 Y89.366 E3.14696
G1 X86.519 Y89.818 E3.15753
G1 X86.707 Y90.374 E3.16942
G1 X86.773 Y90.878 E3.17971
G1 X86.751 Y91.388 E3.19007
G1 X86.611 Y91.955 E3.20189
G1 X86.389 Y92.430 E3.21253
G1 X86.044 Y92.900 E3.22434
G1 X85.660 Y93.252 E3.23490
G1 X85.157 Y93.557 E3.24680
G1 X84.663 Y93.736 E3.25745
G1 X84.073 Y93.826 E3.26956
G1 X83.473 Y93.787 E3.28173
G1 X82.983 Y93.656 E3.29201
G1 X82.524 Y93.441 E3.30228
G1 X82.039 Y93.086 E3.31446
G1 X81.645 Y92.637 E3.32656
G1 X81.389 Y92.195 E3.33691
G1 X81.215 Y91.718 E3.34721
G1 X81.133 Y91.183 E3.35818
G1 X81.755 Y91.096 F1800.000
G1 X81.786 Y90.626 E3.36771 F1800.000
G1 X81.889 Y90.242 E3.37578
G1 X82.094 Y89.826 E3.38516
G1 X82.336 Y89.511 E3.39322
G1 X82.684 Y89.205 E3.40261
G1 X83.029 Y89.007 E3.41067
G1 X83.468 Y88.858 E3.42006
G1 X83.866 Y88.806 E3.42820 F1800.000
G1 X84.324 Y88.836 E3.43750
G1 X84.701 Y88.937 E3.44542
G1 X85.058 Y89.104 E3.45340
G1 X85.434 Y89.381 E3.46286
G1 X85.745 Y89.734 E3.47239
G1 X85.943 Y90.079 E3.48045
G1 X86.092 Y90.517 E3.48984
G1 X86.143 Y90.905 E3.49775
G1 X86.126 Y91.298 E3.50574
G1 X86.016 Y91.745 E3.51505
G1 X85.846 Y92.108 E3.52318
G1 X85.574 Y92.478 E3.53249
G1 X85.281 Y92.747 E3.54055
G1 X84.885 Y92.987 E3.54994
G1 X84.507 Y93.124 E3.55807
G1 X84.046 Y93.195 E3.56753
G1 X83.576 Y93.164 E3.57707
G1 X83.199 Y93.063 E3.58497
G1 X82.845 Y92.898 E3.59288
G1 X82.466 Y92.620 E3.60241
G1 X82.158 Y92.269 E3.61188
G1 X81.960 Y91.928 E3.61986
G1 X81.827 Y91.561 E3.62778
G1 X81.764 Y91.155 E3.63610
G1 X82.251 Y91.080 F1800.000
G1 X82.275 Y90.707 E3.64041 F1800.000
G1 X82.352 Y90.416 E3.64387
G1 X82.514 Y90.088 E3.64809
G1 X82.697 Y89.849 E3.65155
G1 X82.973 Y89.608 E3.65576
G1 X83.233 Y89.457 E3.65923
G1 X83.580 Y89.340 E3.66345
G1 X83.881 Y89.300 E3.66695 F1800.000
G1 X84.243 Y89.325 E3.67112
G1 X84.532 Y89.402 E3.67456
G1 X84.805 Y89.530 E3.67804
G1 X85.099 Y89.746 E3.68224
G1 X85.342 Y90.023 E3.68648
G1 X85.493 Y90.283 E3.68995
G1 X85.610 Y90.630 E3.69416
G1 X85.649 Y90.926 E3.69760
G1 X85.636 Y91.228 E3.70108
G1 X85.549 Y91.580 E3.70526
G1 X85.420 Y91.855 E3.70876
G1 X85.205 Y92.148 E3.71294
G1 X84.984 Y92.351 E3.71640
G1 X84.671 Y92.541 E3.72062
G1 X84.385 Y92.644 E3.72412
G1 X84.024 Y92.700 E3.72832
G1 X83.657 Y92.675 E3.73256
G1 X83.368 Y92.598 E3.73600
G1 X83.098 Y92.472 E3.73944
G1 X82.801 Y92.254 E3.74368
G1 X82.560 Y91.980 E3.74788
G1 X82.409 Y91.719 E3.75136
G1 X82.306 Y91.438 E3.75480
G1 X82.260 Y91.139 E3.75828
G1 X81.926 Y90.896 F1800.000
G1 E0.75828 F2400.00000
G92 E0
G1 X81.886 Y97.179 F1800.000
G1 E3.00000 F2400.00000
G1 X52.571 Y97.179 E3.59402 F1800.000
G1 X52.571 Y82.821 E3.88496
G1 X89.929 Y82.821 E4.64195
G1 X89.929 Y97.179 E4.93289
G1 X81.946 Y97.179 E5.09464 F1800.000
G1 X81.946 Y97.807 F1800.000
G1 X51.943 Y97.807 E5.70261 F1800.000
G1 X51.943 Y82.193 E6.01901
G1 X90.557 Y82.193 E6.80147
G1 X90.557 Y97.807 E7.11787
G1 X82.006 Y97.807 E7.29114 F1800.000
