; generated by Slic3r 1.2.9 on 2021-04-30 at 23:00:37

; external perimeters extrusion width = 0.40mm
; perimeters extrusion width = 0.67mm
; infill extrusion width = 0.67mm
; solid infill extrusion width = 0.67mm
; top infill extrusion width = 0.67mm

M190 S60 ; set bed temperature
M104 S200 ; set temperature
G28 ; home all axes
G1 Z5 F5000 ; lift nozzle

M109 S200 ; wait for temperature to be reached
G21 ; set units to millimeters
G90 ; use absolute coordinates
M82 ; use absolute distances for extrusion
G92 E0
M106 S158.1
G1 Z0.200 F1800.000
G1 E-3.00000 F2400.00000
G92 E0
G1 X72.120 Y72.226 F1800.000
G1 E3.00000 F2400.00000
G1 X74.470 Y70.725 E3.05650 F1800.000
G1 X78.500 Y69.855 E3.14005
G1 X101.500 Y69.855 E3.60610
G1 X104.260 Y70.253 E3.66261
G1 X106.795 Y71.414 E3.71911 F1800.000
G1 X108.899 Y73.245 E3.77562
G1 X110.400 Y75.595 E3.83212
G1 X111.270 Y79.625 E3.91566
G1 X111.270 Y94.125 E4.20948
G1 X111.238 Y95.266 E4.23260
G1 X111.113 Y96.690 E4.26157
G1 X110.907 Y98.028 E4.28900
G1 X110.598 Y99.424 E4.31797
G1 X110.219 Y100.724 E4.34541
G1 X109.730 Y102.067 E4.37438
G1 X109.185 Y103.306 E4.40181
G1 X108.525 Y104.574 E4.43078
G1 X108.031 Y105.383 E4.44999
G1 X107.506 Y106.099 E4.46797
G1 X107.205 Y106.459 E4.47749
G1 X106.556 Y107.140 E4.49654
G1 X105.817 Y107.788 E4.51645
G1 X105.444 Y108.073 E4.52597
G1 X104.699 Y108.571 E4.54413
G1 X103.876 Y109.024 E4.56317
G1 X102.977 Y109.420 E4.58308
G1 X102.534 Y109.580 E4.59262
G1 X101.674 Y109.831 E4.61076
G1 X100.710 Y110.023 E4.63068
G1 X99.776 Y110.123 E4.64972
G1 X99.093 Y110.145 E4.66356
G1 X80.907 Y110.145 E5.03208
G1 X80.171 Y110.120 E5.04699
G1 X79.247 Y110.016 E5.06584
G1 X78.783 Y109.933 E5.07539
G1 X77.917 Y109.721 E5.09346
G1 X77.024 Y109.420 E5.11255
G1 X76.162 Y109.043 E5.13161
G1 X75.301 Y108.571 E5.15151
G1 X74.518 Y108.045 E5.17061
G1 X74.149 Y107.760 E5.18007
G1 X73.480 Y107.175 E5.19808
G1 X72.824 Y106.492 E5.21726
G1 X72.209 Y105.726 E5.23718
G1 X71.940 Y105.340 E5.24671
G1 X71.475 Y104.574 E5.26485
G1 X70.815 Y103.306 E5.29383
G1 X70.270 Y102.067 E5.32126
G1 X69.942 Y101.199 E5.34007
G1 X69.653 Y100.317 E5.35887
G1 X69.402 Y99.424 E5.37767
G1 X69.190 Y98.520 E5.39648
G1 X68.942 Y97.112 E5.42544
G1 X68.795 Y95.766 E5.45288
G1 X68.743 Y94.840 E5.47168
G1 X68.730 Y94.125 E5.48617
G1 X68.730 Y79.625 E5.77999
G1 X69.128 Y76.865 E5.83649
G1 X70.289 Y74.330 E5.89299
G1 X72.080 Y72.271 E5.94828
G1 X72.566 Y72.715 F1800.000
G1 X72.734 Y72.531 E5.95333 F1800.000
G1 X75.055 Y71.157 E6.00798
G1 X78.500 Y70.483 E6.07911
G1 X101.500 Y70.483 E6.54516
G1 X104.167 Y70.881 E6.59981
G1 X106.603 Y72.040 E6.65446 F1800.000
G1 X108.594 Y73.859 E6.70911
G1 X109.968 Y76.180 E6.76375
G1 X110.642 Y79.625 E6.83489
G1 X110.642 Y94.125 E7.12870
G1 X110.611 Y95.225 E7.15099
G1 X110.489 Y96.621 E7.17940
G1 X110.360 Y97.514 E7.19768
G1 X110.107 Y98.787 E7.22398
G1 X109.744 Y100.142 E7.25240
G1 X109.327 Y101.370 E7.27868
G1 X108.790 Y102.667 E7.30713
G1 X108.215 Y103.832 E7.33345
G1 X107.774 Y104.618 E7.35171
G1 X107.538 Y104.991 E7.36066
G1 X106.979 Y105.752 E7.37978
G1 X106.434 Y106.372 E7.39652
G1 X106.122 Y106.686 E7.40549
G1 X105.424 Y107.298 E7.42430
G1 X104.709 Y107.819 E7.44223
G1 X104.321 Y108.065 E7.45153
G1 X103.598 Y108.461 E7.46824
G1 X102.749 Y108.835 E7.48704
G1 X102.332 Y108.985 E7.49602
G1 X101.525 Y109.221 E7.51305
G1 X100.615 Y109.402 E7.53186
G1 X99.735 Y109.496 E7.54979
G1 X99.093 Y109.517 E7.56280
G1 X80.907 Y109.517 E7.93132
G1 X80.213 Y109.493 E7.94538
G1 X79.385 Y109.402 E7.96225
G1 X78.517 Y109.231 E7.98018
G1 X77.627 Y108.971 E7.99898
G1 X77.211 Y108.819 E8.00795
G1 X76.463 Y108.491 E8.02449
G1 X75.664 Y108.056 E8.04292
G1 X74.893 Y107.541 E8.06172
G1 X74.200 Y106.982 E8.07977
G1 X73.596 Y106.404 E8.09671
G1 X73.296 Y106.078 E8.10567
G1 X72.741 Y105.389 E8.12360
G1 X72.462 Y104.991 E8.13345
G1 X72.026 Y104.272 E8.15049
G1 X71.379 Y103.028 E8.17890
G1 X70.855 Y101.839 E8.20523
G1 X70.537 Y100.997 E8.22348
G1 X70.256 Y100.141 E8.24172
G1 X69.893 Y98.787 E8.27014
G1 X69.709 Y97.905 E8.28838
G1 X69.563 Y97.017 E8.30663
G1 X69.422 Y95.725 E8.33296
G1 X69.372 Y94.826 E8.35121
G1 X69.358 Y94.125 E8.36541
G1 X69.358 Y79.625 E8.65923
G1 X69.756 Y76.958 E8.71388
G1 X70.915 Y74.522 E8.76852
G1 X72.526 Y72.759 E8.81691
G1 X72.996 Y73.213 F1800.000
G1 X73.346 Y72.849 E8.82714 F1800.000
G1 X75.634 Y71.609 E8.87987
G1 X78.500 Y71.112 E8.93882
G1 X101.500 Y71.112 E9.40487
G1 X104.071 Y71.509 E9.45760
G1 X106.403 Y72.665 E9.51032 F1800.000
G1 X108.276 Y74.471 E9.56305
G1 X109.516 Y76.759 E9.61577
G1 X110.013 Y79.625 E9.67472
G1 X110.013 Y94.125 E9.96854
G1 X109.984 Y95.183 E9.98999
G1 X109.864 Y96.553 E10.01785
G1 X109.739 Y97.418 E10.03557
G1 X109.497 Y98.638 E10.06076
G1 X109.141 Y99.966 E10.08862
G1 X108.741 Y101.142 E10.11380
G1 X108.215 Y102.414 E10.14168
G1 X107.664 Y103.530 E10.16690
G1 X107.237 Y104.292 E10.18460
G1 X107.015 Y104.642 E10.19300
G1 X106.490 Y105.357 E10.21099
G1 X105.980 Y105.937 E10.22663
G1 X105.687 Y106.232 E10.23505
G1 X105.031 Y106.808 E10.25275
G1 X104.360 Y107.297 E10.26956
G1 X103.996 Y107.527 E10.27829
G1 X103.320 Y107.897 E10.29391
G1 X102.521 Y108.249 E10.31160
G1 X102.130 Y108.390 E10.32003
G1 X101.376 Y108.610 E10.33595
G1 X100.519 Y108.781 E10.35364
G1 X99.694 Y108.869 E10.37046
G1 X99.093 Y108.888 E10.38264
G1 X80.907 Y108.888 E10.75115
G1 X80.255 Y108.866 E10.76438
G1 X79.481 Y108.781 E10.78015
G1 X78.667 Y108.621 E10.79696
G1 X77.829 Y108.376 E10.81465
G1 X77.439 Y108.233 E10.82307
G1 X76.740 Y107.927 E10.83853
G1 X75.990 Y107.519 E10.85582
G1 X75.264 Y107.034 E10.87351
G1 X74.614 Y106.509 E10.89044
G1 X74.050 Y105.969 E10.90627
G1 X73.769 Y105.664 E10.91468
G1 X73.248 Y105.018 E10.93150
G1 X72.985 Y104.642 E10.94079
G1 X72.577 Y103.970 E10.95672
G1 X71.942 Y102.750 E10.98458
G1 X71.441 Y101.611 E11.00980
G1 X71.132 Y100.795 E11.02749
G1 X70.859 Y99.965 E11.04518
G1 X70.503 Y98.638 E11.07304
G1 X70.325 Y97.783 E11.09073
G1 X70.184 Y96.921 E11.10842
G1 X70.049 Y95.684 E11.13364
G1 X70.000 Y94.812 E11.15133
G1 X69.987 Y94.125 E11.16526
G1 X69.987 Y79.625 E11.45907
G1 X70.384 Y77.054 E11.51180
G1 X71.540 Y74.722 E11.56453
G1 X72.954 Y73.256 E11.60580
G1 X73.406 Y73.718 F1800.000
G1 X73.956 Y73.181 E11.62138 F1800.000
G1 X76.205 Y72.081 E11.67211
G1 X78.500 Y71.740 E11.71913
G1 X101.500 Y71.740 E12.18518
G1 X103.972 Y72.138 E12.23591
G1 X106.194 Y73.290 E12.28664 F1800.000
G1 X107.944 Y75.081 E12.33737
G1 X109.044 Y77.330 E12.38810
G1 X109.385 Y79.625 E12.43512
G1 X109.385 Y94.125 E12.72894
G1 X109.357 Y95.142 E12.74956
G1 X109.240 Y96.484 E12.77686
G1 X109.118 Y97.323 E12.79402
G1 X108.886 Y98.488 E12.81810
G1 X108.538 Y99.790 E12.84541
G1 X108.156 Y100.915 E12.86948
G1 X107.640 Y102.161 E12.89681
G1 X107.114 Y103.228 E12.92091
G1 X106.700 Y103.966 E12.93806
G1 X106.493 Y104.293 E12.94590
G1 X106.000 Y104.963 E12.96276
G1 X105.527 Y105.503 E12.97731
G1 X105.253 Y105.778 E12.98517
G1 X104.637 Y106.318 E13.00176
G1 X104.011 Y106.775 E13.01747
G1 X103.671 Y106.990 E13.02562
G1 X103.042 Y107.334 E13.04014
G1 X102.293 Y107.663 E13.05673
G1 X101.928 Y107.795 E13.06460
G1 X101.226 Y108.000 E13.07941
G1 X100.467 Y108.153 E13.09511
G1 X99.653 Y108.242 E13.11170
G1 X99.093 Y108.260 E13.12304
G1 X80.907 Y108.260 E13.49156
G1 X80.296 Y108.239 E13.50394
G1 X79.577 Y108.160 E13.51861
G1 X78.816 Y108.010 E13.53431
G1 X78.031 Y107.781 E13.55089
G1 X77.666 Y107.648 E13.55875
G1 X77.016 Y107.363 E13.57314
G1 X76.316 Y106.982 E13.58928
G1 X75.636 Y106.527 E13.60586
G1 X75.029 Y106.037 E13.62167
G1 X74.504 Y105.535 E13.63640
G1 X74.241 Y105.250 E13.64425
G1 X73.755 Y104.646 E13.65996
G1 X73.507 Y104.293 E13.66870
G1 X73.128 Y103.668 E13.68352
G1 X72.506 Y102.473 E13.71082
G1 X72.027 Y101.384 E13.73493
G1 X71.727 Y100.593 E13.75206
G1 X71.462 Y99.790 E13.76920
G1 X71.114 Y98.488 E13.79650
G1 X70.941 Y97.660 E13.81364
G1 X70.805 Y96.826 E13.83077
G1 X70.676 Y95.643 E13.85488
G1 X70.617 Y94.296 E13.88220
G1 X70.615 Y79.625 E14.17948
G1 X71.013 Y77.153 E14.23021
G1 X72.165 Y74.931 E14.28094
G1 X73.363 Y73.760 E14.31488
G1 X73.793 Y74.232 F1800.000
G1 X74.562 Y73.530 E14.33598 F1800.000
G1 X76.767 Y72.578 E14.38464
G1 X78.500 Y72.368 E14.42001
G1 X101.500 Y72.368 E14.88606
G1 X103.868 Y72.766 E14.93472
G1 X105.977 Y73.914 E14.98337 F1800.000
G1 X107.595 Y75.687 E15.03202
G1 X108.547 Y77.892 E15.08068
G1 X108.757 Y79.625 E15.11605
G1 X108.757 Y94.125 E15.40987
G1 X108.730 Y95.101 E15.42966
G1 X108.615 Y96.416 E15.45640
G1 X108.497 Y97.227 E15.47300
G1 X108.276 Y98.339 E15.49598
G1 X107.934 Y99.614 E15.52273
G1 X107.570 Y100.687 E15.54569
G1 X107.065 Y101.908 E15.57246
G1 X106.563 Y102.925 E15.59545
G1 X106.163 Y103.640 E15.61205
G1 X105.970 Y103.944 E15.61933
G1 X105.519 Y104.559 E15.63480
G1 X105.042 Y105.100 E15.64940
G1 X104.782 Y105.359 E15.65684
G1 X104.278 Y105.801 E15.67043
G1 X103.662 Y106.252 E15.68590
G1 X103.346 Y106.452 E15.69347
G1 X102.765 Y106.770 E15.70691
G1 X102.066 Y107.078 E15.72238
G1 X101.726 Y107.200 E15.72970
G1 X101.077 Y107.390 E15.74340
G1 X100.371 Y107.532 E15.75799
G1 X99.612 Y107.615 E15.77347
G1 X99.093 Y107.632 E15.78398
G1 X80.907 Y107.632 E16.15250
G1 X80.388 Y107.615 E16.16300
G1 X79.987 Y107.580 E16.17118
G1 X79.274 Y107.468 E16.18580
G1 X78.619 Y107.308 E16.19945
G1 X78.274 Y107.200 E16.20678
G1 X77.601 Y106.941 E16.22139
G1 X76.916 Y106.603 E16.23686
G1 X76.301 Y106.228 E16.25146
G1 X76.005 Y106.019 E16.25881
G1 X75.479 Y105.597 E16.27247
G1 X74.958 Y105.100 E16.28707
G1 X74.454 Y104.526 E16.30255
G1 X74.054 Y103.980 E16.31626
G1 X73.860 Y103.677 E16.32356
G1 X73.291 Y102.645 E16.34743
G1 X72.733 Y101.448 E16.37418
G1 X72.430 Y100.688 E16.39076
G1 X72.161 Y99.916 E16.40734
G1 X71.843 Y98.826 E16.43034
G1 X71.558 Y97.538 E16.45708
G1 X71.385 Y96.416 E16.48008
G1 X71.303 Y95.602 E16.49666
G1 X71.256 Y94.785 E16.51324
G1 X71.243 Y79.625 E16.82043
G1 X71.641 Y77.257 E16.86908
G1 X72.789 Y75.148 E16.91773
G1 X73.749 Y74.272 E16.94407
G1 X74.153 Y74.751 F1800.000
G1 X75.165 Y73.897 E16.97090 F1800.000
G1 X77.317 Y73.103 E17.01739
G1 X78.500 Y72.997 E17.04145
G1 X101.500 Y72.997 E17.50750
G1 X103.759 Y73.394 E17.55399
G1 X105.748 Y74.537 E17.60047 F1800.000
G1 X107.228 Y76.290 E17.64696
G1 X108.022 Y78.442 E17.69344
G1 X108.128 Y79.625 E17.71750
G1 X108.128 Y94.125 E18.01132
G1 X108.103 Y95.060 E18.03028
G1 X107.991 Y96.348 E18.05646
G1 X107.876 Y97.131 E18.07251
G1 X107.666 Y98.190 E18.09437
G1 X107.331 Y99.438 E18.12057
G1 X106.985 Y100.459 E18.14242
G1 X106.490 Y101.655 E18.16864
G1 X106.012 Y102.623 E18.19052
G1 X105.603 Y103.351 E18.20744
G1 X105.420 Y103.636 E18.21429
G1 X105.056 Y104.132 E18.22677
G1 X104.589 Y104.666 E18.24114
G1 X104.348 Y104.904 E18.24801
G1 X103.897 Y105.301 E18.26017
G1 X103.349 Y105.705 E18.27397
G1 X102.743 Y106.073 E18.28834
G1 X102.447 Y106.226 E18.29508
G1 X101.878 Y106.476 E18.30768
G1 X101.207 Y106.704 E18.32205
G1 X100.885 Y106.790 E18.32879
G1 X100.275 Y106.911 E18.34139
G1 X99.571 Y106.988 E18.35576
G1 X99.093 Y107.003 E18.36544
G1 X80.907 Y107.003 E18.73395
G1 X80.055 Y106.955 E18.75124
G1 X79.396 Y106.852 E18.76475
G1 X78.795 Y106.705 E18.77730
G1 X78.476 Y106.605 E18.78407
G1 X77.854 Y106.366 E18.79756
G1 X77.219 Y106.052 E18.81193
G1 X76.651 Y105.705 E18.82542
G1 X76.377 Y105.512 E18.83220
G1 X75.894 Y105.125 E18.84476
G1 X75.411 Y104.666 E18.85825
G1 X74.944 Y104.132 E18.87261
G1 X74.576 Y103.631 E18.88521
G1 X74.397 Y103.351 E18.89196
G1 X73.855 Y102.367 E18.91472
G1 X73.510 Y101.655 E18.93075
G1 X73.198 Y100.928 E18.94678
G1 X72.756 Y99.714 E18.97296
G1 X72.453 Y98.677 E18.99485
G1 X72.174 Y97.415 E19.02104
G1 X72.009 Y96.348 E19.04292
G1 X71.930 Y95.561 E19.05895
G1 X71.884 Y94.771 E19.07497
G1 X71.872 Y79.625 E19.38188
G1 X72.269 Y77.366 E19.42837
G1 X73.412 Y75.377 E19.47485
G1 X74.107 Y74.790 E19.49329
G1 E16.49329 F2400.00000
G92 E0
G1 X81.419 Y82.304 F1800.000
G1 E3.00000 F2400.00000
G1 X79.821 Y82.304 E3.03239 F1800.000
G1 X79.821 Y80.946 E3.05990
G1 X100.179 Y80.946 E3.47242
G1 X100.179 Y82.304 E3.49994
G1 X81.479 Y82.304 E3.87885 F1800.000
G1 X81.479 Y82.932 F1800.000
G1 X79.807 Y82.932 E3.91273 F1800.000
G1 X79.807 Y94.140 E4.13984
G1 X79.845 Y95.013 E4.15755
G1 X79.961 Y95.888 E4.17542
G1 X80.051 Y96.343 E4.18482
G1 X80.276 Y97.183 E4.20245
G1 X80.424 Y97.618 E4.21176
G1 X80.761 Y98.432 E4.22961
G1 X81.202 Y99.302 E4.24937
G1 X81.198 Y99.453 E4.25243
G1 X81.168 Y99.526 E4.25403
G1 X81.057 Y99.636 E4.25719
G1 X80.907 Y99.676 E4.26035
G1 X80.732 Y99.621 E4.26406
G1 X80.660 Y99.553 E4.26607
G1 X80.412 Y99.112 E4.27631
G1 X80.209 Y98.699 E4.28565
G1 X79.842 Y97.814 E4.30506
G1 X79.695 Y97.382 E4.31430
G1 X79.450 Y96.464 E4.33356
G1 X79.284 Y95.528 E4.35282
G1 X79.235 Y95.074 E4.36207
G1 X79.193 Y94.110 E4.38163
G1 X79.193 Y80.318 E4.66110
G1 X100.807 Y80.318 E5.09908
G1 X100.807 Y94.110 E5.37856
G1 X100.765 Y95.074 E5.39812 F1800.000
G1 X100.716 Y95.528 E5.40737
G1 X100.549 Y96.471 E5.42678
G1 X100.441 Y96.915 E5.43603
G1 X100.156 Y97.816 E5.45518
G1 X99.794 Y98.691 E5.47437
G1 X99.351 Y99.538 E5.49374
G1 X99.290 Y99.606 E5.49559
G1 X99.209 Y99.653 E5.49750
G1 X99.062 Y99.674 E5.50050
G1 X98.967 Y99.646 E5.50250
G1 X98.844 Y99.543 E5.50576
G1 X98.804 Y99.452 E5.50775
G1 X98.790 Y99.326 E5.51033
G1 X99.235 Y98.439 E5.53044
G1 X99.420 Y98.019 E5.53974
G1 X99.719 Y97.197 E5.55745
G1 X99.848 Y96.756 E5.56677
G1 X100.038 Y95.895 E5.58464
G1 X100.155 Y95.013 E5.60266
G1 X100.193 Y94.140 E5.62037
G1 X100.193 Y82.932 E5.84747
G1 X81.539 Y82.932 E6.22545
G1 X81.539 Y83.425 F1800.000
G1 X80.300 Y83.425 E6.23972 F1800.000
G1 X80.300 Y94.129 E6.36299
G1 X80.337 Y94.970 E6.37269
G1 X80.447 Y95.807 E6.38241
G1 X80.531 Y96.231 E6.38738
G1 X80.748 Y97.040 E6.39702
G1 X80.886 Y97.445 E6.40195
G1 X81.209 Y98.224 E6.41166
G1 X81.645 Y99.069 E6.42261
G1 X81.686 Y99.200 E6.42420
G1 X81.705 Y99.373 E6.42620
G1 X81.678 Y99.582 E6.42862
G1 X81.598 Y99.774 E6.43102
G1 X81.471 Y99.939 E6.43342
G1 X81.306 Y100.066 E6.43582
G1 X81.113 Y100.146 E6.43822
G1 X80.907 Y100.173 E6.44062
G1 X80.702 Y100.146 E6.44300
G1 X80.474 Y100.046 E6.44587
G1 X80.340 Y99.938 E6.44785
G1 X80.253 Y99.834 E6.44941
G1 X79.976 Y99.342 E6.45591
G1 X79.760 Y98.903 E6.46156
G1 X79.381 Y97.988 E6.47296
G1 X79.224 Y97.525 E6.47859
G1 X78.968 Y96.571 E6.48996
G1 X78.796 Y95.598 E6.50134
G1 X78.743 Y95.112 E6.50697
G1 X78.700 Y94.121 E6.51839
G1 X78.700 Y79.825 E6.68302
G1 X101.300 Y79.825 E6.94328
G1 X101.300 Y94.121 E7.10790
G1 X101.257 Y95.112 E7.11933 F1800.000
G1 X101.204 Y95.598 E7.12496
G1 X101.032 Y96.573 E7.13636
G1 X100.915 Y97.048 E7.14198
G1 X100.620 Y97.985 E7.15330
G1 X100.241 Y98.900 E7.16471
G1 X99.767 Y99.804 E7.17646
G1 X99.583 Y100.006 E7.17961
G1 X99.399 Y100.113 E7.18206
G1 X99.197 Y100.166 E7.18446
G1 X98.991 Y100.166 E7.18684
G1 X98.756 Y100.098 E7.18966
G1 X98.553 Y99.962 E7.19247
G1 X98.421 Y99.806 E7.19483
G1 X98.323 Y99.581 E7.19765
G1 X98.296 Y99.334 E7.20052
G1 X98.313 Y99.202 E7.20205
G1 X98.355 Y99.069 E7.20365
G1 X98.790 Y98.226 E7.21458
G1 X98.963 Y97.835 E7.21950
G1 X99.250 Y97.044 E7.22919
G1 X99.370 Y96.633 E7.23412
G1 X99.553 Y95.809 E7.24384
G1 X99.663 Y94.970 E7.25358
G1 X99.700 Y94.129 E7.26328
G1 X99.700 Y83.425 E7.38655
G1 X81.599 Y83.425 E7.59499
G1 X81.339 Y83.079 F1800.000
G1 E4.59499 F2400.00000
G92 E0
G1 X80.135 Y81.625 F1800.000
G1 E3.00000 F2400.00000
G1 X99.865 Y81.625 E3.82688 F1800.000
M106 S234.6
G1 Z0.400 F1800.000
G1 E0.82688 F2400.00000
G92 E0
G1 X87.589 Y80.946 F1800.000
G1 E3.00000 F2400.00000
G1 X100.179 Y80.946 E3.25511 F1800.000
G1 X100.179 Y82.304 E3.28262
G1 X79.821 Y82.304 E3.69514 F1800.000
G1 X79.821 Y80.946 E3.72266
G1 X87.529 Y80.946 E3.87885
G1 X87.529 Y80.318 F1800.000
G1 X100.807 Y80.318 E4.14790 F1800.000
G1 X100.807 Y94.117 E4.42753
G1 X100.797 Y94.589 E4.43709 F1800.000
G1 X100.714 Y95.536 E4.45634
G1 X100.549 Y96.471 E4.47560
G1 X100.441 Y96.915 E4.48485
G1 X100.160 Y97.807 E4.50381
G1 X99.794 Y98.692 E4.52319
G1 X99.351 Y99.538 E4.54256
G1 X99.290 Y99.606 E4.54441
G1 X99.209 Y99.653 E4.54632
G1 X99.062 Y99.674 E4.54932
