; generated by Slic3r 1.2.9 on 2021-03-24 at 21:27:48

; external perimeters extrusion width = 0.40mm
; perimeters extrusion width = 0.67mm
; infill extrusion width = 0.67mm
; solid infill extrusion width = 0.67mm
; top infill extrusion width = 0.67mm

M190 S60 ; set bed temperature
M104 S200 ; set temperature
G28 ; home all axes
G1 Z5 F5000 ; lift nozzle

M109 S200 ; wait for temperature to be reached
G21 ; set units to millimeters
G90 ; use absolute coordinates
M82 ; use absolute distances for extrusion
G92 E0
G1 Z0.300 F1800.000
G1 E-3.00000 F2400.00000
G92 E0
G1 X64.039 Y63.873 F1800.000
G1 E3.00000 F2400.00000
G1 X65.115 Y62.843 E3.02976 F1800.000
G1 X66.323 Y61.783 E3.06187
G1 X67.577 Y60.777 E3.09397
G1 X68.873 Y59.827 E3.12608
G1 X70.209 Y58.934 E3.15818
G1 X71.583 Y58.101 E3.19029
G1 X72.992 Y57.328 E3.22240
G1 X74.436 Y56.616 E3.25456
G1 X76.013 Y55.927 E3.28895
G1 X77.402 Y55.387 E3.31871
G1 X78.924 Y54.870 E3.35082
G1 X80.467 Y54.421 E3.38292
G1 X82.028 Y54.039 E3.41503
G1 X83.604 Y53.725 E3.44713
G1 X85.192 Y53.481 E3.47924
G1 X86.792 Y53.306 E3.51140
G1 X88.511 Y53.198 E3.54579
G1 X90.000 Y53.166 E3.57556 F1800.000
G1 X91.607 Y53.201 E3.60766
G1 X93.210 Y53.306 E3.63977
G1 X94.808 Y53.481 E3.67187
G1 X96.396 Y53.725 E3.70398
G1 X97.972 Y54.039 E3.73608
G1 X99.533 Y54.421 E3.76819
G1 X101.076 Y54.870 E3.80030
G1 X102.598 Y55.387 E3.83240
G1 X104.096 Y55.970 E3.86451
G1 X105.567 Y56.617 E3.89661
G1 X107.008 Y57.328 E3.92872
G1 X108.417 Y58.101 E3.96082
G1 X109.791 Y58.934 E3.99293
G1 X111.127 Y59.827 E4.02504
G1 X112.423 Y60.777 E4.05714
G1 X113.677 Y61.783 E4.08925
G1 X114.885 Y62.843 E4.12135
G1 X116.046 Y63.954 E4.15346
G1 X117.157 Y65.115 E4.18556
G1 X118.217 Y66.323 E4.21767
G1 X119.223 Y67.577 E4.24978
G1 X120.173 Y68.873 E4.28188
G1 X121.066 Y70.209 E4.31399
G1 X121.899 Y71.583 E4.34609
G1 X122.672 Y72.992 E4.37820
G1 X123.384 Y74.436 E4.41036
G1 X124.073 Y76.013 E4.44475
G1 X124.613 Y77.402 E4.47451
G1 X125.130 Y78.924 E4.50662
G1 X125.579 Y80.467 E4.53873
G1 X125.961 Y82.028 E4.57083
G1 X126.275 Y83.604 E4.60294
G1 X126.519 Y85.192 E4.63504
G1 X126.694 Y86.790 E4.66715
G1 X126.799 Y88.393 E4.69925
G1 X126.834 Y90.003 E4.73142
G1 X126.792 Y91.724 E4.76581
G1 X126.694 Y93.210 E4.79557
G1 X126.519 Y94.808 E4.82768
G1 X126.275 Y96.396 E4.85978
G1 X125.961 Y97.972 E4.89189
G1 X125.579 Y99.533 E4.92399
G1 X125.130 Y101.076 E4.95610
G1 X124.613 Y102.598 E4.98820
G1 X124.030 Y104.096 E5.02031
G1 X123.383 Y105.567 E5.05242
G1 X122.672 Y107.008 E5.08452
G1 X121.899 Y108.417 E5.11663
G1 X121.064 Y109.793 E5.14879
G1 X120.104 Y111.222 E5.18318
G1 X119.223 Y112.423 E5.21294
G1 X118.217 Y113.677 E5.24505
G1 X117.157 Y114.885 E5.27715
G1 X116.044 Y116.048 E5.30932
G1 X114.797 Y117.234 E5.34371
G1 X113.677 Y118.217 E5.37347
G1 X112.423 Y119.223 E5.40558
G1 X111.127 Y120.173 E5.43768
G1 X109.791 Y121.066 E5.46979
G1 X108.417 Y121.899 E5.50189
G1 X107.008 Y122.672 E5.53400
G1 X105.564 Y123.384 E5.56616
G1 X103.987 Y124.073 E5.60055
G1 X102.598 Y124.613 E5.63031
G1 X101.076 Y125.130 E5.66242
G1 X99.533 Y125.579 E5.69452
G1 X97.972 Y125.961 E5.72663
G1 X96.396 Y126.275 E5.75874
G1 X94.808 Y126.519 E5.79084
G1 X93.210 Y126.694 E5.82295
G1 X91.604 Y126.799 E5.85511
G1 X89.883 Y126.832 E5.88950
G1 X88.393 Y126.799 E5.91926
G1 X86.790 Y126.694 E5.95137
G1 X85.192 Y126.519 E5.98347
G1 X83.604 Y126.275 E6.01558
G1 X82.028 Y125.961 E6.04769
G1 X80.467 Y125.579 E6.07979
G1 X78.924 Y125.130 E6.11190
G1 X77.402 Y124.613 E6.14400
G1 X75.904 Y124.030 E6.17611
G1 X74.433 Y123.383 E6.20821
G1 X72.992 Y122.672 E6.24032
G1 X71.583 Y121.899 E6.27243
G1 X70.209 Y121.066 E6.30453
G1 X68.970 Y120.238 E6.33429
G1 X67.579 Y119.224 E6.36869
G1 X66.323 Y118.217 E6.40085
G1 X65.115 Y117.157 E6.43295
G1 X63.954 Y116.046 E6.46506
G1 X62.843 Y114.885 E6.49716
G1 X61.783 Y113.677 E6.52927
G1 X60.777 Y112.423 E6.56138
G1 X59.827 Y111.127 E6.59348
G1 X58.934 Y109.791 E6.62559
G1 X58.101 Y108.417 E6.65769
G1 X57.328 Y107.008 E6.68980
G1 X56.617 Y105.567 E6.72190
G1 X55.970 Y104.096 E6.75401
G1 X55.387 Y102.598 E6.78612
G1 X54.870 Y101.076 E6.81822
G1 X54.421 Y99.533 E6.85033
G1 X54.039 Y97.972 E6.88243
G1 X53.725 Y96.396 E6.91454
G1 X53.481 Y94.808 E6.94664
G1 X53.306 Y93.210 E6.97875
G1 X53.201 Y91.607 E7.01086
G1 X53.166 Y89.996 E7.04304
G1 X53.212 Y88.229 E7.07836
G1 X53.306 Y86.790 E7.10717
G1 X53.481 Y85.192 E7.13928
G1 X53.725 Y83.604 E7.17138
G1 X54.039 Y82.028 E7.20349
G1 X54.421 Y80.467 E7.23559
G1 X54.870 Y78.924 E7.26770
G1 X55.387 Y77.402 E7.29981
G1 X55.970 Y75.904 E7.33191
G1 X56.617 Y74.433 E7.36402
G1 X57.328 Y72.992 E7.39612
G1 X58.101 Y71.583 E7.42823
G1 X58.934 Y70.209 E7.46033
G1 X59.827 Y68.873 E7.49244
G1 X60.777 Y67.577 E7.52455
G1 X61.783 Y66.323 E7.55665
G1 X62.845 Y65.113 E7.58881
G1 X63.997 Y63.916 E7.62201
G1 X64.299 Y64.207 F1800.000
G1 X65.398 Y63.152 E7.65244 F1800.000
G1 X66.593 Y62.104 E7.68418
G1 X67.832 Y61.110 E7.71592
G1 X69.113 Y60.170 E7.74766
G1 X70.434 Y59.288 E7.77941
G1 X71.792 Y58.463 E7.81115
G1 X73.185 Y57.699 E7.84289
G1 X74.612 Y56.996 E7.87467
G1 X76.173 Y56.314 E7.90870
G1 X77.545 Y55.781 E7.93811
G1 X79.050 Y55.270 E7.96985
G1 X80.575 Y54.825 E8.00159
G1 X82.118 Y54.448 E8.03333
G1 X83.677 Y54.138 E8.06507
G1 X85.247 Y53.896 E8.09681
G1 X86.828 Y53.723 E8.12859
G1 X88.528 Y53.617 E8.16262
G1 X90.000 Y53.585 E8.19203 F1800.000
G1 X91.588 Y53.619 E8.22377
G1 X93.174 Y53.723 E8.25551
G1 X94.753 Y53.896 E8.28725
G1 X96.323 Y54.138 E8.31899
G1 X97.882 Y54.448 E8.35073
G1 X99.425 Y54.825 E8.38247
G1 X100.950 Y55.270 E8.41421
G1 X102.455 Y55.781 E8.44595
G1 X103.936 Y56.357 E8.47769
G1 X105.390 Y56.996 E8.50943
G1 X106.815 Y57.699 E8.54117
G1 X108.208 Y58.463 E8.57292
G1 X109.566 Y59.288 E8.60466
G1 X110.887 Y60.170 E8.63640
G1 X112.168 Y61.110 E8.66814
G1 X113.407 Y62.104 E8.69988
G1 X114.602 Y63.152 E8.73162
G1 X115.750 Y64.250 E8.76336
G1 X116.848 Y65.398 E8.79510
G1 X117.896 Y66.593 E8.82684
G1 X118.890 Y67.832 E8.85858
G1 X119.830 Y69.113 E8.89032
G1 X120.712 Y70.434 E8.92206
G1 X121.537 Y71.792 E8.95380
G1 X122.301 Y73.185 E8.98554
G1 X123.004 Y74.612 E9.01733
G1 X123.686 Y76.173 E9.05135
G1 X124.219 Y77.545 E9.08076
G1 X124.730 Y79.050 E9.11250
G1 X125.175 Y80.575 E9.14424
G1 X125.552 Y82.118 E9.17598
G1 X125.862 Y83.677 E9.20772
G1 X126.104 Y85.247 E9.23946
G1 X126.277 Y86.826 E9.27121
G1 X126.381 Y88.412 E9.30295
G1 X126.415 Y90.002 E9.33473
G1 X126.373 Y91.705 E9.36876
G1 X126.277 Y93.174 E9.39817
G1 X126.104 Y94.753 E9.42991
G1 X125.862 Y96.323 E9.46165
G1 X125.552 Y97.882 E9.49339
G1 X125.175 Y99.425 E9.52513
G1 X124.730 Y100.950 E9.55687
G1 X124.219 Y102.455 E9.58861
G1 X123.643 Y103.936 E9.62035
G1 X123.004 Y105.390 E9.65209
G1 X122.301 Y106.815 E9.68383
G1 X121.537 Y108.208 E9.71557
G1 X120.711 Y109.568 E9.74735
G1 X119.761 Y110.981 E9.78138
G1 X118.890 Y112.168 E9.81079
G1 X117.896 Y113.407 E9.84253
G1 X116.848 Y114.602 E9.87427
G1 X115.748 Y115.751 E9.90606
G1 X114.514 Y116.925 E9.94008
G1 X113.407 Y117.896 E9.96949
G1 X112.168 Y118.890 E10.00123
G1 X110.887 Y119.830 E10.03297
G1 X109.566 Y120.712 E10.06471
G1 X108.208 Y121.537 E10.09645
G1 X106.815 Y122.301 E10.12819
G1 X105.388 Y123.004 E10.15998
G1 X103.827 Y123.686 E10.19400
G1 X102.455 Y124.219 E10.22341
G1 X100.950 Y124.730 E10.25515
G1 X99.425 Y125.175 E10.28689
G1 X97.882 Y125.552 E10.31864
G1 X96.323 Y125.862 E10.35038
G1 X94.753 Y126.104 E10.38212
G1 X93.174 Y126.277 E10.41386
G1 X91.586 Y126.381 E10.44564
G1 X89.883 Y126.413 E10.47967
G1 X88.412 Y126.381 E10.50908
G1 X86.826 Y126.277 E10.54082
G1 X85.247 Y126.104 E10.57256
G1 X83.677 Y125.862 E10.60430
G1 X82.118 Y125.552 E10.63604
G1 X80.575 Y125.175 E10.66778
G1 X79.050 Y124.730 E10.69952
G1 X77.545 Y124.219 E10.73126
G1 X76.064 Y123.643 E10.76300
G1 X74.610 Y123.004 E10.79474
G1 X73.185 Y122.301 E10.82648
G1 X71.792 Y121.537 E10.85822
G1 X70.434 Y120.712 E10.88996
G1 X69.210 Y119.895 E10.91937
G1 X67.833 Y118.892 E10.95340
G1 X66.593 Y117.896 E10.98518
G1 X65.398 Y116.848 E11.01692
G1 X64.250 Y115.750 E11.04866
G1 X63.152 Y114.602 E11.08040
G1 X62.104 Y113.407 E11.11215
G1 X61.110 Y112.168 E11.14389
G1 X60.170 Y110.887 E11.17563
G1 X59.288 Y109.566 E11.20737
G1 X58.463 Y108.208 E11.23911
G1 X57.699 Y106.815 E11.27085
G1 X56.996 Y105.390 E11.30259
G1 X56.357 Y103.936 E11.33433
G1 X55.781 Y102.455 E11.36607
G1 X55.270 Y100.950 E11.39781
G1 X54.825 Y99.425 E11.42955
G1 X54.448 Y97.882 E11.46129
G1 X54.138 Y96.323 E11.49303
G1 X53.896 Y94.753 E11.52477
G1 X53.723 Y93.174 E11.55651
G1 X53.619 Y91.588 E11.58825
G1 X53.585 Y89.997 E11.62005
G1 X53.630 Y88.248 E11.65501
G1 X53.723 Y86.826 E11.68347
G1 X53.896 Y85.247 E11.71521
G1 X54.138 Y83.677 E11.74695
G1 X54.448 Y82.118 E11.77869
G1 X54.825 Y80.575 E11.81043
G1 X55.270 Y79.050 E11.84218
G1 X55.781 Y77.545 E11.87392
G1 X56.357 Y76.064 E11.90566
G1 X56.996 Y74.610 E11.93740
G1 X57.699 Y73.185 E11.96914
G1 X58.463 Y71.792 E12.00088
G1 X59.288 Y70.434 E12.03262
G1 X60.170 Y69.113 E12.06436
G1 X61.110 Y67.832 E12.09610
G1 X62.104 Y66.593 E12.12784
G1 X63.153 Y65.397 E12.15962
G1 X64.257 Y64.250 E12.19142
G1 X64.559 Y64.541 F1800.000
G1 X65.681 Y63.461 E12.22254 F1800.000
G1 X66.862 Y62.425 E12.25391
G1 X68.087 Y61.442 E12.28529
G1 X69.353 Y60.514 E12.31666
G1 X70.659 Y59.641 E12.34804
G1 X72.002 Y58.826 E12.37941
G1 X73.379 Y58.071 E12.41079
G1 X74.789 Y57.376 E12.44219
G1 X76.333 Y56.702 E12.47586
G1 X77.689 Y56.174 E12.50491
G1 X79.176 Y55.670 E12.53629
G1 X80.683 Y55.230 E12.56766
G1 X82.209 Y54.857 E12.59904
G1 X83.749 Y54.550 E12.63041
G1 X85.302 Y54.312 E12.66179
G1 X86.864 Y54.140 E12.69319
G1 X88.546 Y54.035 E12.72686
G1 X90.000 Y54.004 E12.75591 F1800.000
G1 X91.570 Y54.038 E12.78729
G1 X93.137 Y54.141 E12.81866
G1 X94.698 Y54.312 E12.85004
G1 X96.251 Y54.550 E12.88141
G1 X97.791 Y54.857 E12.91279
G1 X99.317 Y55.230 E12.94417
G1 X100.824 Y55.670 E12.97554
G1 X102.311 Y56.174 E13.00692
G1 X103.775 Y56.744 E13.03829
G1 X105.213 Y57.376 E13.06967
G1 X106.621 Y58.071 E13.10104
G1 X107.998 Y58.826 E13.13242
G1 X109.341 Y59.641 E13.16379
G1 X110.647 Y60.514 E13.19517
G1 X111.913 Y61.442 E13.22654
G1 X113.138 Y62.425 E13.25792
G1 X114.319 Y63.461 E13.28929
G1 X115.453 Y64.547 E13.32067
G1 X116.539 Y65.681 E13.35204
G1 X117.575 Y66.862 E13.38342
G1 X118.558 Y68.087 E13.41480
G1 X119.486 Y69.353 E13.44617
G1 X120.359 Y70.659 E13.47755
G1 X121.174 Y72.002 E13.50892
G1 X121.929 Y73.379 E13.54030
G1 X122.624 Y74.789 E13.57170
G1 X123.298 Y76.333 E13.60536
G1 X123.826 Y77.689 E13.63442
G1 X124.330 Y79.176 E13.66580
G1 X124.770 Y80.683 E13.69717
G1 X125.143 Y82.209 E13.72855
G1 X125.450 Y83.749 E13.75992
G1 X125.688 Y85.302 E13.79130
G1 X125.859 Y86.863 E13.82267
G1 X125.962 Y88.430 E13.85405
G1 X125.996 Y90.002 E13.88545
G1 X125.955 Y91.686 E13.91912
G1 X125.859 Y93.137 E13.94817
G1 X125.688 Y94.698 E13.97955
G1 X125.450 Y96.251 E14.01092
G1 X125.143 Y97.791 E14.04230
G1 X124.770 Y99.317 E14.07367
G1 X124.330 Y100.824 E14.10505
G1 X123.826 Y102.311 E14.13642
G1 X123.256 Y103.775 E14.16780
G1 X122.624 Y105.213 E14.19918
G1 X121.929 Y106.621 E14.23055
G1 X121.174 Y107.998 E14.26193
G1 X120.358 Y109.342 E14.29333
G1 X119.418 Y110.740 E14.32699
G1 X118.558 Y111.913 E14.35605
G1 X117.575 Y113.138 E14.38743
G1 X116.539 Y114.319 E14.41880
G1 X115.452 Y115.454 E14.45021
G1 X114.232 Y116.616 E14.48387
G1 X113.138 Y117.575 E14.51293
G1 X111.913 Y118.558 E14.54430
G1 X110.647 Y119.486 E14.57568
G1 X109.341 Y120.359 E14.60705
G1 X107.998 Y121.174 E14.63843
G1 X106.621 Y121.929 E14.66980
G1 X105.211 Y122.624 E14.70121
G1 X103.667 Y123.298 E14.73487
G1 X102.311 Y123.826 E14.76393
G1 X100.824 Y124.330 E14.79530
G1 X99.317 Y124.770 E14.82668
G1 X97.791 Y125.143 E14.85805
G1 X96.251 Y125.450 E14.88943
G1 X94.698 Y125.688 E14.92080
G1 X93.137 Y125.859 E14.95218
G1 X91.569 Y125.962 E14.98358
G1 X89.884 Y125.994 E15.01725
G1 X88.430 Y125.962 E15.04630
G1 X86.863 Y125.859 E15.07768
G1 X85.302 Y125.688 E15.10905
G1 X83.749 Y125.450 E15.14043
G1 X82.209 Y125.143 E15.17180
G1 X80.683 Y124.770 E15.20318
G1 X79.176 Y124.330 E15.23455
G1 X77.689 Y123.826 E15.26593
G1 X76.225 Y123.256 E15.29731
G1 X74.787 Y122.624 E15.32868
G1 X73.379 Y121.929 E15.36006
G1 X72.002 Y121.174 E15.39143
G1 X70.659 Y120.359 E15.42281
G1 X69.450 Y119.551 E15.45186
G1 X68.088 Y118.559 E15.48553
G1 X66.862 Y117.575 E15.51693
G1 X65.681 Y116.539 E15.54831
G1 X64.547 Y115.453 E15.57968
G1 X63.461 Y114.319 E15.61106
G1 X62.425 Y113.138 E15.64243
G1 X61.442 Y111.913 E15.67381
G1 X60.514 Y110.647 E15.70518
G1 X59.641 Y109.341 E15.73656
G1 X58.826 Y107.998 E15.76793
G1 X58.071 Y106.621 E15.79931
G1 X57.376 Y105.213 E15.83068
G1 X56.744 Y103.775 E15.86206
G1 X56.174 Y102.311 E15.89344
G1 X55.670 Y100.824 E15.92481
G1 X55.230 Y99.317 E15.95619
G1 X54.857 Y97.791 E15.98756
G1 X54.550 Y96.251 E16.01894
G1 X54.312 Y94.698 E16.05031
G1 X54.141 Y93.137 E16.08169
G1 X54.038 Y91.570 E16.11306
G1 X54.004 Y89.998 E16.14448
G1 X54.049 Y88.267 E16.17907
G1 X54.141 Y86.863 E16.20719
G1 X54.312 Y85.302 E16.23856
G1 X54.550 Y83.749 E16.26994
G1 X54.857 Y82.209 E16.30131
G1 X55.230 Y80.683 E16.33269
G1 X55.670 Y79.176 E16.36406
G1 X56.174 Y77.689 E16.39544
G1 X56.744 Y76.225 E16.42681
G1 X57.376 Y74.787 E16.45819
G1 X58.071 Y73.379 E16.48956
G1 X58.826 Y72.002 E16.52094
G1 X59.641 Y70.659 E16.55231
G1 X60.514 Y69.353 E16.58369
G1 X61.442 Y68.087 E16.61507
G1 X62.425 Y66.862 E16.64644
G1 X63.462 Y65.680 E16.67785
G1 X64.517 Y64.584 E16.70825
G1 X64.819 Y64.874 F1800.000
G1 X65.964 Y63.770 E16.74004 F1800.000
G1 X67.131 Y62.746 E16.77105
G1 X68.342 Y61.775 E16.80206
G1 X69.594 Y60.857 E16.83307
G1 X70.884 Y59.994 E16.86408
G1 X72.211 Y59.189 E16.89509
G1 X73.572 Y58.442 E16.92610
G1 X74.965 Y57.756 E16.95713
G1 X76.493 Y57.089 E16.99043
G1 X77.832 Y56.568 E17.01913
G1 X79.302 Y56.069 E17.05014
G1 X80.792 Y55.635 E17.08115
G1 X82.300 Y55.266 E17.11216
G1 X83.822 Y54.963 E17.14317
G1 X85.356 Y54.727 E17.17418
G1 X86.900 Y54.558 E17.20521
G1 X88.564 Y54.454 E17.23850
G1 X90.000 Y54.423 E17.26721 F1800.000
G1 X91.552 Y54.456 E17.29822
G1 X93.101 Y54.558 E17.32923
G1 X94.644 Y54.727 E17.36024
G1 X96.178 Y54.963 E17.39125
G1 X97.700 Y55.266 E17.42226
G1 X99.208 Y55.635 E17.45327
G1 X100.698 Y56.069 E17.48428
G1 X102.168 Y56.568 E17.51529
G1 X103.615 Y57.131 E17.54630
G1 X105.036 Y57.756 E17.57731
G1 X106.428 Y58.442 E17.60832
G1 X107.789 Y59.189 E17.63933
G1 X109.116 Y59.994 E17.67034
G1 X110.406 Y60.857 E17.70135
G1 X111.658 Y61.775 E17.73236
G1 X112.869 Y62.746 E17.76337
G1 X114.036 Y63.770 E17.79438
G1 X115.157 Y64.843 E17.82539
G1 X116.230 Y65.964 E17.85640
G1 X117.254 Y67.131 E17.88741
G1 X118.225 Y68.342 E17.91842
G1 X119.143 Y69.594 E17.94943
G1 X120.006 Y70.884 E17.98044
G1 X120.811 Y72.211 E18.01145
G1 X121.558 Y73.572 E18.04246
G1 X122.244 Y74.965 E18.07349
G1 X122.911 Y76.493 E18.10679
G1 X123.432 Y77.832 E18.13549
G1 X123.931 Y79.302 E18.16650
G1 X124.365 Y80.792 E18.19751
G1 X124.734 Y82.300 E18.22852
G1 X125.037 Y83.822 E18.25953
G1 X125.273 Y85.356 E18.29054
G1 X125.442 Y86.899 E18.32155
G1 X125.544 Y88.448 E18.35256
G1 X125.577 Y90.001 E18.38359
G1 X125.536 Y91.667 E18.41689
G1 X125.442 Y93.101 E18.44559
G1 X125.273 Y94.644 E18.47660
G1 X125.037 Y96.178 E18.50761
G1 X124.734 Y97.700 E18.53862
G1 X124.365 Y99.208 E18.56963
G1 X123.931 Y100.698 E18.60064
G1 X123.432 Y102.168 E18.63165
G1 X122.869 Y103.615 E18.66266
G1 X122.244 Y105.036 E18.69367
G1 X121.558 Y106.428 E18.72468
G1 X120.811 Y107.789 E18.75569
G1 X120.005 Y109.116 E18.78672
G1 X119.075 Y110.499 E18.82002
G1 X118.225 Y111.658 E18.84872
G1 X117.254 Y112.869 E18.87973
G1 X116.230 Y114.036 E18.91074
G1 X115.156 Y115.158 E18.94177
G1 X113.949 Y116.306 E18.97507
G1 X112.869 Y117.254 E19.00377
G1 X111.658 Y118.225 E19.03478
G1 X110.406 Y119.143 E19.06579
G1 X109.116 Y120.006 E19.09680
G1 X107.789 Y120.811 E19.12781
G1 X106.428 Y121.558 E19.15882
G1 X105.035 Y122.244 E19.18985
G1 X103.507 Y122.911 E19.22315
G1 X102.168 Y123.432 E19.25185
G1 X100.698 Y123.931 E19.28286
G1 X99.208 Y124.365 E19.31387
